render-worker/luts/investor.cube
# Generated by render-worker/scripts/generate-luts.mjs
# Do not hand-edit — re-run the script and let math win.
TITLE "EstateMotion Investor — Desaturated film stock"
LUT_3D_SIZE 9
DOMAIN_MIN 0.0 0.0 0.0
DOMAIN_MAX 1.0 1.0 1.0
0.006565 0.021797 0.030535
0.088257 0.026033 0.034703
0.179711 0.030217 0.038807
0.279947 0.034394 0.042896
0.386569 0.038578 0.046983
0.496314 0.042776 0.051081
0.605486 0.046993 0.055200
0.710463 0.051235 0.059346
0.808165 0.055504 0.063528
0.022672 0.119157 0.045298
0.106760 0.124191 0.049594
0.200352 0.129156 0.053825
0.302276 0.134104 0.058039
0.409949 0.139052 0.062252
0.519984 0.144008 0.066477
0.628656 0.148978 0.070722
0.732417 0.153968 0.074996
0.828350 0.158979 0.079305
0.038904 0.228913 0.060005
0.125294 0.234629 0.064425
0.220893 0.240256 0.068779
0.324347 0.245853 0.073115
0.432898 0.251439 0.077450
0.543056 0.257023 0.081797
0.651090 0.262612 0.086166
0.753545 0.268210 0.090563
0.847670 0.273822 0.094995
0.055461 0.349062 0.074882
0.144087 0.355261 0.079426
0.241592 0.361350 0.083901
0.346438 0.367394 0.088358
0.455713 0.373412 0.092814
0.565839 0.379415 0.097282
0.673099 0.385411 0.101771
0.774150 0.391404 0.106290
0.866413 0.397397 0.110844
0.072358 0.475220 0.090010
0.163158 0.481630 0.094676
0.262469 0.487912 0.099272
0.368577 0.494133 0.103848
0.478423 0.500313 0.108424
0.588365 0.506465 0.113011
0.694722 0.512594 0.117621
0.794273 0.518706 0.122260
0.884623 0.524805 0.126934
0.089567 0.601852 0.105439
0.182480 0.608171 0.110228
0.283494 0.614348 0.114943
0.390730 0.620451 0.119638
0.500998 0.626501 0.124332
0.610611 0.632508 0.129039
0.715939 0.638481 0.133767
0.813901 0.644424 0.138525
0.902290 0.650340 0.143317
0.107049 0.723315 0.121211
0.202006 0.729261 0.126120
0.304620 0.735060 0.130954
0.412850 0.740777 0.135766
0.523392 0.746432 0.140578
0.632531 0.752035 0.145402
0.736712 0.757594 0.150247
0.833003 0.763113 0.155122
0.919391 0.768597 0.160030
0.124764 0.834859 0.137353
0.221693 0.840217 0.142381
0.325798 0.845433 0.147331
0.434887 0.850563 0.152259
0.545556 0.855627 0.157186
0.654084 0.860636 0.162125
0.757006 0.865595 0.167086
0.851553 0.870511 0.172075
0.935903 0.875385 0.177097
0.142680 0.933289 0.153879
0.241505 0.937935 0.159024
0.346990 0.942448 0.164088
0.456801 0.946879 0.169130
0.567452 0.951246 0.174169
0.675237 0.955557 0.179221
0.776796 0.959819 0.184293
0.869532 0.964037 0.189393
0.951818 0.968213 0.194526
0.008219 0.023339 0.115706
0.090162 0.027589 0.120576
0.181842 0.031787 0.125368
0.282259 0.035978 0.130135
0.388997 0.040175 0.134895
0.498780 0.044386 0.139660
0.607908 0.048617 0.144441
0.712764 0.052873 0.149245
0.810286 0.057155 0.154080
0.024381 0.120991 0.132923
0.108718 0.126038 0.137914
0.202529 0.131016 0.142824
0.304622 0.135977 0.147708
0.412397 0.140937 0.152585
0.522452 0.145906 0.157466
0.631063 0.150888 0.162363
0.734690 0.155890 0.167284
0.830432 0.160913 0.172234
0.040667 0.230997 0.149984
0.127302 0.236724 0.155090
0.223112 0.242361 0.160113
0.326723 0.247968 0.165108
0.435360 0.253563 0.170095
0.545523 0.259157 0.175087
0.653479 0.264755 0.180094
0.755787 0.270363 0.185125
0.849713 0.275983 0.190184
0.057275 0.351324 0.167148
0.146142 0.357529 0.172365
0.243850 0.363624 0.177497
0.348841 0.369673 0.182600
0.458186 0.375697 0.187694
0.568299 0.381706 0.192793
0.675467 0.387706 0.197906
0.776359 0.393704 0.203042
0.868415 0.399701 0.208207
0.074221 0.477560 0.184499
0.165258 0.483971 0.189824
0.264762 0.490254 0.195061
0.371002 0.496475 0.200269
0.480902 0.502656 0.205466
0.590816 0.508807 0.210668
0.697066 0.514936 0.215885
0.796446 0.521048 0.221123
0.886583 0.527145 0.226389
0.091478 0.604161 0.202086
0.184622 0.610475 0.207517
0.285820 0.616647 0.212857
0.393174 0.622745 0.218165
0.503480 0.628790 0.223463
0.613048 0.634792 0.228765
0.718255 0.640759 0.234080
0.816036 0.646696 0.239418
0.904206 0.652606 0.244781
0.109006 0.725490 0.219946
0.204187 0.731426 0.225479
0.306974 0.737216 0.230917
0.415308 0.742923 0.236323
0.525872 0.748568 0.241718
0.634951 0.754161 0.247116
0.738997 0.759710 0.252527
0.835099 0.765220 0.257959
0.921261 0.770693 0.263416
0.126764 0.836820 0.238102
0.223911 0.842165 0.243732
0.328177 0.847368 0.249265
0.437355 0.852486 0.254765
0.548030 0.857538 0.260252
0.656483 0.862534 0.265742
0.759258 0.867481 0.271244
0.853606 0.872383 0.276765
0.937727 0.877245 0.282311
0.144723 0.934990 0.256562
0.243758 0.939622 0.262285
0.349391 0.944121 0.267908
0.459276 0.948538 0.273496
0.569917 0.952891 0.279071
0.677612 0.957188 0.284647
0.779012 0.961437 0.290235
0.871541 0.965641 0.295841
0.953595 0.969804 0.301469
0.009829 0.024828 0.209486
0.092013 0.029091 0.214969
0.183910 0.033302 0.220356
0.284500 0.037506 0.225708
0.391349 0.041716 0.231043
0.501166 0.045941 0.236376
0.610249 0.050185 0.241715
0.714988 0.054453 0.247071
0.812336 0.058748 0.252449
0.026043 0.122761 0.228826
0.110619 0.127820 0.234409
0.204640 0.132810 0.239894
0.306896 0.137783 0.245341
0.414766 0.142756 0.250771
0.524840 0.147736 0.256197
0.633389 0.152731 0.261630
0.736886 0.157744 0.267078
0.832444 0.162779 0.272547
0.042380 0.233006 0.247876
0.129250 0.238743 0.253552
0.225264 0.244390 0.259127
0.329025 0.250007 0.264662
0.437743 0.255611 0.270178
0.547908 0.261214 0.275690
0.655788 0.266822 0.281208
0.757953 0.272438 0.286740
0.851686 0.278067 0.292293
0.059037 0.353503 0.266924
0.148136 0.359714 0.272687
0.246038 0.365814 0.278345
0.351168 0.371869 0.283962
0.460578 0.377898 0.289560
0.570678 0.383912 0.295152
0.677755 0.389917 0.300749
0.778492 0.395919 0.306359
0.870349 0.401921 0.311989
0.076030 0.479814 0.286057
0.167295 0.486225 0.291901
0.266984 0.492508 0.297637
0.373349 0.498730 0.303331
0.483300 0.504910 0.309005
0.593185 0.511061 0.314671
0.699330 0.517190 0.320342
0.798545 0.523301 0.326025
0.888475 0.529398 0.331726
0.093333 0.606382 0.305323
0.186698 0.612691 0.311243
0.288072 0.618858 0.317053
0.395538 0.624952 0.322818
0.505880 0.630991 0.328562
0.615402 0.636988 0.334298
0.720491 0.642950 0.340038
0.818097 0.648881 0.345788
0.906055 0.654785 0.351554
0.110904 0.727579 0.324755
0.206301 0.733506 0.330745
0.309253 0.739287 0.336623
0.417685 0.744985 0.342455
0.528269 0.750621 0.348263
0.637287 0.756205 0.354063
0.741203 0.761744 0.359865
0.837120 0.767244 0.365677
0.923066 0.772708 0.371503
0.128704 0.838703 0.344371
0.226059 0.844036 0.350426
0.330480 0.849226 0.356365
0.439741 0.854332 0.362257
0.550420 0.859372 0.368125
0.658799 0.864356 0.373982
0.761431 0.869291 0.379841
0.855586 0.874182 0.385707
0.939486 0.879031 0.391586
0.146703 0.936622 0.364176
0.245938 0.941240 0.370288
0.351714 0.945726 0.376283
0.461668 0.950130 0.382229
0.572298 0.954469 0.388148
0.679903 0.958754 0.394057
0.781150 0.962989 0.399965
0.873479 0.967181 0.405880
0.955308 0.971331 0.411805
0.011423 0.026292 0.311161
0.093843 0.030569 0.317119
0.185952 0.034793 0.322963
0.286712 0.039010 0.328758
0.393667 0.043233 0.334526
0.503517 0.047470 0.340279
0.612554 0.051727 0.346029
0.717177 0.056008 0.351785
0.814352 0.060316 0.357553
0.027689 0.124501 0.332125
0.112499 0.129573 0.338150
0.206725 0.134575 0.344059
0.309139 0.139560 0.349916
0.417101 0.144544 0.355744
0.527191 0.149537 0.361556
0.635680 0.154543 0.367365
0.739046 0.159568 0.373177
0.834423 0.164615 0.379000
0.044074 0.234982 0.352637
0.131176 0.240728 0.358721
0.227388 0.246385 0.364685
0.331295 0.252011 0.370595
0.440091 0.257625 0.376475
0.550256 0.263236 0.382338
0.658060 0.268853 0.388196
0.760083 0.274478 0.394057
0.853627 0.280116 0.399926
0.060779 0.355643 0.373011
0.150106 0.361861 0.379145
0.248198 0.367966 0.385156
0.353461 0.374026 0.391113
0.462935 0.380060 0.397037
0.573019 0.386079 0.402944
0.680006 0.392089 0.408844
0.780589 0.398095 0.414746
0.872249 0.404101 0.420655
0.077818 0.482025 0.393335
0.169306 0.488438 0.399513
0.269176 0.494721 0.405566
0.375663 0.500943 0.411562
0.485662 0.507123 0.417524
0.595515 0.513274 0.423468
0.701556 0.519402 0.429404
0.800607 0.525513 0.435339
0.890334 0.531609 0.441281
0.095165 0.608560 0.413660
0.188748 0.614865 0.419875
0.290293 0.621027 0.425963
0.397867 0.627116 0.431992
0.508242 0.633150 0.437986
0.617718 0.639142 0.443960
0.722690 0.645098 0.449924
0.820122 0.651024 0.455888
0.907871 0.656922 0.461855
0.112779 0.729627 0.434016
0.208386 0.735545 0.440261
0.311499 0.741317 0.446377
0.420026 0.747006 0.452432
0.530627 0.752632 0.458451
0.639585 0.758207 0.464449
0.743371 0.763737 0.470436
0.839106 0.769227 0.476421
0.924837 0.774681 0.482407
0.130619 0.840547 0.454420
0.228178 0.845868 0.460688
0.332748 0.851046 0.466825
0.442090 0.856140 0.472900
0.552772 0.861168 0.478937
0.661075 0.866140 0.484951
0.763566 0.871063 0.490954
0.857531 0.875942 0.496952
0.941213 0.880780 0.502951
0.148656 0.938220 0.474874
0.248088 0.942824 0.481158
0.354002 0.947296 0.487308
0.464022 0.951687 0.493395
0.574639 0.956014 0.499443
0.682155 0.960286 0.505467
0.783249 0.964508 0.511478
0.875381 0.968687 0.517482
0.956989 0.972824 0.523485
0.013008 0.027743 0.418287
0.095662 0.032032 0.424533
0.187980 0.036269 0.430647
0.288905 0.040499 0.436699
0.395965 0.044735 0.442709
0.505845 0.048985 0.448694
0.614835 0.053254 0.454662
0.719341 0.057548 0.460625
0.816345 0.061869 0.466587
0.029324 0.126223 0.440206
0.114365 0.131308 0.446476
0.208794 0.136322 0.452612
0.311362 0.141319 0.458684
0.419414 0.146315 0.464713
0.529519 0.151319 0.470714
0.637945 0.156336 0.476698
0.741181 0.161373 0.482674
0.836377 0.166431 0.488649
0.045758 0.236935 0.461500
0.133088 0.242692 0.467786
0.229494 0.248358 0.473936
0.333544 0.253993 0.480018
0.442416 0.259616 0.486057
0.552579 0.265237 0.492066
0.660307 0.270862 0.498058
0.762188 0.276495 0.504040
0.855543 0.282142 0.510019
0.062509 0.357759 0.482502
0.152060 0.363982 0.488795
0.250338 0.370093 0.494950
0.355733 0.376158 0.501036
0.465267 0.382197 0.507077
0.575335 0.388220 0.513087
0.682231 0.394235 0.519078
0.782661 0.400245 0.525059
0.874125 0.406255 0.531035
0.079593 0.484210 0.503305
0.171300 0.490623 0.509598
0.271348 0.496907 0.515751
0.377953 0.503128 0.521834
0.487997 0.509309 0.527870
0.597819 0.515459 0.533875
0.703755 0.521587 0.539859
0.802643 0.527697 0.545831
0.892168 0.533792 0.551797
0.096983 0.610710 0.523961
0.190779 0.617010 0.530247
0.292492 0.623168 0.536392
0.400171 0.629251 0.542465
0.510577 0.635280 0.548490
0.620006 0.641267 0.554482
0.724861 0.647218 0.560453
0.822121 0.653138 0.566411
0.909662 0.659031 0.572360
0.114637 0.731647 0.544503
0.210452 0.737556 0.550775
0.313722 0.743318 0.556904
0.422341 0.748998 0.562961
0.532958 0.754616 0.568968
0.641854 0.760181 0.574942
0.745511 0.765702 0.580893
0.841065 0.771183 0.586829
0.926584 0.776628 0.592756
0.132516 0.842364 0.564948
0.230276 0.847673 0.571199
0.334992 0.852840 0.577306
0.444413 0.857922 0.583339
0.555094 0.862938 0.589322
0.663322 0.867899 0.595271
0.765671 0.872810 0.601196
0.859448 0.877677 0.607104
0.942914 0.882503 0.613001
0.150591 0.939793 0.585300
0.250215 0.944384 0.591523
0.356264 0.948844 0.597601
0.466348 0.953222 0.603604
0.576950 0.957535 0.609556
0.684377 0.961794 0.615472
0.785319 0.966005 0.621364
0.877255 0.970171 0.627237
0.958644 0.974295 0.633098
0.014586 0.029184 0.527592
0.097471 0.033486 0.533906
0.189995 0.037736 0.540075
0.291083 0.041978 0.546168
0.398245 0.046227 0.552208
0.508153 0.050489 0.558208
0.617095 0.054772 0.564181
0.721483 0.059078 0.570136
0.818317 0.063411 0.576078
0.030951 0.127934 0.549693
0.116221 0.133031 0.555985
0.210849 0.138057 0.562130
0.313569 0.143065 0.568198
0.421709 0.148073 0.574210
0.531825 0.153088 0.580183
0.640188 0.158117 0.586127
0.743295 0.163165 0.592051
0.838311 0.168234 0.597961
0.047432 0.238874 0.571008
0.134987 0.244640 0.577270
0.231585 0.250316 0.583384
0.335776 0.255960 0.589418
0.444721 0.261592 0.595397
0.554881 0.267221 0.601335
0.662530 0.272855 0.607242
0.764270 0.278497 0.613129
0.857437 0.284152 0.619001
0.064228 0.359858 0.591879
0.154000 0.366086 0.598104
0.252462 0.372203 0.604179
0.357986 0.378273 0.610174
0.467579 0.384316 0.616112
0.577627 0.390344 0.622008
0.684431 0.396363 0.627873
0.784709 0.402378 0.633716
0.875979 0.408392 0.639544
0.081356 0.486375 0.612405
0.173279 0.492788 0.618586
0.273502 0.499072 0.624617
0.380223 0.505294 0.630566
0.490311 0.511474 0.636458
0.600099 0.517625 0.642307
0.705930 0.523752 0.648124
0.804656 0.529861 0.653918
0.893979 0.535955 0.659695
0.098787 0.612838 0.632644
0.192794 0.619134 0.638775
0.294672 0.625287 0.644755
0.402455 0.631366 0.650653
0.512889 0.637390 0.656493
0.622270 0.643371 0.662289
0.727007 0.649317 0.668053
0.824095 0.655231 0.673793
0.911430 0.661119 0.679514
0.116481 0.733645 0.652630
0.212501 0.739545 0.658706
0.315926 0.745299 0.664630
0.424634 0.750970 0.670471
0.535265 0.756578 0.676253
0.644098 0.762135 0.681992
0.747625 0.767646 0.687697
0.842998 0.773118 0.693378
0.928307 0.778553 0.699039
0.134398 0.844161 0.672387
0.232355 0.849458 0.678401
0.337216 0.854613 0.684263
0.446712 0.859684 0.690042
0.557392 0.864689 0.695762
0.665543 0.869637 0.701438
0.767751 0.874537 0.707079
0.861340 0.879393 0.712695
0.944592 0.884207 0.718290
0.152510 0.941348 0.691924
0.252323 0.945926 0.697870
0.358505 0.950373 0.703665
0.468650 0.954738 0.709376
0.579236 0.959039 0.715028
0.686573 0.963286 0.720635
0.787363 0.967483 0.726208
0.879104 0.971637 0.731754
0.960276 0.975749 0.737278
0.016157 0.030618 0.635476
0.099270 0.034934 0.641636
0.191998 0.039197 0.647642
0.293247 0.043451 0.653561
0.400508 0.047713 0.659417
0.510442 0.051988 0.665222
0.619335 0.056282 0.670990
0.723606 0.060601 0.676728
0.820268 0.064947 0.682444
0.032570 0.129636 0.656982
0.118065 0.134745 0.663075
0.212890 0.139783 0.669014
0.315760 0.144803 0.674865
0.423985 0.149822 0.680651
0.534112 0.154849 0.686388
0.642410 0.159889 0.692085
0.745387 0.164948 0.697752
0.840223 0.170028 0.703397
0.049096 0.240802 0.677571
0.136874 0.246578 0.683593
0.233662 0.252263 0.689459
0.337991 0.257916 0.695237
0.447006 0.263557 0.700950
0.557161 0.269195 0.706612
0.664732 0.274837 0.712235
0.766330 0.280488 0.717828
0.859309 0.286150 0.723396
0.065937 0.361943 0.697588
0.155928 0.368177 0.703532
0.254571 0.374298 0.709321
0.360221 0.380374 0.715021
0.469870 0.386422 0.720656
0.579898 0.392454 0.726240
0.686610 0.398477 0.731784
0.786735 0.404496 0.737297
0.877810 0.410514 0.742785
0.083107 0.488524 0.717138
0.175244 0.494939 0.723000
0.275639 0.501223 0.728707
0.382474 0.507444 0.734325
0.492604 0.513625 0.739878
0.602357 0.519774 0.745380
0.708082 0.525901 0.750841
0.806645 0.532009 0.756272
0.895769 0.538102 0.761676
0.100579 0.614950 0.736282
0.194794 0.621241 0.742058
0.296835 0.627390 0.747680
0.404719 0.633463 0.753212
0.515179 0.639483 0.758679
0.624511 0.645459 0.764095
0.729129 0.651399 0.769471
0.826046 0.657308 0.774815
0.913175 0.663190 0.780133
0.118311 0.735626 0.755064
0.214533 0.741518 0.760750
0.318111 0.747263 0.766282
0.426906 0.752925 0.771725
0.537549 0.758524 0.777103
0.646319 0.764071 0.782430
0.749715 0.769574 0.787717
0.844908 0.775036 0.792972
0.930008 0.780462 0.798201
0.136265 0.845942 0.773512
0.234418 0.851227 0.779103
0.339420 0.856371 0.784542
0.448989 0.861430 0.789893
0.559667 0.866423 0.795178
0.667739 0.871360 0.800414
0.769807 0.876249 0.805609
0.863208 0.881093 0.810772
0.946246 0.885896 0.815907
0.154412 0.942888 0.791642
0.254413 0.947453 0.797135
0.360725 0.951887 0.802477
0.470929 0.956240 0.807731
0.581498 0.960529 0.812921
0.688743 0.964763 0.818061
0.789381 0.968948 0.823161
0.880929 0.973089 0.828229
0.961884 0.977189 0.833268
0.017718 0.032049 0.738518
0.101059 0.036378 0.744326
0.193988 0.040653 0.749977
0.295395 0.044921 0.755534
0.402753 0.049194 0.761020
0.512712 0.053482 0.766448
0.621555 0.057789 0.771831
0.725707 0.062120 0.777177
0.822199 0.066478 0.782493
0.034178 0.131332 0.758743
0.119898 0.136453 0.764448
0.214918 0.141503 0.769996
0.317935 0.146535 0.775451
0.426243 0.151565 0.780834
0.536379 0.156603 0.786160
0.644611 0.161655 0.791440
0.747457 0.166725 0.796684
0.842114 0.171817 0.801897
0.050750 0.242723 0.777970
0.138748 0.248508 0.783569
0.235724 0.254202 0.789012
0.340189 0.259864 0.794362
0.449273 0.265514 0.799641
0.559421 0.271160 0.804863
0.666912 0.276811 0.810040
0.768367 0.282470 0.815180
0.861160 0.288141 0.820290
0.067634 0.364018 0.796533
0.157841 0.370257 0.802024
0.256664 0.376384 0.807359
0.362438 0.382464 0.812603
0.472141 0.388517 0.817775
0.582148 0.394554 0.822892
0.688766 0.400582 0.827963
0.788738 0.406604 0.832998
0.879620 0.412626 0.838002
0.084845 0.490662 0.814542
0.177195 0.497077 0.819923
0.277760 0.503361 0.825149
0.384706 0.509583 0.830284
0.494876 0.515763 0.835349
0.604592 0.521912 0.840358
0.710211 0.528038 0.845323
0.808611 0.534145 0.850251
0.897536 0.540237 0.855149
0.102357 0.617049 0.832067
0.196779 0.623336 0.837334
0.298981 0.629479 0.842450
0.406962 0.635548 0.847475
0.517448 0.641562 0.852431
0.626729 0.647533 0.857332
0.731228 0.653468 0.862189
0.827973 0.659372 0.867010
0.914898 0.665247 0.871801
0.120127 0.737594 0.849154
0.216549 0.743476 0.854308
0.320278 0.749212 0.859311
0.429158 0.754866 0.864225
0.539811 0.760456 0.869071
0.648515 0.765994 0.873863
0.751781 0.771488 0.878611
0.846795 0.776941 0.883324
0.931685 0.782358 0.888007
0.138118 0.847709 0.865841
0.236463 0.852983 0.870879
0.341605 0.858115 0.875769
0.451245 0.863163 0.880570
0.561918 0.868144 0.885305
0.669912 0.873070 0.889987
0.771838 0.877947 0.894626
0.865052 0.882780 0.899230
0.947878 0.887571 0.903804
0.156299 0.944416 0.882149
0.256486 0.948968 0.887070
0.362925 0.953389 0.891845
0.473187 0.957730 0.896533
0.583736 0.962006 0.901155
0.690889 0.966228 0.905726
0.791376 0.970401 0.910254
0.882729 0.974530 0.914749
0.963470 0.978618 0.919213
0.019269 0.033478 0.833904
0.102835 0.037820 0.839208
0.195965 0.042108 0.844357
0.297528 0.046388 0.849410
0.404981 0.050674 0.854389
0.514963 0.054974 0.859306
0.623753 0.059293 0.864174
0.727787 0.063637 0.869001
0.824108 0.068007 0.873794
0.035775 0.133025 0.852330
0.121718 0.138158 0.857505
0.216931 0.143220 0.862527
0.320093 0.148263 0.867455
0.428482 0.153305 0.872308
0.538626 0.158354 0.877102
0.646791 0.163417 0.881846
0.749506 0.168498 0.886550
0.843983 0.173601 0.891221
0.052391 0.244638 0.869727
0.140609 0.250432 0.874775
0.237770 0.256135 0.879671
0.342369 0.261806 0.884474
0.451520 0.267465 0.889204
0.561661 0.273120 0.893875
0.669070 0.278779 0.898497
0.770383 0.284446 0.903081
0.862989 0.290125 0.907631
0.069318 0.366086 0.886416
0.159741 0.372330 0.891335
0.258741 0.378462 0.896106
0.364636 0.384547 0.900784
0.474392 0.390605 0.905391
0.584376 0.396646 0.909940
0.690900 0.402677 0.914442
0.790719 0.408704 0.918905
0.881407 0.414730 0.923336
0.086570 0.492790 0.902507
0.179130 0.499205 0.907298
0.279864 0.505489 0.911944
0.386919 0.511711 0.916498
0.497127 0.517891 0.920983
0.606806 0.524040 0.925411
0.712317 0.530165 0.929793
0.810555 0.536271 0.934137
0.899280 0.542362 0.938450
0.104121 0.619137 0.918073
0.198748 0.625419 0.922737
0.301108 0.631558 0.927258
0.409187 0.637621 0.931689
0.519696 0.643631 0.936053
0.628924 0.649596 0.940361
0.733304 0.655526 0.944624
0.829877 0.661424 0.948851
0.916598 0.667294 0.953047
0.121929 0.739550 0.933168
0.218550 0.745424 0.937706
0.322426 0.751151 0.942103
0.431390 0.756795 0.946413
0.542051 0.762376 0.950656
0.650690 0.767906 0.954845
0.753824 0.773390 0.958992
0.848658 0.778834 0.963102
0.933340 0.784242 0.967182
0.139955 0.849465 0.947834
0.238492 0.854727 0.952246
0.343771 0.859848 0.956520
0.453481 0.864884 0.960709
0.564148 0.869854 0.964833
0.672062 0.874769 0.968905
0.773845 0.879634 0.972935
0.866872 0.884456 0.976930
0.949487 0.889236 0.980896
0.158171 0.945933 0.962099
0.258541 0.950473 0.966386
0.365106 0.954881 0.970538
0.475423 0.959209 0.974606
0.585952 0.963473 0.978612
0.693012 0.967683 0.982567
0.793346 0.971844 0.986482
0.884506 0.975961 0.990363
0.965033 0.980037 0.994215
