render-worker/luts/investor.cube
# Generated by render-worker/scripts/generate-luts.mjs
# Do not hand-edit — re-run the script and let math win.
TITLE "EstateMotion Investor — Desaturated film stock"
LUT_3D_SIZE 17
DOMAIN_MIN 0.0 0.0 0.0
DOMAIN_MAX 1.0 1.0 1.0
0.006565 0.021797 0.030535
0.046230 0.023928 0.032634
0.088257 0.026033 0.034703
0.132780 0.028127 0.036759
0.179711 0.030217 0.038807
0.228856 0.032305 0.040852
0.279947 0.034394 0.042896
0.332648 0.036485 0.044939
0.386569 0.038578 0.046983
0.441278 0.040674 0.049030
0.496314 0.042776 0.051081
0.551206 0.044882 0.053137
0.605486 0.046993 0.055200
0.658709 0.049111 0.057269
0.710463 0.051235 0.059346
0.760384 0.053366 0.061432
0.808165 0.055504 0.063528
0.014638 0.068980 0.037959
0.054922 0.071318 0.040090
0.097545 0.073626 0.042191
0.142636 0.075921 0.044279
0.190090 0.078211 0.046360
0.239704 0.080498 0.048437
0.291194 0.082785 0.050512
0.344215 0.085073 0.052586
0.398367 0.087362 0.054663
0.453209 0.089655 0.056742
0.508279 0.091952 0.058825
0.563103 0.094252 0.060913
0.617218 0.096558 0.063007
0.670183 0.098870 0.065109
0.721596 0.101187 0.067218
0.771105 0.103511 0.069337
0.818415 0.105841 0.071464
0.022672 0.119157 0.045298
0.063558 0.121691 0.047461
0.106760 0.124191 0.049594
0.152396 0.126677 0.051713
0.200352 0.129156 0.053825
0.250410 0.131631 0.055933
0.302276 0.134104 0.058039
0.355592 0.136577 0.060145
0.409949 0.139052 0.062252
0.464902 0.141528 0.064362
0.519984 0.144008 0.066477
0.574722 0.146491 0.068596
0.628656 0.148978 0.070722
0.681352 0.151470 0.072855
0.732417 0.153968 0.074996
0.781511 0.156470 0.077145
0.828350 0.158979 0.079305
0.030752 0.172533 0.052637
0.072231 0.175249 0.054832
0.115999 0.177928 0.056996
0.162167 0.180590 0.059146
0.210608 0.183243 0.061288
0.261093 0.185891 0.063427
0.313315 0.188536 0.065563
0.366905 0.191179 0.067700
0.421447 0.193823 0.069838
0.476490 0.196468 0.071979
0.531563 0.199114 0.074124
0.586197 0.201763 0.076274
0.639933 0.204415 0.078431
0.692347 0.207071 0.080595
0.743054 0.209731 0.082767
0.791725 0.212396 0.084948
0.838089 0.215065 0.087138
0.038904 0.228913 0.060005
0.080969 0.231792 0.062231
0.125294 0.234629 0.064425
0.171981 0.237448 0.066606
0.220893 0.240256 0.068779
0.271788 0.243057 0.070948
0.324347 0.245853 0.073115
0.378192 0.248647 0.075282
0.432898 0.251439 0.077450
0.488010 0.254230 0.079622
0.543056 0.257023 0.081797
0.597567 0.259816 0.083978
0.651090 0.262612 0.086166
0.703207 0.265409 0.088360
0.753545 0.268210 0.090563
0.801785 0.271014 0.092774
0.847670 0.273822 0.094995
0.047140 0.287924 0.067416
0.089782 0.290940 0.069673
0.134655 0.293912 0.071899
0.181851 0.296862 0.074110
0.231220 0.299800 0.076313
0.282508 0.302728 0.078512
0.335386 0.305650 0.080710
0.389467 0.308568 0.082907
0.444318 0.311483 0.085105
0.499480 0.314396 0.087307
0.554479 0.317307 0.089513
0.608849 0.320219 0.091724
0.662143 0.323131 0.093942
0.713950 0.326043 0.096167
0.763908 0.328958 0.098400
0.811709 0.331874 0.100642
0.857109 0.334792 0.102894
0.055461 0.349062 0.074882
0.098676 0.352185 0.077170
0.144087 0.355261 0.079426
0.191779 0.358313 0.081668
0.241592 0.361350 0.083901
0.293258 0.364376 0.086131
0.346438 0.367394 0.088358
0.400736 0.370405 0.090585
0.455713 0.373412 0.092814
0.510905 0.376415 0.095046
0.565839 0.379415 0.097282
0.620050 0.382414 0.099523
0.673099 0.385411 0.101771
0.724583 0.388407 0.104026
0.774150 0.391404 0.106290
0.821504 0.394400 0.108562
0.866413 0.397397 0.110844
0.063868 0.411720 0.082411
0.107648 0.414917 0.084730
0.153589 0.418062 0.087017
0.201767 0.421182 0.089288
0.252009 0.424284 0.091552
0.304038 0.427373 0.093811
0.357503 0.430453 0.096068
0.411999 0.433524 0.098326
0.467082 0.436589 0.100584
0.522285 0.439648 0.102846
0.577135 0.442703 0.105112
0.631171 0.445754 0.107384
0.683959 0.448801 0.109662
0.735107 0.451847 0.111947
0.784271 0.454890 0.114241
0.831171 0.457932 0.116543
0.875585 0.460972 0.118855
0.072358 0.475220 0.090010
0.116697 0.478452 0.092360
0.163158 0.481630 0.094676
0.211811 0.484781 0.096978
0.262469 0.487912 0.099272
0.314844 0.491028 0.101561
0.368577 0.494133 0.103848
0.423253 0.497227 0.106135
0.478423 0.500313 0.108424
0.533617 0.503392 0.110715
0.588365 0.506465 0.113011
0.642209 0.509532 0.115313
0.694722 0.512594 0.117621
0.745520 0.515652 0.119936
0.794273 0.518706 0.122260
0.840709 0.521757 0.124592
0.884623 0.524805 0.126934
0.080926 0.538839 0.097684
0.125817 0.542068 0.100065
0.172790 0.545242 0.102412
0.221905 0.548385 0.104744
0.272966 0.551508 0.107067
0.325672 0.554614 0.109386
0.379655 0.557706 0.111703
0.434492 0.560787 0.114020
0.489730 0.563857 0.116338
0.544898 0.566919 0.118659
0.599526 0.569973 0.120985
0.653161 0.573019 0.123316
0.705383 0.576059 0.125654
0.755820 0.579093 0.127999
0.804150 0.582122 0.130353
0.850117 0.585145 0.132715
0.893526 0.588164 0.135086
0.089567 0.601852 0.105439
0.135004 0.605039 0.107851
0.182480 0.608171 0.110228
0.232045 0.611270 0.112590
0.283494 0.614348 0.114943
0.336516 0.617407 0.117292
0.390730 0.620451 0.119638
0.445711 0.623482 0.121984
0.500998 0.626501 0.124332
0.556121 0.629509 0.126683
0.610611 0.632508 0.129039
0.664020 0.635499 0.131400
0.715939 0.638481 0.133767
0.766001 0.641456 0.136142
0.813901 0.644424 0.138525
0.859391 0.647385 0.140916
0.902290 0.650340 0.143317
0.098277 0.663558 0.113280
0.144251 0.666668 0.115722
0.192220 0.669722 0.118129
0.242225 0.672743 0.120521
0.294047 0.675741 0.122904
0.347368 0.678719 0.125282
0.401798 0.681681 0.127658
0.456903 0.684628 0.130034
0.512221 0.687562 0.132411
0.567280 0.690485 0.134792
0.621614 0.693397 0.137176
0.674783 0.696298 0.139567
0.726383 0.699191 0.141964
0.776061 0.702074 0.144368
0.823520 0.704949 0.146780
0.868527 0.707817 0.149201
0.910913 0.710677 0.151631
0.107049 0.723315 0.121211
0.153554 0.726317 0.123683
0.202006 0.729261 0.126120
0.252437 0.732173 0.128541
0.304620 0.735060 0.130954
0.358223 0.737928 0.133361
0.412850 0.740777 0.135766
0.468062 0.743612 0.138171
0.523392 0.746432 0.140578
0.578369 0.749239 0.142988
0.632531 0.752035 0.145402
0.685444 0.754820 0.147821
0.736712 0.757594 0.150247
0.785993 0.760358 0.152681
0.833003 0.763113 0.155122
0.877522 0.765859 0.157572
0.919391 0.768597 0.160030
0.115880 0.780568 0.129234
0.162907 0.783432 0.131737
0.211832 0.786241 0.134203
0.262677 0.789018 0.136654
0.315205 0.791769 0.139095
0.369075 0.794500 0.141532
0.423882 0.797212 0.143966
0.479181 0.799909 0.146400
0.534505 0.802591 0.148836
0.589383 0.805259 0.151274
0.643356 0.807915 0.153717
0.695997 0.810559 0.156166
0.746921 0.813192 0.158621
0.795795 0.815814 0.161083
0.842349 0.818427 0.163553
0.886372 0.821029 0.166031
0.927721 0.823622 0.168519
0.124764 0.834859 0.137353
0.172306 0.837565 0.139885
0.221693 0.840217 0.142381
0.272940 0.842837 0.144860
0.325798 0.845433 0.147331
0.379918 0.848007 0.149796
0.434887 0.850563 0.152259
0.490256 0.853103 0.154722
0.545556 0.855627 0.157186
0.600316 0.858138 0.159654
0.654084 0.860636 0.162125
0.706440 0.863121 0.164602
0.757006 0.865595 0.167086
0.805464 0.868058 0.169576
0.851553 0.870511 0.172075
0.895077 0.872953 0.174582
0.935903 0.875385 0.177097
0.133698 0.885844 0.145567
0.181747 0.888376 0.148129
0.231585 0.890856 0.150654
0.283220 0.893305 0.153162
0.336394 0.895729 0.155662
0.390747 0.898133 0.158156
0.445861 0.900518 0.160647
0.501282 0.902887 0.163138
0.556539 0.905241 0.165631
0.611165 0.907582 0.168126
0.664712 0.909909 0.170626
0.716768 0.912223 0.173132
0.766965 0.914526 0.175643
0.814997 0.916818 0.178162
0.860614 0.919099 0.180688
0.903634 0.921370 0.183223
0.943935 0.923631 0.185766
0.142680 0.933289 0.153879
0.191227 0.935637 0.156470
0.241505 0.937935 0.159024
0.293516 0.940203 0.161561
0.346990 0.942448 0.164088
0.401560 0.944672 0.166610
0.456801 0.946879 0.169130
0.512255 0.949070 0.171649
0.567452 0.951246 0.174169
0.621927 0.953408 0.176693
0.675237 0.955557 0.179221
0.726979 0.957694 0.181754
0.776796 0.959819 0.184293
0.824392 0.961933 0.186839
0.869532 0.964037 0.189393
0.912043 0.966130 0.191955
0.951818 0.968213 0.194526
0.007402 0.022579 0.072151
0.047132 0.024714 0.074431
0.089222 0.026822 0.076679
0.133805 0.028920 0.078912
0.180791 0.031013 0.081137
0.229986 0.033105 0.083357
0.281119 0.035197 0.085574
0.333854 0.037291 0.087791
0.387800 0.039388 0.090008
0.442524 0.041488 0.092228
0.497564 0.043593 0.094451
0.552450 0.045702 0.096678
0.606714 0.047817 0.098911
0.659910 0.049938 0.101151
0.711630 0.052066 0.103398
0.761509 0.054200 0.105654
0.809241 0.056342 0.107918
0.015490 0.069839 0.080214
0.055838 0.072180 0.082526
0.098524 0.074491 0.084806
0.143673 0.076790 0.087070
0.191182 0.079083 0.089327
0.240843 0.081374 0.091578
0.292375 0.083664 0.093826
0.345428 0.085955 0.096074
0.399603 0.088248 0.098323
0.454458 0.090544 0.100574
0.509530 0.092844 0.102828
0.564346 0.095148 0.105086
0.618442 0.097457 0.107351
0.671379 0.099772 0.109622
0.722756 0.102093 0.111900
0.772221 0.104420 0.114187
0.819481 0.106754 0.116483
0.023537 0.120088 0.088175
0.064488 0.122625 0.090519
0.107751 0.125128 0.092830
0.153446 0.127618 0.095125
0.201455 0.130100 0.097412
0.251560 0.132578 0.099693
0.303465 0.135054 0.101972
0.356812 0.137531 0.104250
0.411190 0.140008 0.106529
0.466154 0.142488 0.108810
0.521235 0.144971 0.111094
0.575963 0.147457 0.113383
0.629876 0.149947 0.115678
0.682543 0.152443 0.117979
0.733570 0.154943 0.120288
0.782618 0.157449 0.122605
0.829406 0.159961 0.124931
0.031631 0.173531 0.096127
0.073174 0.176250 0.098501
0.117004 0.178931 0.100842
0.163229 0.181597 0.103167
0.211722 0.184253 0.105484
0.262252 0.186903 0.107795
0.314512 0.189551 0.110104
0.368131 0.192198 0.112412
0.422692 0.194844 0.114720
0.477743 0.197492 0.117031
0.532814 0.200141 0.119345
0.587435 0.202793 0.121664
0.641149 0.205448 0.123988
0.693531 0.208106 0.126319
0.744199 0.210769 0.128658
0.792823 0.213437 0.131005
0.839135 0.216109 0.133360
0.039797 0.229971 0.104098
0.081925 0.232852 0.106503
0.126311 0.235692 0.108874
0.173055 0.238514 0.111229
0.222018 0.241324 0.113575
0.272956 0.244127 0.115916
0.325551 0.246926 0.118254
0.379423 0.249722 0.120591
0.434146 0.252517 0.122929
0.489265 0.255311 0.125269
0.544307 0.258106 0.127612
0.598803 0.260902 0.129960
0.652302 0.263699 0.132314
0.704386 0.266500 0.134674
0.754682 0.269303 0.137042
0.802875 0.272109 0.139419
0.848706 0.274919 0.141803
0.048045 0.289032 0.112107
0.090752 0.292051 0.114542
0.135684 0.295024 0.116942
0.182935 0.297977 0.119327
0.232354 0.300916 0.121702
0.283685 0.303847 0.124072
0.336598 0.306771 0.126439
0.390703 0.309691 0.128805
0.445570 0.312608 0.131172
0.500735 0.315522 0.133540
0.555729 0.318436 0.135913
0.610082 0.321349 0.138290
0.663350 0.324263 0.140673
0.715122 0.327178 0.143062
0.765037 0.330094 0.145459
0.812789 0.333011 0.147864
0.858135 0.335931 0.150278
0.056380 0.350210 0.120163
0.099657 0.353335 0.122628
0.145128 0.356412 0.125058
0.192875 0.359466 0.127472
0.242736 0.362504 0.129876
0.294443 0.365531 0.132274
0.347656 0.368551 0.134670
0.401977 0.371564 0.137065
0.456967 0.374572 0.139460
0.512161 0.377576 0.141858
0.567086 0.380578 0.144259
0.621279 0.383578 0.146664
0.674300 0.386576 0.149076
0.725747 0.389574 0.151494
0.775270 0.392571 0.153920
0.822574 0.395568 0.156353
0.867429 0.398566 0.158796
0.064799 0.412895 0.128276
0.108642 0.416093 0.130770
0.154642 0.419239 0.133229
0.202873 0.422359 0.135672
0.253163 0.425463 0.138104
0.305231 0.428553 0.140532
0.358727 0.431633 0.142956
0.413244 0.434705 0.145379
0.468338 0.437770 0.147803
0.523541 0.440830 0.150229
0.578380 0.443885 0.152658
0.632396 0.446937 0.155092
0.685154 0.449985 0.157532
0.736264 0.453031 0.159979
0.785383 0.456075 0.162433
0.832231 0.459118 0.164894
0.876590 0.462159 0.167365
0.073301 0.476408 0.136451
0.117703 0.479640 0.138975
0.164222 0.482819 0.141463
0.212927 0.485969 0.143934
0.263631 0.489101 0.146395
0.316045 0.492217 0.148851
0.369806 0.495322 0.151303
0.424501 0.498416 0.153754
0.479680 0.501502 0.156206
0.534873 0.504581 0.158660
0.589608 0.507654 0.161118
0.643429 0.510721 0.163580
0.695911 0.513783 0.166048
0.746669 0.516841 0.168523
0.795375 0.519895 0.171005
0.841760 0.522946 0.173495
0.885617 0.525993 0.175993
0.081882 0.540027 0.144695
0.126835 0.543255 0.147249
0.173865 0.546428 0.149765
0.223031 0.549571 0.152264
0.274136 0.552693 0.154754
0.326879 0.555798 0.157237
0.380889 0.558890 0.159718
0.435743 0.561970 0.162197
0.490988 0.565040 0.164677
0.546152 0.568101 0.167159
0.600765 0.571154 0.169644
0.654376 0.574200 0.172134
0.706565 0.577239 0.174630
0.756960 0.580272 0.177132
0.805243 0.583300 0.179642
0.851157 0.586322 0.182159
0.894509 0.589340 0.184685
0.090535 0.603024 0.153014
0.136033 0.606210 0.155596
0.183565 0.609340 0.158141
0.233181 0.612439 0.160668
0.284673 0.615515 0.163185
0.337729 0.618573 0.165697
0.391969 0.621616 0.168205
0.446965 0.624645 0.170712
0.502257 0.627663 0.173219
0.557373 0.630670 0.175729
0.611847 0.633668 0.178242
0.665230 0.636657 0.180759
0.717113 0.639638 0.183282
0.767133 0.642611 0.185812
0.814984 0.645577 0.188349
0.860420 0.648537 0.190894
0.903262 0.651491 0.193447
0.099257 0.664702 0.161410
0.145292 0.667810 0.164021
0.193315 0.670862 0.166594
0.243369 0.673882 0.169149
0.295234 0.676877 0.171694
0.348587 0.679854 0.174233
0.403040 0.682814 0.176768
0.458159 0.685759 0.179302
0.513479 0.688691 0.181837
0.568530 0.691612 0.184374
0.622846 0.694522 0.186914
0.675987 0.697422 0.189459
0.727550 0.700312 0.192009
0.777184 0.703193 0.194566
0.824593 0.706067 0.197130
0.869545 0.708932 0.199701
0.911873 0.711790 0.202281
0.108041 0.724420 0.169888
0.154605 0.727418 0.172527
0.203111 0.730361 0.175128
0.253590 0.733270 0.177711
0.305813 0.736155 0.180283
0.359447 0.739020 0.182849
0.414096 0.741867 0.185412
0.469319 0.744699 0.187973
0.524649 0.747517 0.190535
0.579616 0.750322 0.193098
0.633758 0.753115 0.195665
0.686641 0.755897 0.198237
0.737871 0.758669 0.200814
0.787107 0.761431 0.203397
0.834066 0.764183 0.205988
0.878529 0.766927 0.208586
0.920339 0.769661 0.211192
0.116882 0.781622 0.178451
0.163969 0.784484 0.181118
0.212946 0.787290 0.183746
0.263838 0.790063 0.186356
0.316405 0.792812 0.188955
0.370304 0.795540 0.191548
0.425131 0.798249 0.194137
0.480439 0.800943 0.196725
0.535762 0.803622 0.199313
0.590627 0.806288 0.201904
0.644578 0.808941 0.204497
0.697188 0.811582 0.207095
0.748072 0.814212 0.209698
0.796900 0.816831 0.212308
0.843401 0.819440 0.214924
0.887368 0.822040 0.217548
0.928658 0.824630 0.220180
0.125777 0.835855 0.187100
0.173378 0.838558 0.189795
0.222817 0.841207 0.192450
0.274109 0.843824 0.195086
0.327004 0.846416 0.197712
0.381151 0.848987 0.200331
0.436138 0.851540 0.202947
0.491514 0.854076 0.205561
0.546810 0.856598 0.208175
0.601557 0.859105 0.210792
0.655301 0.861600 0.213411
0.707623 0.864082 0.216035
0.758149 0.866553 0.218664
0.806558 0.869013 0.221299
0.852594 0.871462 0.223941
0.896062 0.873901 0.226591
0.936829 0.876330 0.229248
0.134723 0.886776 0.195837
0.182829 0.889304 0.198559
0.232718 0.891781 0.201240
0.284397 0.894226 0.203903
0.337606 0.896647 0.206555
0.391985 0.899047 0.209200
0.447115 0.901430 0.211841
0.502540 0.903795 0.214481
0.557792 0.906146 0.217121
0.612402 0.908483 0.219763
0.665923 0.910807 0.222408
0.717943 0.913118 0.225057
0.768099 0.915418 0.227711
0.816081 0.917706 0.230372
0.861645 0.919984 0.233039
0.904607 0.922251 0.235713
0.944849 0.924508 0.238395
0.143715 0.934153 0.204662
0.192318 0.936497 0.207410
0.242647 0.938792 0.210118
0.294700 0.941057 0.212806
0.348207 0.943298 0.215484
0.402801 0.945519 0.218154
0.458056 0.947722 0.220821
0.513513 0.949909 0.223485
0.568702 0.952081 0.226151
0.623159 0.954240 0.228817
0.676442 0.956386 0.231487
0.728147 0.958519 0.234161
0.777921 0.960641 0.236840
0.825467 0.962752 0.239525
0.870551 0.964852 0.242217
0.913005 0.966942 0.244915
0.952719 0.969022 0.247621
0.008219 0.023339 0.115706
0.048012 0.025477 0.118159
0.090162 0.027589 0.120576
0.134803 0.029690 0.122977
0.181842 0.031787 0.125368
0.231085 0.033882 0.127753
0.282259 0.035978 0.130135
0.335027 0.038075 0.132515
0.388997 0.040175 0.134895
0.443735 0.042278 0.137276
0.498780 0.044386 0.139660
0.553660 0.046499 0.142048
0.607908 0.048617 0.144441
0.661079 0.050742 0.146840
0.712764 0.052873 0.149245
0.762601 0.055010 0.151658
0.810286 0.057155 0.154080
0.016320 0.070672 0.124375
0.056732 0.073017 0.126858
0.099478 0.075331 0.129306
0.144683 0.077634 0.131737
0.192244 0.079930 0.134158
0.241953 0.082224 0.136573
0.293524 0.084517 0.138985
0.346609 0.086812 0.141395
0.400805 0.089108 0.143804
0.455673 0.091407 0.146215
0.510746 0.093710 0.148629
0.565554 0.096018 0.151046
0.619632 0.098330 0.153469
0.672542 0.100648 0.155897
0.723883 0.102972 0.158332
0.773306 0.105303 0.160775
0.820517 0.107639 0.163225
0.024381 0.120991 0.132923
0.065394 0.123532 0.135437
0.108718 0.126038 0.137914
0.154468 0.128531 0.140374
0.202529 0.131016 0.142824
0.252679 0.133497 0.145268
0.304622 0.135977 0.147708
0.357998 0.138456 0.150146
0.412397 0.140937 0.152585
0.467371 0.143420 0.155024
0.522452 0.145906 0.157466
0.577170 0.148395 0.159912
0.631063 0.150888 0.162363
0.683700 0.153386 0.164820
0.734690 0.155890 0.167284
0.783694 0.158399 0.169755
0.830432 0.160913 0.172234
0.032488 0.174499 0.141448
0.074094 0.177221 0.143991
0.117982 0.179906 0.146497
0.164263 0.182574 0.148986
0.212807 0.185233 0.151464
0.263381 0.187887 0.153936
0.315677 0.190537 0.156404
0.369323 0.193186 0.158871
0.423902 0.195836 0.161337
0.478962 0.198486 0.163804
0.534031 0.201138 0.166274
0.588640 0.203793 0.168748
0.642332 0.206450 0.171227
0.694683 0.209112 0.173712
0.745312 0.211777 0.176203
0.793891 0.214447 0.178702
0.840152 0.217122 0.181208
0.040667 0.230997 0.149984
0.082857 0.233881 0.152556
0.127302 0.236724 0.155090
0.174100 0.239548 0.157606
0.223112 0.242361 0.160113
0.274093 0.245167 0.162612
0.326723 0.247968 0.165108
0.380621 0.250766 0.167602
0.435360 0.253563 0.170095
0.490485 0.256360 0.172590
0.545523 0.259157 0.175087
0.600004 0.261955 0.177588
0.653479 0.264755 0.180094
0.705531 0.267558 0.182606
0.755787 0.270363 0.185125
0.803933 0.273171 0.187651
0.849713 0.275983 0.190184
0.048928 0.290108 0.158547
0.091696 0.293128 0.161147
0.136687 0.296104 0.163709
0.183992 0.299059 0.166253
0.233459 0.302000 0.168786
0.284831 0.304933 0.171313
0.337776 0.307859 0.173836
0.391906 0.310781 0.176356
0.446786 0.313699 0.178877
0.501956 0.316616 0.181398
0.556943 0.319531 0.183923
0.611280 0.322446 0.186451
0.664522 0.325362 0.188983
0.716260 0.328278 0.191522
0.766134 0.331196 0.194067
0.813839 0.334116 0.196620
0.859132 0.337037 0.199180
0.057275 0.351324 0.167148
0.100614 0.354450 0.169776
0.146142 0.357529 0.172365
0.193942 0.360584 0.174937
0.243850 0.363624 0.177497
0.295597 0.366653 0.180050
0.348841 0.369673 0.182600
0.403184 0.372687 0.185147
0.458186 0.375697 0.187694
0.513382 0.378703 0.190242
0.568299 0.381706 0.192793
0.622474 0.384707 0.195347
0.675467 0.387706 0.197906
0.726879 0.390705 0.200471
0.776359 0.393704 0.203042
0.823614 0.396702 0.205621
0.868415 0.399701 0.208207
0.065707 0.414035 0.175796
0.109610 0.417233 0.178452
0.155667 0.420381 0.181068
0.203950 0.423502 0.183666
0.254285 0.426606 0.186253
0.306392 0.429697 0.188833
0.359917 0.432777 0.191408
0.414455 0.435850 0.193982
0.469559 0.438916 0.196555
0.524762 0.441977 0.199129
0.579591 0.445033 0.201706
0.633587 0.448085 0.204286
0.686316 0.451134 0.206871
0.737388 0.454180 0.209461
0.786463 0.457225 0.212059
0.833261 0.460268 0.214663
0.877566 0.463309 0.217275
0.074221 0.477560 0.184499
0.118683 0.480793 0.187181
0.165258 0.483971 0.189824
0.214014 0.487122 0.192449
0.264762 0.490254 0.195061
0.317212 0.493370 0.197667
0.371002 0.496475 0.200269
0.425715 0.499569 0.202868
0.480902 0.502656 0.205466
0.536093 0.505734 0.208066
0.590816 0.508807 0.210668
0.644615 0.511874 0.213274
0.697066 0.514936 0.215885
0.747785 0.517994 0.218501
0.796446 0.521048 0.221123
0.842780 0.524098 0.223752
0.886583 0.527145 0.226389
0.082813 0.541178 0.193260
0.127826 0.544406 0.195970
0.174912 0.547578 0.198639
0.224128 0.550721 0.201289
0.275276 0.553842 0.203928
0.328054 0.556947 0.206559
0.382089 0.560038 0.209186
0.436960 0.563118 0.211810
0.492212 0.566187 0.214434
0.547371 0.569247 0.217059
0.601970 0.572299 0.219687
0.655557 0.575344 0.222317
0.707714 0.578382 0.224953
0.758069 0.581415 0.227594
0.806305 0.584442 0.230241
0.852167 0.587463 0.232895
0.895464 0.590480 0.235557
0.091478 0.604161 0.202086
0.137035 0.607346 0.204822
0.184622 0.610475 0.207517
0.234286 0.613572 0.210193
0.285820 0.616647 0.212857
0.338909 0.619704 0.215513
0.393174 0.622745 0.218165
0.448184 0.625773 0.220814
0.503480 0.628790 0.223463
0.558591 0.631795 0.226113
0.613048 0.634792 0.228765
0.666406 0.637779 0.231420
0.718255 0.640759 0.234080
0.768233 0.643731 0.236746
0.816036 0.646696 0.239418
0.861420 0.649654 0.242096
0.904206 0.652606 0.244781
0.100211 0.665811 0.210981
0.146305 0.668918 0.213742
0.194382 0.671968 0.216463
0.244483 0.674985 0.219163
0.296388 0.677979 0.221852
0.349773 0.680954 0.224533
0.404249 0.683912 0.227210
0.459380 0.686855 0.229884
0.514703 0.689786 0.232557
0.569745 0.692705 0.235231
0.624043 0.695612 0.237907
0.677157 0.698510 0.240587
0.728684 0.701399 0.243271
0.778275 0.704278 0.245960
0.825635 0.707149 0.248656
0.870535 0.710013 0.251358
0.912806 0.712868 0.254067
0.109006 0.725490 0.219946
0.155629 0.728486 0.222734
0.204187 0.731426 0.225479
0.254712 0.734333 0.228204
0.306974 0.737216 0.230917
0.360638 0.740078 0.233623
0.415308 0.742923 0.236323
0.470541 0.745753 0.239021
0.525872 0.748568 0.241718
0.580829 0.751371 0.244416
0.634951 0.754161 0.247116
0.687804 0.756941 0.249820
0.738997 0.759710 0.252527
0.788189 0.762470 0.255240
0.835099 0.765220 0.257959
0.879507 0.767961 0.260684
0.921261 0.770693 0.263416
0.117858 0.782643 0.228986
0.165002 0.785502 0.231799
0.214032 0.788306 0.234568
0.264968 0.791076 0.237318
0.317572 0.793822 0.240055
0.371500 0.796547 0.242784
0.426345 0.799254 0.245508
0.481662 0.801945 0.248229
0.536983 0.804621 0.250950
0.591836 0.807284 0.253671
0.645765 0.809934 0.256394
0.698344 0.812572 0.259120
0.749190 0.815200 0.261851
0.797972 0.817816 0.264587
0.844423 0.820423 0.267328
0.888336 0.823019 0.270076
0.929569 0.825607 0.272830
0.126764 0.836820 0.238102
0.174421 0.839519 0.240938
0.223911 0.842165 0.243732
0.275246 0.844779 0.246505
0.328177 0.847368 0.249265
0.382351 0.849936 0.252017
0.437355 0.852486 0.254765
0.492738 0.855019 0.257509
0.548030 0.857538 0.260252
0.602762 0.860042 0.262996
0.656483 0.862534 0.265742
0.708773 0.865013 0.268491
0.759258 0.867481 0.271244
0.807622 0.869937 0.274002
0.853606 0.872383 0.276765
0.897018 0.874819 0.279535
0.937727 0.877245 0.282311
0.135720 0.887678 0.247294
0.183882 0.890203 0.250154
0.233820 0.892677 0.252971
0.285542 0.895119 0.255767
0.338785 0.897536 0.258550
0.393189 0.899933 0.261324
0.448333 0.902312 0.264094
0.503763 0.904675 0.266861
0.559009 0.907022 0.269626
0.613603 0.909356 0.272392
0.667099 0.911676 0.275160
0.719086 0.913984 0.277930
0.769200 0.916281 0.280705
0.817135 0.918566 0.283485
0.862646 0.920840 0.286269
0.905552 0.923104 0.289060
0.945736 0.925358 0.291857
0.144723 0.934990 0.256562
0.193381 0.937330 0.259445
0.243758 0.939622 0.262285
0.295851 0.941883 0.265103
0.349391 0.944121 0.267908
0.404008 0.946338 0.270704
0.459276 0.948538 0.273496
0.514735 0.950722 0.276284
0.569917 0.952891 0.279071
0.624356 0.955046 0.281858
0.677612 0.957188 0.284647
0.729281 0.959318 0.287439
0.779012 0.961437 0.290235
0.826510 0.963544 0.293035
0.871541 0.965641 0.295841
0.913938 0.967728 0.298652
0.953595 0.969804 0.301469
0.009027 0.024087 0.161503
0.048881 0.026229 0.164118
0.091091 0.028344 0.166693
0.135788 0.030448 0.169251
0.182880 0.032548 0.171797
0.232170 0.034647 0.174337
0.283384 0.036746 0.176871
0.336185 0.038846 0.179403
0.390178 0.040950 0.181933
0.444930 0.043056 0.184465
0.499979 0.045167 0.186997
0.554852 0.047284 0.189533
0.609084 0.049405 0.192073
