render-worker/luts/investor.cube
# Generated by render-worker/scripts/generate-luts.mjs
# Do not hand-edit — re-run the script and let math win.
TITLE "EstateMotion Investor — Desaturated film stock"
LUT_3D_SIZE 5
DOMAIN_MIN 0.0 0.0 0.0
DOMAIN_MAX 1.0 1.0 1.0
0.006565 0.021797 0.030535
0.179711 0.030217 0.038807
0.386569 0.038578 0.046983
0.605486 0.046993 0.055200
0.808165 0.055504 0.063528
0.038904 0.228913 0.060005
0.220893 0.240256 0.068779
0.432898 0.251439 0.077450
0.651090 0.262612 0.086166
0.847670 0.273822 0.094995
0.072358 0.475220 0.090010
0.262469 0.487912 0.099272
0.478423 0.500313 0.108424
0.694722 0.512594 0.117621
0.884623 0.524805 0.126934
0.107049 0.723315 0.121211
0.304620 0.735060 0.130954
0.523392 0.746432 0.140578
0.736712 0.757594 0.150247
0.919391 0.768597 0.160030
0.142680 0.933289 0.153879
0.346990 0.942448 0.164088
0.567452 0.951246 0.174169
0.776796 0.959819 0.184293
0.951818 0.968213 0.194526
0.009829 0.024828 0.209486
0.183910 0.033302 0.220356
0.391349 0.041716 0.231043
0.610249 0.050185 0.241715
0.812336 0.058748 0.252449
0.042380 0.233006 0.247876
0.225264 0.244390 0.259127
0.437743 0.255611 0.270178
0.655788 0.266822 0.281208
0.851686 0.278067 0.292293
0.076030 0.479814 0.286057
0.266984 0.492508 0.297637
0.483300 0.504910 0.309005
0.699330 0.517190 0.320342
0.888475 0.529398 0.331726
0.110904 0.727579 0.324755
0.309253 0.739287 0.336623
0.528269 0.750621 0.348263
0.741203 0.761744 0.359865
0.923066 0.772708 0.371503
0.146703 0.936622 0.364176
0.351714 0.945726 0.376283
0.572298 0.954469 0.388148
0.781150 0.962989 0.399965
0.955308 0.971331 0.411805
0.013008 0.027743 0.418287
0.187980 0.036269 0.430647
0.395965 0.044735 0.442709
0.614835 0.053254 0.454662
0.816345 0.061869 0.466587
0.045758 0.236935 0.461500
0.229494 0.248358 0.473936
0.442416 0.259616 0.486057
0.660307 0.270862 0.498058
0.855543 0.282142 0.510019
0.079593 0.484210 0.503305
0.271348 0.496907 0.515751
0.487997 0.509309 0.527870
0.703755 0.521587 0.539859
0.892168 0.533792 0.551797
0.114637 0.731647 0.544503
0.313722 0.743318 0.556904
0.532958 0.754616 0.568968
0.745511 0.765702 0.580893
0.926584 0.776628 0.592756
0.150591 0.939793 0.585300
0.356264 0.948844 0.597601
0.576950 0.957535 0.609556
0.785319 0.966005 0.621364
0.958644 0.974295 0.633098
0.016157 0.030618 0.635476
0.191998 0.039197 0.647642
0.400508 0.047713 0.659417
0.619335 0.056282 0.670990
0.820268 0.064947 0.682444
0.049096 0.240802 0.677571
0.233662 0.252263 0.689459
0.447006 0.263557 0.700950
0.664732 0.274837 0.712235
0.859309 0.286150 0.723396
0.083107 0.488524 0.717138
0.275639 0.501223 0.728707
0.492604 0.513625 0.739878
0.708082 0.525901 0.750841
0.895769 0.538102 0.761676
0.118311 0.735626 0.755064
0.318111 0.747263 0.766282
0.537549 0.758524 0.777103
0.749715 0.769574 0.787717
0.930008 0.780462 0.798201
0.154412 0.942888 0.791642
0.360725 0.951887 0.802477
0.581498 0.960529 0.812921
0.789381 0.968948 0.823161
0.961884 0.977189 0.833268
0.019269 0.033478 0.833904
0.195965 0.042108 0.844357
0.404981 0.050674 0.854389
0.623753 0.059293 0.864174
0.824108 0.068007 0.873794
0.052391 0.244638 0.869727
0.237770 0.256135 0.879671
0.451520 0.267465 0.889204
0.669070 0.278779 0.898497
0.862989 0.290125 0.907631
0.086570 0.492790 0.902507
0.279864 0.505489 0.911944
0.497127 0.517891 0.920983
0.712317 0.530165 0.929793
0.899280 0.542362 0.938450
0.121929 0.739550 0.933168
0.322426 0.751151 0.942103
0.542051 0.762376 0.950656
0.753824 0.773390 0.958992
0.933340 0.784242 0.967182
0.158171 0.945933 0.962099
0.365106 0.954881 0.970538
0.585952 0.963473 0.978612
0.793346 0.971844 0.986482
0.965033 0.980037 0.994215
