render-worker/luts/luxury.cube
# Generated by render-worker/scripts/generate-luts.mjs
# Do not hand-edit — re-run the script and let math win.
TITLE "EstateMotion Luxury — Kodak 2383 emulation (warm, filmic)"
LUT_3D_SIZE 17
DOMAIN_MIN 0.0 0.0 0.0
DOMAIN_MAX 1.0 1.0 1.0
0.014657 0.021167 0.031037
0.060926 0.021823 0.031410
0.112558 0.022555 0.031827
0.169810 0.023366 0.032289
0.232316 0.024253 0.032793
0.299281 0.025202 0.033334
0.369542 0.026198 0.033901
0.441655 0.027221 0.034483
0.514014 0.028246 0.035067
0.584994 0.029253 0.035640
0.653101 0.030218 0.036190
0.717087 0.031126 0.036706
0.776029 0.031961 0.037182
0.829353 0.032717 0.037612
0.876819 0.033390 0.037996
0.918468 0.033981 0.038332
0.950360 0.034433 0.038589
0.017326 0.066023 0.032220
0.063595 0.066679 0.032593
0.115227 0.067411 0.033010
0.172479 0.068223 0.033472
0.234985 0.069109 0.033977
0.301950 0.070058 0.034517
0.372211 0.071055 0.035084
0.444324 0.072077 0.035666
0.516682 0.073103 0.036250
0.587663 0.074109 0.036823
0.655769 0.075075 0.037373
0.719756 0.075982 0.037889
0.778698 0.076818 0.038365
0.832022 0.077574 0.038796
0.879488 0.078247 0.039179
0.921137 0.078837 0.039515
0.953029 0.079289 0.039772
0.020310 0.116172 0.033542
0.066579 0.116828 0.033916
0.118211 0.117560 0.034333
0.175462 0.118372 0.034795
0.237969 0.119258 0.035299
0.304934 0.120207 0.035840
0.375195 0.121203 0.036407
0.447308 0.122226 0.036989
0.519666 0.123252 0.037573
0.590646 0.124258 0.038146
0.658753 0.125224 0.038696
0.722739 0.126131 0.039212
0.781681 0.126967 0.039688
0.835006 0.127723 0.040118
0.882471 0.128396 0.040501
0.924121 0.128986 0.040838
0.956013 0.129438 0.041095
0.023626 0.171912 0.035013
0.069895 0.172568 0.035386
0.121527 0.173300 0.035803
0.178779 0.174111 0.036265
0.241285 0.174998 0.036769
0.308250 0.175947 0.037310
0.378511 0.176943 0.037877
0.450625 0.177966 0.038459
0.522983 0.178991 0.039043
0.593963 0.179998 0.039616
0.662070 0.180963 0.040166
0.726056 0.181871 0.040682
0.784998 0.182706 0.041158
0.838322 0.183462 0.041588
0.885788 0.184135 0.041972
0.927437 0.184726 0.042308
0.959330 0.185178 0.042565
0.027260 0.232979 0.036623
0.073529 0.233635 0.036997
0.125161 0.234367 0.037413
0.182412 0.235179 0.037876
0.244918 0.236065 0.038380
0.311883 0.237015 0.038921
0.382145 0.238011 0.039488
0.454258 0.239033 0.040070
0.526616 0.240059 0.040654
0.597596 0.241065 0.041227
0.665703 0.242031 0.041777
0.729689 0.242938 0.042293
0.788631 0.243774 0.042769
0.841956 0.244530 0.043199
0.889421 0.245203 0.043582
0.931071 0.245793 0.043918
0.962963 0.246246 0.044176
0.031171 0.298718 0.038357
0.077440 0.299374 0.038731
0.129072 0.300106 0.039147
0.186324 0.300918 0.039610
0.248830 0.301804 0.040114
0.315795 0.302754 0.040655
0.386056 0.303750 0.041222
0.458169 0.304772 0.041804
0.530528 0.305798 0.042388
0.601508 0.306805 0.042961
0.669615 0.307770 0.043510
0.733601 0.308678 0.044027
0.792543 0.309513 0.044503
0.845867 0.310269 0.044933
0.893333 0.310942 0.045316
0.934982 0.311533 0.045652
0.966874 0.311985 0.045910
0.035300 0.368122 0.040188
0.081570 0.368778 0.040561
0.133201 0.369510 0.040978
0.190453 0.370322 0.041440
0.252959 0.371208 0.041945
0.319924 0.372157 0.042485
0.390186 0.373154 0.043052
0.462299 0.374176 0.043634
0.534657 0.375202 0.044218
0.605637 0.376208 0.044791
0.673744 0.377174 0.045341
0.737730 0.378081 0.045857
0.796672 0.378917 0.046333
0.849997 0.379673 0.046764
0.897462 0.380346 0.047147
0.939111 0.380936 0.047483
0.971004 0.381389 0.047740
0.039571 0.439891 0.042081
0.085840 0.440547 0.042454
0.137472 0.441279 0.042871
0.194723 0.442091 0.043333
0.257230 0.442977 0.043838
0.324195 0.443927 0.044378
0.394456 0.444923 0.044945
0.466569 0.445945 0.045527
0.538927 0.446971 0.046111
0.609907 0.447977 0.046684
0.678014 0.448943 0.047234
0.742001 0.449850 0.047750
0.800942 0.450686 0.048226
0.854267 0.451442 0.048657
0.901732 0.452115 0.049040
0.943382 0.452705 0.049376
0.975274 0.453158 0.049633
0.043893 0.512531 0.043997
0.090162 0.513187 0.044370
0.141794 0.513919 0.044787
0.199045 0.514731 0.045249
0.261552 0.515617 0.045753
0.328517 0.516566 0.046294
0.398778 0.517563 0.046861
0.470891 0.518585 0.047443
0.543249 0.519611 0.048027
0.614229 0.520617 0.048600
0.682336 0.521583 0.049150
0.746323 0.522490 0.049666
0.805265 0.523326 0.050142
0.858589 0.524082 0.050573
0.906055 0.524755 0.050956
0.947704 0.525345 0.051292
0.979596 0.525798 0.051549
0.048173 0.584477 0.045894
0.094442 0.585133 0.046268
0.146074 0.585865 0.046684
0.203326 0.586676 0.047147
0.265832 0.587563 0.047651
0.332797 0.588512 0.048192
0.403059 0.589508 0.048759
0.475172 0.590531 0.049341
0.547530 0.591557 0.049925
0.618510 0.592563 0.050498
0.686617 0.593529 0.051047
0.750603 0.594436 0.051564
0.809545 0.595271 0.052040
0.862869 0.596027 0.052470
0.910335 0.596700 0.052853
0.951984 0.597291 0.053189
0.983877 0.597743 0.053447
0.052323 0.654227 0.047734
0.098593 0.654883 0.048107
0.150224 0.655615 0.048524
0.207476 0.656426 0.048986
0.269982 0.657313 0.049491
0.336947 0.658262 0.050031
0.407209 0.659258 0.050598
0.479322 0.660281 0.051180
0.551680 0.661307 0.051765
0.622660 0.662313 0.052337
0.690767 0.663279 0.052887
0.754753 0.664186 0.053404
0.813695 0.665021 0.053879
0.867020 0.665777 0.054310
0.914485 0.666450 0.054693
0.956135 0.667041 0.055029
0.988027 0.667493 0.055287
0.056265 0.720465 0.049481
0.102534 0.721121 0.049854
0.154166 0.721853 0.050271
0.211417 0.722665 0.050733
0.273924 0.723551 0.051238
0.340889 0.724501 0.051778
0.411150 0.725497 0.052345
0.483263 0.726519 0.052928
0.555621 0.727545 0.053512
0.626601 0.728552 0.054085
0.694708 0.729517 0.054634
0.758695 0.730424 0.055151
0.817636 0.731260 0.055626
0.870961 0.732016 0.056057
0.918426 0.732689 0.056440
0.960076 0.733280 0.056776
0.991968 0.733732 0.057034
0.059935 0.782153 0.051108
0.106204 0.782809 0.051482
0.157836 0.783541 0.051898
0.215088 0.784353 0.052360
0.277594 0.785239 0.052865
0.344559 0.786188 0.053405
0.414820 0.787184 0.053973
0.486933 0.788207 0.054555
0.559292 0.789233 0.055139
0.630272 0.790239 0.055712
0.698379 0.791205 0.056261
0.762365 0.792112 0.056778
0.821307 0.792948 0.057254
0.874631 0.793704 0.057684
0.922097 0.794377 0.058067
0.963746 0.794967 0.058403
0.995638 0.795419 0.058661
0.063292 0.838570 0.052596
0.109561 0.839226 0.052970
0.161193 0.839958 0.053386
0.218445 0.840770 0.053848
0.280951 0.841656 0.054353
0.347916 0.842606 0.054893
0.418177 0.843602 0.055461
0.490290 0.844624 0.056043
0.562648 0.845650 0.056627
0.633629 0.846656 0.057200
0.701735 0.847622 0.057749
0.765722 0.848529 0.058266
0.824664 0.849365 0.058742
0.877988 0.850121 0.059172
0.925454 0.850794 0.059555
0.967103 0.851384 0.059891
0.998995 0.851837 0.060149
0.066312 0.889324 0.053935
0.112581 0.889980 0.054308
0.164213 0.890712 0.054725
0.221464 0.891524 0.055187
0.283971 0.892410 0.055692
0.350936 0.893359 0.056232
0.421197 0.894355 0.056799
0.493310 0.895378 0.057381
0.565668 0.896404 0.057965
0.636648 0.897410 0.058538
0.704755 0.898376 0.059088
0.768741 0.899283 0.059604
0.827683 0.900119 0.060080
0.881008 0.900875 0.060511
0.928473 0.901548 0.060894
0.970123 0.902138 0.061230
1.000000 0.902590 0.061487
0.068988 0.934314 0.055121
0.115258 0.934970 0.055495
0.166889 0.935702 0.055912
0.224141 0.936513 0.056374
0.286647 0.937399 0.056878
0.353612 0.938349 0.057419
0.423874 0.939345 0.057986
0.495987 0.940368 0.058568
0.568345 0.941393 0.059152
0.639325 0.942400 0.059725
0.707432 0.943365 0.060275
0.771418 0.944273 0.060791
0.830360 0.945108 0.061267
0.883685 0.945864 0.061697
0.931150 0.946537 0.062080
0.972799 0.947128 0.062417
1.000000 0.947580 0.062674
0.071331 0.973678 0.056160
0.117600 0.974334 0.056533
0.169232 0.975066 0.056950
0.226483 0.975878 0.057412
0.288990 0.976764 0.057916
0.355955 0.977713 0.058457
0.426216 0.978710 0.059024
0.498329 0.979732 0.059606
0.570687 0.980758 0.060190
0.641667 0.981764 0.060763
0.709774 0.982730 0.061313
0.773760 0.983637 0.061829
0.832702 0.984473 0.062305
0.886027 0.985229 0.062736
0.933492 0.985902 0.063119
0.975142 0.986492 0.063455
1.000000 0.986944 0.063712
0.014911 0.021364 0.071475
0.061180 0.022020 0.071848
0.112812 0.022752 0.072265
0.170064 0.023564 0.072727
0.232570 0.024450 0.073231
0.299535 0.025400 0.073772
0.369796 0.026396 0.074339
0.441909 0.027418 0.074921
0.514268 0.028444 0.075505
0.585248 0.029451 0.076078
0.653355 0.030416 0.076628
0.717341 0.031323 0.077144
0.776283 0.032159 0.077620
0.829607 0.032915 0.078050
0.877073 0.033588 0.078434
0.918722 0.034179 0.078770
0.950614 0.034631 0.079027
0.017580 0.066221 0.072658
0.063849 0.066877 0.073031
0.115481 0.067609 0.073448
0.172733 0.068421 0.073910
0.235239 0.069307 0.074415
0.302204 0.070256 0.074955
0.372465 0.071252 0.075522
0.444578 0.072275 0.076104
0.516936 0.073301 0.076688
0.587917 0.074307 0.077261
0.656023 0.075273 0.077811
0.720010 0.076180 0.078327
0.778952 0.077016 0.078803
0.832276 0.077772 0.079234
0.879742 0.078445 0.079617
0.921391 0.079035 0.079953
0.953283 0.079487 0.080210
0.020564 0.116370 0.073980
0.066833 0.117026 0.074354
0.118465 0.117758 0.074771
0.175716 0.118569 0.075233
0.238223 0.119456 0.075737
0.305187 0.120405 0.076278
0.375449 0.121401 0.076845
0.447562 0.122424 0.077427
0.519920 0.123449 0.078011
0.590900 0.124456 0.078584
0.659007 0.125421 0.079134
0.722993 0.126329 0.079650
0.781935 0.127164 0.080126
0.835260 0.127920 0.080556
0.882725 0.128593 0.080939
0.924375 0.129184 0.081276
0.956267 0.129636 0.081533
0.023880 0.172109 0.075451
0.070149 0.172765 0.075824
0.121781 0.173497 0.076241
0.179033 0.174309 0.076703
0.241539 0.175195 0.077207
0.308504 0.176145 0.077748
0.378765 0.177141 0.078315
0.450879 0.178163 0.078897
0.523237 0.179189 0.079481
0.594217 0.180196 0.080054
0.662324 0.181161 0.080604
0.726310 0.182068 0.081120
0.785252 0.182904 0.081596
0.838576 0.183660 0.082026
0.886042 0.184333 0.082410
0.927691 0.184924 0.082746
0.959583 0.185376 0.083003
0.027513 0.233177 0.077061
0.073783 0.233833 0.077435
0.125414 0.234565 0.077851
0.182666 0.235377 0.078314
0.245172 0.236263 0.078818
0.312137 0.237212 0.079359
0.382399 0.238208 0.079926
0.454512 0.239231 0.080508
0.526870 0.240257 0.081092
0.597850 0.241263 0.081665
0.665957 0.242229 0.082215
0.729943 0.243136 0.082731
0.788885 0.243972 0.083207
0.842210 0.244728 0.083637
0.889675 0.245401 0.084020
0.931325 0.245991 0.084356
0.963217 0.246443 0.084614
0.031425 0.298916 0.078795
0.077694 0.299572 0.079169
0.129326 0.300304 0.079585
0.186578 0.301116 0.080048
0.249084 0.302002 0.080552
0.316049 0.302952 0.081093
0.386310 0.303948 0.081660
0.458423 0.304970 0.082242
0.530782 0.305996 0.082826
0.601762 0.307002 0.083399
0.669869 0.307968 0.083948
0.733855 0.308875 0.084465
0.792797 0.309711 0.084941
0.846121 0.310467 0.085371
0.893587 0.311140 0.085754
0.935236 0.311730 0.086090
0.967128 0.312183 0.086348
0.035554 0.368320 0.080626
0.081823 0.368976 0.080999
0.133455 0.369708 0.081416
0.190707 0.370520 0.081878
0.253213 0.371406 0.082383
0.320178 0.372355 0.082923
0.390440 0.373351 0.083490
0.462553 0.374374 0.084072
0.534911 0.375400 0.084656
0.605891 0.376406 0.085229
0.673998 0.377372 0.085779
0.737984 0.378279 0.086295
0.796926 0.379115 0.086771
0.850251 0.379871 0.087202
0.897716 0.380544 0.087585
0.939365 0.381134 0.087921
0.971258 0.381586 0.088178
0.039825 0.440089 0.082519
0.086094 0.440745 0.082892
0.137726 0.441477 0.083309
0.194977 0.442289 0.083771
0.257484 0.443175 0.084276
0.324449 0.444124 0.084816
0.394710 0.445120 0.085383
0.466823 0.446143 0.085965
0.539181 0.447169 0.086549
0.610161 0.448175 0.087122
0.678268 0.449141 0.087672
0.742255 0.450048 0.088188
0.801196 0.450884 0.088664
0.854521 0.451640 0.089095
0.901986 0.452313 0.089478
0.943636 0.452903 0.089814
0.975528 0.453355 0.090071
0.044147 0.512729 0.084435
0.090416 0.513385 0.084808
0.142048 0.514117 0.085225
0.199299 0.514929 0.085687
0.261806 0.515815 0.086191
0.328771 0.516764 0.086732
0.399032 0.517760 0.087299
0.471145 0.518783 0.087881
0.543503 0.519809 0.088465
0.614483 0.520815 0.089038
0.682590 0.521781 0.089588
0.746577 0.522688 0.090104
0.805518 0.523524 0.090580
0.858843 0.524280 0.091011
0.906308 0.524953 0.091394
0.947958 0.525543 0.091730
0.979850 0.525995 0.091987
0.048427 0.584674 0.086332
0.094696 0.585330 0.086706
0.146328 0.586063 0.087122
0.203580 0.586874 0.087585
0.266086 0.587760 0.088089
0.333051 0.588710 0.088630
0.403313 0.589706 0.089197
0.475426 0.590728 0.089779
0.547784 0.591754 0.090363
0.618764 0.592761 0.090936
0.686871 0.593726 0.091485
0.750857 0.594634 0.092002
0.809799 0.595469 0.092478
0.863123 0.596225 0.092908
0.910589 0.596898 0.093291
0.952238 0.597489 0.093627
0.984131 0.597941 0.093885
0.052577 0.654424 0.088172
0.098847 0.655080 0.088545
0.150478 0.655812 0.088962
0.207730 0.656624 0.089424
0.270236 0.657510 0.089929
0.337201 0.658460 0.090469
0.407463 0.659456 0.091036
0.479576 0.660478 0.091618
0.551934 0.661504 0.092203
0.622914 0.662511 0.092775
0.691021 0.663476 0.093325
0.755007 0.664383 0.093842
0.813949 0.665219 0.094317
0.867274 0.665975 0.094748
0.914739 0.666648 0.095131
0.956388 0.667239 0.095467
0.988281 0.667691 0.095725
0.056519 0.720663 0.089919
0.102788 0.721319 0.090292
0.154420 0.722051 0.090709
0.211671 0.722863 0.091171
0.274178 0.723749 0.091676
0.341143 0.724699 0.092216
0.411404 0.725695 0.092784
0.483517 0.726717 0.093366
0.555875 0.727743 0.093950
0.626855 0.728749 0.094523
0.694962 0.729715 0.095072
0.758949 0.730622 0.095589
0.817890 0.731458 0.096065
0.871215 0.732214 0.096495
0.918680 0.732887 0.096878
0.960330 0.733477 0.097214
0.992222 0.733930 0.097472
0.060189 0.782351 0.091546
0.106458 0.783007 0.091920
0.158090 0.783739 0.092336
0.215342 0.784550 0.092798
0.277848 0.785437 0.093303
0.344813 0.786386 0.093843
0.415074 0.787382 0.094411
0.487187 0.788405 0.094993
0.559546 0.789430 0.095577
0.630526 0.790437 0.096150
0.698633 0.791402 0.096699
0.762619 0.792310 0.097216
0.821561 0.793145 0.097692
0.874885 0.793901 0.098122
0.922351 0.794574 0.098505
0.964000 0.795165 0.098841
0.995892 0.795617 0.099099
0.063546 0.838768 0.093034
0.109815 0.839424 0.093408
0.161447 0.840156 0.093824
0.218699 0.840968 0.094286
0.281205 0.841854 0.094791
0.348170 0.842803 0.095331
0.418431 0.843800 0.095899
0.490544 0.844822 0.096481
0.562902 0.845848 0.097065
0.633883 0.846854 0.097638
0.701989 0.847820 0.098187
0.765976 0.848727 0.098704
0.824918 0.849563 0.099180
0.878242 0.850319 0.099610
0.925708 0.850992 0.099993
0.967357 0.851582 0.100329
0.999249 0.852034 0.100587
0.066566 0.889522 0.094373
0.112835 0.890178 0.094746
0.164467 0.890910 0.095163
0.221718 0.891721 0.095625
0.284225 0.892608 0.096130
0.351189 0.893557 0.096670
0.421451 0.894553 0.097237
0.493564 0.895576 0.097819
0.565922 0.896602 0.098403
0.636902 0.897608 0.098976
0.705009 0.898574 0.099526
0.768995 0.899481 0.100042
0.827937 0.900316 0.100518
0.881262 0.901072 0.100949
0.928727 0.901745 0.101332
0.970377 0.902336 0.101668
1.000000 0.902788 0.101925
0.069242 0.934511 0.095559
0.115511 0.935167 0.095933
0.167143 0.935899 0.096350
0.224395 0.936711 0.096812
0.286901 0.937597 0.097316
0.353866 0.938547 0.097857
0.424128 0.939543 0.098424
0.496241 0.940565 0.099006
0.568599 0.941591 0.099590
0.639579 0.942598 0.100163
0.707686 0.943563 0.100713
0.771672 0.944470 0.101229
0.830614 0.945306 0.101705
0.883939 0.946062 0.102135
0.931404 0.946735 0.102518
0.973053 0.947326 0.102855
1.000000 0.947778 0.103112
0.071585 0.973876 0.096598
0.117854 0.974532 0.096971
0.169486 0.975264 0.097388
0.226737 0.976076 0.097850
0.289244 0.976962 0.098355
0.356209 0.977911 0.098895
0.426470 0.978907 0.099462
0.498583 0.979930 0.100044
0.570941 0.980956 0.100628
0.641921 0.981962 0.101201
0.710028 0.982928 0.101751
0.774014 0.983835 0.102267
0.832956 0.984671 0.102743
0.886281 0.985427 0.103174
0.933746 0.986100 0.103557
0.975396 0.986690 0.103893
1.000000 0.987142 0.104150
0.015195 0.021586 0.116766
0.061464 0.022242 0.117140
0.113096 0.022974 0.117556
0.170348 0.023786 0.118018
0.232854 0.024672 0.118523
0.299819 0.025621 0.119063
0.370081 0.026617 0.119631
0.442194 0.027640 0.120213
0.514552 0.028666 0.120797
0.585532 0.029672 0.121370
0.653639 0.030638 0.121919
0.717625 0.031545 0.122436
0.776567 0.032381 0.122912
0.829891 0.033137 0.123342
0.877357 0.033810 0.123725
0.919006 0.034400 0.124061
0.950899 0.034852 0.124319
0.017864 0.066442 0.117949
0.064133 0.067098 0.118323
0.115765 0.067830 0.118739
0.173017 0.068642 0.119202
0.235523 0.069528 0.119706
0.302488 0.070478 0.120247
0.372750 0.071474 0.120814
0.444863 0.072496 0.121396
0.517221 0.073522 0.121980
0.588201 0.074529 0.122553
0.656308 0.075494 0.123102
0.720294 0.076401 0.123619
0.779236 0.077237 0.124095
0.832560 0.077993 0.124525
0.880026 0.078666 0.124908
0.921675 0.079257 0.125244
0.953568 0.079709 0.125502
0.020848 0.116591 0.119272
0.067117 0.117247 0.119645
0.118749 0.117979 0.120062
0.176001 0.118791 0.120524
0.238507 0.119677 0.121029
0.305472 0.120626 0.121569
0.375733 0.121623 0.122136
0.447847 0.122645 0.122718
0.520205 0.123671 0.123303
0.591185 0.124677 0.123875
0.659292 0.125643 0.124425
0.723278 0.126550 0.124942
0.782220 0.127386 0.125417
0.835544 0.128142 0.125848
0.883010 0.128815 0.126231
0.924659 0.129405 0.126567
0.956551 0.129858 0.126825
0.024164 0.172331 0.120742
0.070434 0.172987 0.121116
0.122065 0.173719 0.121532
0.179317 0.174531 0.121994
0.241823 0.175417 0.122499
0.308788 0.176366 0.123039
0.379050 0.177362 0.123607
0.451163 0.178385 0.124189
0.523521 0.179411 0.124773
0.594501 0.180417 0.125346
0.662608 0.181383 0.125895
0.726594 0.182290 0.126412
0.785536 0.183126 0.126888
0.838861 0.183882 0.127318
0.886326 0.184555 0.127701
0.927976 0.185145 0.128037
0.959868 0.185597 0.128295
0.027798 0.233398 0.122353
0.074067 0.234054 0.122726
0.125699 0.234786 0.123143
0.182951 0.235598 0.123605
0.245457 0.236484 0.124110
0.312422 0.237434 0.124650
0.382683 0.238430 0.125217
0.454796 0.239452 0.125799
0.527155 0.240478 0.126383
0.598135 0.241485 0.126956
0.666242 0.242450 0.127506
0.730228 0.243357 0.128023
0.789170 0.244193 0.128498
0.842494 0.244949 0.128929
0.889960 0.245622 0.129312
0.931609 0.246213 0.129648
0.963501 0.246665 0.129905
0.031709 0.299138 0.124087
0.077978 0.299794 0.124460
0.129610 0.300526 0.124877
0.186862 0.301337 0.125339
0.249368 0.302224 0.125844
0.316333 0.303173 0.126384
0.386595 0.304169 0.126951
0.458708 0.305192 0.127533
0.531066 0.306218 0.128117
0.602046 0.307224 0.128690
0.670153 0.308190 0.129240
0.734139 0.309097 0.129756
0.793081 0.309932 0.130232
0.846406 0.310688 0.130663
0.893871 0.311361 0.131046
0.935520 0.311952 0.131382
0.967413 0.312404 0.131639
0.035839 0.368541 0.125917
0.082108 0.369197 0.126291
0.133740 0.369929 0.126707
0.190992 0.370741 0.127170
0.253498 0.371627 0.127674
0.320463 0.372577 0.128215
0.390724 0.373573 0.128782
0.462837 0.374595 0.129364
0.535196 0.375621 0.129948
0.606176 0.376628 0.130521
0.674283 0.377593 0.131071
0.738269 0.378500 0.131587
0.797211 0.379336 0.132063
0.850535 0.380092 0.132493
0.898001 0.380765 0.132876
0.939650 0.381356 0.133212
0.971542 0.381808 0.133470
0.040109 0.440310 0.127810
0.086378 0.440966 0.128184
0.138010 0.441698 0.128600
0.195262 0.442510 0.129063
0.257768 0.443396 0.129567
0.324733 0.444346 0.130108
0.394995 0.445342 0.130675
0.467108 0.446364 0.131257
0.539466 0.447390 0.131841
0.610446 0.448397 0.132414
0.678553 0.449362 0.132963
0.742539 0.450269 0.133480
0.801481 0.451105 0.133956
0.854805 0.451861 0.134386
0.902271 0.452534 0.134769
0.943920 0.453125 0.135105
0.975813 0.453577 0.135363
0.044431 0.512950 0.129726
0.090700 0.513606 0.130100
0.142332 0.514338 0.130516
0.199584 0.515150 0.130978
0.262090 0.516036 0.131483
0.329055 0.516986 0.132024
0.399317 0.517982 0.132591
0.471430 0.519004 0.133173
0.543788 0.520030 0.133757
0.614768 0.521037 0.134330
0.682875 0.522002 0.134879
0.746861 0.522909 0.135396
0.805803 0.523745 0.135872
0.859127 0.524501 0.136302
0.906593 0.525174 0.136685
0.948242 0.525765 0.137021
0.980135 0.526217 0.137279
0.048712 0.584896 0.131624
0.094981 0.585552 0.131997
0.146613 0.586284 0.132414
0.203865 0.587096 0.132876
0.266371 0.587982 0.133381
0.333336 0.588931 0.133921
0.403597 0.589928 0.134488
0.475710 0.590950 0.135070
0.548069 0.591976 0.135654
0.619049 0.592982 0.136227
0.687156 0.593948 0.136777
0.751142 0.594855 0.137293
0.810084 0.595691 0.137769
0.863408 0.596447 0.138200
0.910874 0.597120 0.138583
0.952523 0.597710 0.138919
0.984415 0.598162 0.139176
0.052862 0.654646 0.133463
0.099131 0.655302 0.133837
0.150763 0.656034 0.134254
0.208015 0.656846 0.134716
0.270521 0.657732 0.135220
0.337486 0.658681 0.135761
0.407747 0.659677 0.136328
0.479860 0.660700 0.136910
0.552219 0.661726 0.137494
0.623199 0.662732 0.138067
0.691306 0.663698 0.138617
0.755292 0.664605 0.139133
0.814234 0.665441 0.139609
0.867558 0.666197 0.140039
0.915024 0.666870 0.140422
0.956673 0.667460 0.140759
0.988565 0.667912 0.141016
0.056803 0.720885 0.135211
0.103072 0.721541 0.135584
0.154704 0.722273 0.136001
0.211956 0.723084 0.136463
0.274462 0.723971 0.136967
0.341427 0.724920 0.137508
0.411688 0.725916 0.138075
0.483802 0.726939 0.138657
0.556160 0.727965 0.139241
0.627140 0.728971 0.139814
0.695247 0.729937 0.140364
0.759233 0.730844 0.140880
0.818175 0.731679 0.141356
0.871499 0.732435 0.141786
0.918965 0.733108 0.142170
0.960614 0.733699 0.142506
0.992507 0.734151 0.142763
0.060473 0.782572 0.136838
0.106742 0.783228 0.137211
0.158374 0.783960 0.137628
0.215626 0.784772 0.138090
0.278132 0.785658 0.138594
0.345097 0.786607 0.139135
0.415359 0.787604 0.139702
0.487472 0.788626 0.140284
0.559830 0.789652 0.140868
0.630810 0.790658 0.141441
0.698917 0.791624 0.141991
0.762903 0.792531 0.142507
0.821845 0.793367 0.142983
0.875170 0.794123 0.143413
0.922635 0.794796 0.143797
0.964284 0.795386 0.144133
0.996177 0.795838 0.144390
0.063830 0.838989 0.138326
0.110099 0.839645 0.138699
0.161731 0.840377 0.139116
0.218983 0.841189 0.139578
0.281489 0.842075 0.140082
0.348454 0.843025 0.140623
0.418716 0.844021 0.141190
0.490829 0.845043 0.141772
0.563187 0.846069 0.142356
0.634167 0.847076 0.142929
0.702274 0.848041 0.143479
0.766260 0.848949 0.143995
0.825202 0.849784 0.144471
0.878526 0.850540 0.144902
0.925992 0.851213 0.145285
0.967641 0.851804 0.145621
0.999534 0.852256 0.145878
0.066850 0.889743 0.139664
0.113119 0.890399 0.140038
0.164751 0.891131 0.140454
0.222003 0.891943 0.140917
0.284509 0.892829 0.141421
0.351474 0.893779 0.141962
0.421735 0.894775 0.142529
0.493849 0.895797 0.143111
0.566207 0.896823 0.143695
0.637187 0.897829 0.144268
0.705294 0.898795 0.144818
0.769280 0.899702 0.145334
0.828222 0.900538 0.145810
0.881546 0.901294 0.146240
0.929012 0.901967 0.146623
0.970661 0.902557 0.146959
1.000000 0.903010 0.147217
0.069527 0.934733 0.140851
0.115796 0.935389 0.141224
0.167428 0.936121 0.141641
0.224680 0.936933 0.142103
0.287186 0.937819 0.142608
0.354151 0.938768 0.143148
0.424412 0.939764 0.143715
0.496525 0.940787 0.144297
0.568884 0.941813 0.144882
0.639864 0.942819 0.145454
0.707971 0.943785 0.146004
0.771957 0.944692 0.146521
0.830899 0.945528 0.146996
0.884223 0.946284 0.147427
0.931689 0.946957 0.147810
0.973338 0.947547 0.148146
1.000000 0.947999 0.148404
0.071869 0.974097 0.141889
0.118138 0.974753 0.142263
0.169770 0.975485 0.142679
0.227022 0.976297 0.143141
0.289528 0.977183 0.143646
0.356493 0.978133 0.144187
0.426754 0.979129 0.144754
0.498868 0.980151 0.145336
0.571226 0.981177 0.145920
0.642206 0.982184 0.146493
0.710313 0.983149 0.147042
0.774299 0.984056 0.147559
0.833241 0.984892 0.148035
0.886565 0.985648 0.148465
0.934031 0.986321 0.148848
0.975680 0.986912 0.149184
1.000000 0.987364 0.149442
0.015512 0.021832 0.167145
0.061781 0.022488 0.167518
0.113413 0.023220 0.167935
0.170665 0.024032 0.168397
0.233171 0.024918 0.168902
0.300136 0.025868 0.169442
0.370397 0.026864 0.170010
0.442510 0.027886 0.170592
0.514868 0.028912 0.171176
0.585849 0.029918 0.171749
0.653955 0.030884 0.172298
0.717942 0.031791 0.172815
0.776884 0.032627 0.173291
