render-worker/luts/luxury.cube
# Generated by render-worker/scripts/generate-luts.mjs
# Do not hand-edit — re-run the script and let math win.
TITLE "EstateMotion Luxury — Kodak 2383 emulation (warm, filmic)"
LUT_3D_SIZE 5
DOMAIN_MIN 0.0 0.0 0.0
DOMAIN_MAX 1.0 1.0 1.0
0.014657 0.021167 0.031037
0.232316 0.024253 0.032793
0.514014 0.028246 0.035067
0.776029 0.031961 0.037182
0.950360 0.034433 0.038589
0.027260 0.232979 0.036623
0.244918 0.236065 0.038380
0.526616 0.240059 0.040654
0.788631 0.243774 0.042769
0.962963 0.246246 0.044176
0.043893 0.512531 0.043997
0.261552 0.515617 0.045753
0.543249 0.519611 0.048027
0.805265 0.523326 0.050142
0.979596 0.525798 0.051549
0.059935 0.782153 0.051108
0.277594 0.785239 0.052865
0.559292 0.789233 0.055139
0.821307 0.792948 0.057254
0.995638 0.795419 0.058661
0.071331 0.973678 0.056160
0.288990 0.976764 0.057916
0.570687 0.980758 0.060190
0.832702 0.984473 0.062305
1.000000 0.986944 0.063712
0.015859 0.022103 0.222426
0.233518 0.025189 0.224183
0.515216 0.029182 0.226457
0.777231 0.032897 0.228572
0.951562 0.035369 0.229979
0.028462 0.233915 0.228013
0.246121 0.237001 0.229770
0.527818 0.240995 0.232044
0.789833 0.244710 0.234158
0.964165 0.247182 0.235566
0.045095 0.513467 0.235386
0.262754 0.516553 0.237143
0.544451 0.520547 0.239417
0.806467 0.524262 0.241532
0.980798 0.526734 0.242939
0.061137 0.783089 0.242498
0.278796 0.786175 0.244255
0.560494 0.790169 0.246528
0.822509 0.793884 0.248643
0.996841 0.796355 0.250050
0.072533 0.974614 0.247549
0.290192 0.977700 0.249306
0.571889 0.981694 0.251580
0.833904 0.985409 0.253695
1.000000 0.987880 0.255102
0.017466 0.023354 0.478304
0.235125 0.026440 0.480061
0.516823 0.030434 0.482334
0.778838 0.034149 0.484449
0.953169 0.036620 0.485856
0.030069 0.235167 0.483890
0.247728 0.238252 0.485647
0.529425 0.242246 0.487921
0.791441 0.245961 0.490036
0.965772 0.248433 0.491443
0.046702 0.514718 0.491264
0.264361 0.517804 0.493021
0.546059 0.521798 0.495294
0.808074 0.525513 0.497409
0.982405 0.527985 0.498816
0.062744 0.784340 0.498375
0.280403 0.787426 0.500132
0.562101 0.791420 0.502406
0.824116 0.795135 0.504521
0.998448 0.797607 0.505928
0.074140 0.975865 0.503427
0.291799 0.978951 0.505184
0.573496 0.982945 0.507457
0.835512 0.986660 0.509572
1.000000 0.989132 0.510979
0.019066 0.024600 0.733120
0.236725 0.027686 0.734877
0.518423 0.031680 0.737150
0.780438 0.035395 0.739265
0.954770 0.037867 0.740672
0.031669 0.236413 0.738706
0.249328 0.239499 0.740463
0.531026 0.243493 0.742737
0.793041 0.247207 0.744852
0.967373 0.249679 0.746259
0.048302 0.515965 0.746080
0.265961 0.519051 0.747837
0.547659 0.523045 0.750110
0.809674 0.526759 0.752225
0.984006 0.529231 0.753632
0.064345 0.785586 0.753191
0.282004 0.788672 0.754948
0.563701 0.792666 0.757222
0.825716 0.796381 0.759337
1.000000 0.798853 0.760744
0.075740 0.977112 0.758243
0.293399 0.980198 0.760000
0.575097 0.984191 0.762273
0.837112 0.987906 0.764388
1.000000 0.990378 0.765795
0.020253 0.025524 0.921977
0.237912 0.028610 0.923734
0.519609 0.032604 0.926007
0.781624 0.036319 0.928122
0.955956 0.038790 0.929529
0.032855 0.237336 0.927563
0.250514 0.240422 0.929320
0.532212 0.244416 0.931594
0.794227 0.248131 0.933709
0.968559 0.250603 0.935116
0.049488 0.516888 0.934937
0.267147 0.519974 0.936694
0.548845 0.523968 0.938967
0.810860 0.527683 0.941082
0.985192 0.530155 0.942489
0.065531 0.786510 0.942048
0.283190 0.789596 0.943805
0.564887 0.793590 0.946079
0.826903 0.797305 0.948194
1.000000 0.799776 0.949601
0.076926 0.978035 0.947100
0.294585 0.981121 0.948857
0.576283 0.985115 0.951130
0.838298 0.988830 0.953245
1.000000 0.991302 0.954652
