render-worker/luts/luxury.cube
# Generated by render-worker/scripts/generate-luts.mjs
# Do not hand-edit — re-run the script and let math win.
TITLE "EstateMotion Luxury — Kodak 2383 emulation (warm, filmic)"
LUT_3D_SIZE 9
DOMAIN_MIN 0.0 0.0 0.0
DOMAIN_MAX 1.0 1.0 1.0
0.014657 0.021167 0.031037
0.112558 0.022555 0.031827
0.232316 0.024253 0.032793
0.369542 0.026198 0.033901
0.514014 0.028246 0.035067
0.653101 0.030218 0.036190
0.776029 0.031961 0.037182
0.876819 0.033390 0.037996
0.950360 0.034433 0.038589
0.020310 0.116172 0.033542
0.118211 0.117560 0.034333
0.237969 0.119258 0.035299
0.375195 0.121203 0.036407
0.519666 0.123252 0.037573
0.658753 0.125224 0.038696
0.781681 0.126967 0.039688
0.882471 0.128396 0.040501
0.956013 0.129438 0.041095
0.027260 0.232979 0.036623
0.125161 0.234367 0.037413
0.244918 0.236065 0.038380
0.382145 0.238011 0.039488
0.526616 0.240059 0.040654
0.665703 0.242031 0.041777
0.788631 0.243774 0.042769
0.889421 0.245203 0.043582
0.962963 0.246246 0.044176
0.035300 0.368122 0.040188
0.133201 0.369510 0.040978
0.252959 0.371208 0.041945
0.390186 0.373154 0.043052
0.534657 0.375202 0.044218
0.673744 0.377174 0.045341
0.796672 0.378917 0.046333
0.897462 0.380346 0.047147
0.971004 0.381389 0.047740
0.043893 0.512531 0.043997
0.141794 0.513919 0.044787
0.261552 0.515617 0.045753
0.398778 0.517563 0.046861
0.543249 0.519611 0.048027
0.682336 0.521583 0.049150
0.805265 0.523326 0.050142
0.906055 0.524755 0.050956
0.979596 0.525798 0.051549
0.052323 0.654227 0.047734
0.150224 0.655615 0.048524
0.269982 0.657313 0.049491
0.407209 0.659258 0.050598
0.551680 0.661307 0.051765
0.690767 0.663279 0.052887
0.813695 0.665021 0.053879
0.914485 0.666450 0.054693
0.988027 0.667493 0.055287
0.059935 0.782153 0.051108
0.157836 0.783541 0.051898
0.277594 0.785239 0.052865
0.414820 0.787184 0.053973
0.559292 0.789233 0.055139
0.698379 0.791205 0.056261
0.821307 0.792948 0.057254
0.922097 0.794377 0.058067
0.995638 0.795419 0.058661
0.066312 0.889324 0.053935
0.164213 0.890712 0.054725
0.283971 0.892410 0.055692
0.421197 0.894355 0.056799
0.565668 0.896404 0.057965
0.704755 0.898376 0.059088
0.827683 0.900119 0.060080
0.928473 0.901548 0.060894
1.000000 0.902590 0.061487
0.071331 0.973678 0.056160
0.169232 0.975066 0.056950
0.288990 0.976764 0.057916
0.426216 0.978710 0.059024
0.570687 0.980758 0.060190
0.709774 0.982730 0.061313
0.832702 0.984473 0.062305
0.933492 0.985902 0.063119
1.000000 0.986944 0.063712
0.015195 0.021586 0.116766
0.113096 0.022974 0.117556
0.232854 0.024672 0.118523
0.370081 0.026617 0.119631
0.514552 0.028666 0.120797
0.653639 0.030638 0.121919
0.776567 0.032381 0.122912
0.877357 0.033810 0.123725
0.950899 0.034852 0.124319
0.020848 0.116591 0.119272
0.118749 0.117979 0.120062
0.238507 0.119677 0.121029
0.375733 0.121623 0.122136
0.520205 0.123671 0.123303
0.659292 0.125643 0.124425
0.782220 0.127386 0.125417
0.883010 0.128815 0.126231
0.956551 0.129858 0.126825
0.027798 0.233398 0.122353
0.125699 0.234786 0.123143
0.245457 0.236484 0.124110
0.382683 0.238430 0.125217
0.527155 0.240478 0.126383
0.666242 0.242450 0.127506
0.789170 0.244193 0.128498
0.889960 0.245622 0.129312
0.963501 0.246665 0.129905
0.035839 0.368541 0.125917
0.133740 0.369929 0.126707
0.253498 0.371627 0.127674
0.390724 0.373573 0.128782
0.535196 0.375621 0.129948
0.674283 0.377593 0.131071
0.797211 0.379336 0.132063
0.898001 0.380765 0.132876
0.971542 0.381808 0.133470
0.044431 0.512950 0.129726
0.142332 0.514338 0.130516
0.262090 0.516036 0.131483
0.399317 0.517982 0.132591
0.543788 0.520030 0.133757
0.682875 0.522002 0.134879
0.805803 0.523745 0.135872
0.906593 0.525174 0.136685
0.980135 0.526217 0.137279
0.052862 0.654646 0.133463
0.150763 0.656034 0.134254
0.270521 0.657732 0.135220
0.407747 0.659677 0.136328
0.552219 0.661726 0.137494
0.691306 0.663698 0.138617
0.814234 0.665441 0.139609
0.915024 0.666870 0.140422
0.988565 0.667912 0.141016
0.060473 0.782572 0.136838
0.158374 0.783960 0.137628
0.278132 0.785658 0.138594
0.415359 0.787604 0.139702
0.559830 0.789652 0.140868
0.698917 0.791624 0.141991
0.821845 0.793367 0.142983
0.922635 0.794796 0.143797
0.996177 0.795838 0.144390
0.066850 0.889743 0.139664
0.164751 0.891131 0.140454
0.284509 0.892829 0.141421
0.421735 0.894775 0.142529
0.566207 0.896823 0.143695
0.705294 0.898795 0.144818
0.828222 0.900538 0.145810
0.929012 0.901967 0.146623
1.000000 0.903010 0.147217
0.071869 0.974097 0.141889
0.169770 0.975485 0.142679
0.289528 0.977183 0.143646
0.426754 0.979129 0.144754
0.571226 0.981177 0.145920
0.710313 0.983149 0.147042
0.833241 0.984892 0.148035
0.934031 0.986321 0.148848
1.000000 0.987364 0.149442
0.015859 0.022103 0.222426
0.113760 0.023491 0.223216
0.233518 0.025189 0.224183
0.370744 0.027134 0.225291
0.515216 0.029182 0.226457
0.654303 0.031154 0.227580
0.777231 0.032897 0.228572
0.878021 0.034326 0.229385
0.951562 0.035369 0.229979
0.021512 0.117108 0.224932
0.119413 0.118496 0.225722
0.239171 0.120194 0.226689
0.376397 0.122139 0.227797
0.520868 0.124188 0.228963
0.659955 0.126160 0.230085
0.782883 0.127903 0.231078
0.883673 0.129332 0.231891
0.957215 0.130374 0.232485
0.028462 0.233915 0.228013
0.126363 0.235303 0.228803
0.246121 0.237001 0.229770
0.383347 0.238947 0.230877
0.527818 0.240995 0.232044
0.666905 0.242967 0.233166
0.789833 0.244710 0.234158
0.890623 0.246139 0.234972
0.964165 0.247182 0.235566
0.036502 0.369058 0.231577
0.134403 0.370446 0.232368
0.254161 0.372144 0.233334
0.391388 0.374090 0.234442
0.535859 0.376138 0.235608
0.674946 0.378110 0.236731
0.797874 0.379853 0.237723
0.898664 0.381282 0.238536
0.972206 0.382325 0.239130
0.045095 0.513467 0.235386
0.142996 0.514855 0.236177
0.262754 0.516553 0.237143
0.399980 0.518499 0.238251
0.544451 0.520547 0.239417
0.683538 0.522519 0.240540
0.806467 0.524262 0.241532
0.907257 0.525691 0.242345
0.980798 0.526734 0.242939
0.053526 0.655163 0.239124
0.151427 0.656551 0.239914
0.271184 0.658249 0.240880
0.408411 0.660194 0.241988
0.552882 0.662243 0.243154
0.691969 0.664215 0.244277
0.814897 0.665957 0.245269
0.915687 0.667386 0.246083
0.989229 0.668429 0.246676
0.061137 0.783089 0.242498
0.159038 0.784477 0.243288
0.278796 0.786175 0.244255
0.416022 0.788120 0.245362
0.560494 0.790169 0.246528
0.699581 0.792141 0.247651
0.822509 0.793884 0.248643
0.923299 0.795313 0.249457
0.996841 0.796355 0.250050
0.067514 0.890260 0.245324
0.165415 0.891648 0.246115
0.285173 0.893346 0.247081
0.422399 0.895291 0.248189
0.566870 0.897340 0.249355
0.705957 0.899312 0.250478
0.828885 0.901055 0.251470
0.929675 0.902484 0.252283
1.000000 0.903526 0.252877
0.072533 0.974614 0.247549
0.170434 0.976002 0.248340
0.290192 0.977700 0.249306
0.427418 0.979646 0.250414
0.571889 0.981694 0.251580
0.710976 0.983666 0.252703
0.833904 0.985409 0.253695
0.934694 0.986838 0.254508
1.000000 0.987880 0.255102
0.016631 0.022704 0.345388
0.114532 0.024092 0.346178
0.234290 0.025790 0.347145
0.371517 0.027736 0.348252
0.515988 0.029784 0.349418
0.655075 0.031756 0.350541
0.778003 0.033499 0.351533
0.878793 0.034928 0.352347
0.952335 0.035970 0.352940
0.022284 0.117709 0.347894
0.120185 0.119097 0.348684
0.239943 0.120795 0.349650
0.377169 0.122741 0.350758
0.521641 0.124789 0.351924
0.660728 0.126761 0.353047
0.783656 0.128504 0.354039
0.884446 0.129933 0.354853
0.957987 0.130976 0.355446
0.029234 0.234516 0.350974
0.127135 0.235905 0.351765
0.246893 0.237602 0.352731
0.384119 0.239548 0.353839
0.528591 0.241596 0.355005
0.667678 0.243568 0.356128
0.790606 0.245311 0.357120
0.891396 0.246740 0.357933
0.964937 0.247783 0.358527
0.037275 0.369659 0.354539
0.135176 0.371047 0.355329
0.254934 0.372745 0.356296
0.392160 0.374691 0.357403
0.536632 0.376739 0.358569
0.675718 0.378711 0.359692
0.798647 0.380454 0.360684
0.899437 0.381883 0.361498
0.972978 0.382926 0.362091
0.045867 0.514068 0.358348
0.143768 0.515456 0.359138
0.263526 0.517154 0.360105
0.400752 0.519100 0.361212
0.545224 0.521148 0.362378
0.684311 0.523120 0.363501
0.807239 0.524863 0.364493
0.908029 0.526292 0.365307
0.981570 0.527335 0.365900
0.054298 0.655764 0.362085
0.152199 0.657152 0.362875
0.271957 0.658850 0.363842
0.409183 0.660796 0.364950
0.553655 0.662844 0.366116
0.692742 0.664816 0.367238
0.815670 0.666559 0.368231
0.916460 0.667988 0.369044
0.990001 0.669030 0.369638
0.061909 0.783690 0.365459
0.159810 0.785078 0.366249
0.279568 0.786776 0.367216
0.416795 0.788722 0.368324
0.561266 0.790770 0.369490
0.700353 0.792742 0.370612
0.823281 0.794485 0.371605
0.924071 0.795914 0.372418
0.997613 0.796957 0.373012
0.068286 0.890861 0.368286
0.166187 0.892249 0.369076
0.285945 0.893947 0.370043
0.423171 0.895893 0.371150
0.567643 0.897941 0.372316
0.706730 0.899913 0.373439
0.829658 0.901656 0.374431
0.930448 0.903085 0.375245
1.000000 0.904128 0.375839
0.073305 0.975215 0.370511
0.171206 0.976603 0.371301
0.290964 0.978301 0.372268
0.428190 0.980247 0.373375
0.572662 0.982295 0.374541
0.711749 0.984267 0.375664
0.834677 0.986010 0.376656
0.935467 0.987439 0.377470
1.000000 0.988482 0.378063
0.017466 0.023354 0.478304
0.115367 0.024742 0.479094
0.235125 0.026440 0.480061
0.372351 0.028386 0.481168
0.516823 0.030434 0.482334
0.655910 0.032406 0.483457
0.778838 0.034149 0.484449
0.879628 0.035578 0.485263
0.953169 0.036620 0.485856
0.023119 0.118359 0.480810
0.121020 0.119747 0.481600
0.240778 0.121445 0.482566
0.378004 0.123391 0.483674
0.522475 0.125439 0.484840
0.661562 0.127411 0.485963
0.784491 0.129154 0.486955
0.885281 0.130583 0.487769
0.958822 0.131626 0.488362
0.030069 0.235167 0.483890
0.127970 0.236555 0.484681
0.247728 0.238252 0.485647
0.384954 0.240198 0.486755
0.529425 0.242246 0.487921
0.668512 0.244218 0.489044
0.791441 0.245961 0.490036
0.892231 0.247390 0.490849
0.965772 0.248433 0.491443
0.038110 0.370309 0.487455
0.136011 0.371698 0.488245
0.255769 0.373395 0.489212
0.392995 0.375341 0.490319
0.537466 0.377389 0.491485
0.676553 0.379361 0.492608
0.799481 0.381104 0.493600
0.900271 0.382533 0.494414
0.973813 0.383576 0.495007
0.046702 0.514718 0.491264
0.144603 0.516107 0.492054
0.264361 0.517804 0.493021
0.401587 0.519750 0.494128
0.546059 0.521798 0.495294
0.685146 0.523770 0.496417
0.808074 0.525513 0.497409
0.908864 0.526942 0.498223
0.982405 0.527985 0.498816
0.055133 0.656414 0.495001
0.153034 0.657802 0.495791
0.272792 0.659500 0.496758
0.410018 0.661446 0.497866
0.554489 0.663494 0.499032
0.693576 0.665466 0.500154
0.816504 0.667209 0.501147
0.917294 0.668638 0.501960
0.990836 0.669680 0.502554
0.062744 0.784340 0.498375
0.160645 0.785728 0.499165
0.280403 0.787426 0.500132
0.417630 0.789372 0.501240
0.562101 0.791420 0.502406
0.701188 0.793392 0.503528
0.824116 0.795135 0.504521
0.924906 0.796564 0.505334
0.998448 0.797607 0.505928
0.069121 0.891511 0.501202
0.167022 0.892899 0.501992
0.286780 0.894597 0.502959
0.424006 0.896543 0.504066
0.568477 0.898591 0.505232
0.707564 0.900563 0.506355
0.830493 0.902306 0.507347
0.931283 0.903735 0.508161
1.000000 0.904778 0.508754
0.074140 0.975865 0.503427
0.172041 0.977253 0.504217
0.291799 0.978951 0.505184
0.429025 0.980897 0.506291
0.573496 0.982945 0.507457
0.712583 0.984917 0.508580
0.835512 0.986660 0.509572
0.936302 0.988089 0.510386
1.000000 0.989132 0.510979
0.018299 0.024003 0.610923
0.116200 0.025391 0.611713
0.235958 0.027089 0.612680
0.373184 0.029034 0.613787
0.517656 0.031082 0.614953
0.656743 0.033054 0.616076
0.779671 0.034797 0.617068
0.880461 0.036226 0.617882
0.954002 0.037269 0.618475
0.023952 0.119008 0.613429
0.121853 0.120396 0.614219
0.241611 0.122094 0.615185
0.378837 0.124039 0.616293
0.523308 0.126088 0.617459
0.662395 0.128060 0.618582
0.785324 0.129803 0.619574
0.886114 0.131232 0.620388
0.959655 0.132274 0.620981
0.030902 0.235815 0.616509
0.128803 0.237203 0.617300
0.248561 0.238901 0.618266
0.385787 0.240847 0.619374
0.530258 0.242895 0.620540
0.669345 0.244867 0.621663
0.792273 0.246610 0.622655
0.893063 0.248039 0.623468
0.966605 0.249082 0.624062
0.038943 0.370958 0.620074
0.136844 0.372346 0.620864
0.256602 0.374044 0.621831
0.393828 0.375990 0.622938
0.538299 0.378038 0.624105
0.677386 0.380010 0.625227
0.800314 0.381753 0.626219
0.901104 0.383182 0.627033
0.974646 0.384224 0.627627
0.047535 0.515367 0.623883
0.145436 0.516755 0.624673
0.265194 0.518453 0.625640
0.402420 0.520399 0.626747
0.546892 0.522447 0.627913
0.685978 0.524419 0.629036
0.808907 0.526162 0.630028
0.909697 0.527591 0.630842
0.983238 0.528633 0.631435
0.055966 0.657063 0.627620
0.153867 0.658451 0.628410
0.273625 0.660149 0.629377
0.410851 0.662094 0.630485
0.555322 0.664142 0.631651
0.694409 0.666114 0.632773
0.817337 0.667857 0.633766
0.918127 0.669286 0.634579
0.991669 0.670329 0.635173
0.063577 0.784989 0.630994
0.161478 0.786377 0.631784
0.281236 0.788075 0.632751
0.418463 0.790020 0.633859
0.562934 0.792069 0.635025
0.702021 0.794041 0.636147
0.824949 0.795784 0.637140
0.925739 0.797213 0.637953
0.999281 0.798255 0.638547
0.069954 0.892160 0.633821
0.167855 0.893548 0.634611
0.287613 0.895246 0.635578
0.424839 0.897191 0.636685
0.569310 0.899240 0.637852
0.708397 0.901212 0.638974
0.831326 0.902955 0.639966
0.932116 0.904384 0.640780
1.000000 0.905426 0.641374
0.074973 0.976514 0.636046
0.172874 0.977902 0.636836
0.292632 0.979600 0.637803
0.429858 0.981546 0.638910
0.574329 0.983594 0.640076
0.713416 0.985566 0.641199
0.836345 0.987309 0.642191
0.937135 0.988738 0.643005
1.000000 0.989780 0.643598
0.019066 0.024600 0.733120
0.116967 0.025988 0.733910
0.236725 0.027686 0.734877
0.373952 0.029632 0.735984
0.518423 0.031680 0.737150
0.657510 0.033652 0.738273
0.780438 0.035395 0.739265
0.881228 0.036824 0.740079
0.954770 0.037867 0.740672
0.024719 0.119605 0.735626
0.122620 0.120993 0.736416
0.242378 0.122691 0.737382
0.379605 0.124637 0.738490
0.524076 0.126685 0.739656
0.663163 0.128657 0.740779
0.786091 0.130400 0.741771
0.886881 0.131829 0.742585
0.960423 0.132872 0.743178
0.031669 0.236413 0.738706
0.129570 0.237801 0.739497
0.249328 0.239499 0.740463
0.386555 0.241444 0.741571
0.531026 0.243493 0.742737
0.670113 0.245465 0.743860
0.793041 0.247207 0.744852
0.893831 0.248636 0.745665
0.967373 0.249679 0.746259
0.039710 0.371556 0.742271
0.137611 0.372944 0.743061
0.257369 0.374642 0.744028
0.394595 0.376587 0.745135
0.539067 0.378636 0.746302
0.678154 0.380608 0.747424
0.801082 0.382350 0.748416
0.901872 0.383779 0.749230
0.975414 0.384822 0.749824
0.048302 0.515965 0.746080
0.146203 0.517353 0.746870
0.265961 0.519051 0.747837
0.403188 0.520996 0.748944
0.547659 0.523045 0.750110
0.686746 0.525017 0.751233
0.809674 0.526759 0.752225
0.910464 0.528188 0.753039
0.984006 0.529231 0.753632
0.056733 0.657660 0.749817
0.154634 0.659048 0.750607
0.274392 0.660746 0.751574
0.411619 0.662692 0.752682
0.556090 0.664740 0.753848
0.695177 0.666712 0.754970
0.818105 0.668455 0.755963
0.918895 0.669884 0.756776
0.992437 0.670927 0.757370
0.064345 0.785586 0.753191
0.162246 0.786974 0.753981
0.282004 0.788672 0.754948
0.419230 0.790618 0.756056
0.563701 0.792666 0.757222
0.702788 0.794638 0.758345
0.825716 0.796381 0.759337
0.926506 0.797810 0.760150
1.000000 0.798853 0.760744
0.070721 0.892758 0.756018
0.168622 0.894146 0.756808
0.288380 0.895843 0.757775
0.425607 0.897789 0.758882
0.570078 0.899837 0.760049
0.709165 0.901809 0.761171
0.832093 0.903552 0.762163
0.932883 0.904981 0.762977
1.000000 0.906024 0.763571
0.075740 0.977112 0.758243
0.173641 0.978500 0.759033
0.293399 0.980198 0.760000
0.430626 0.982143 0.761107
0.575097 0.984191 0.762273
0.714184 0.986163 0.763396
0.837112 0.987906 0.764388
0.937902 0.989335 0.765202
1.000000 0.990378 0.765795
0.019724 0.025112 0.837775
0.117625 0.026500 0.838565
0.237383 0.028198 0.839532
0.374609 0.030144 0.840639
0.519080 0.032192 0.841805
0.658167 0.034164 0.842928
0.781096 0.035907 0.843920
0.881886 0.037336 0.844734
0.955427 0.038378 0.845327
0.025376 0.120117 0.840280
0.123277 0.121505 0.841071
0.243035 0.123203 0.842037
0.380262 0.125149 0.843145
0.524733 0.127197 0.844311
0.663820 0.129169 0.845434
0.786748 0.130912 0.846426
0.887538 0.132341 0.847239
0.961080 0.133384 0.847833
0.032326 0.236925 0.843361
0.130227 0.238313 0.844152
0.249985 0.240011 0.845118
0.387212 0.241956 0.846226
0.531683 0.244004 0.847392
0.670770 0.245976 0.848515
0.793698 0.247719 0.849507
0.894488 0.249148 0.850320
0.968030 0.250191 0.850914
0.040367 0.372067 0.846926
0.138268 0.373456 0.847716
0.258026 0.375153 0.848683
0.395253 0.377099 0.849790
0.539724 0.379147 0.850956
0.678811 0.381119 0.852079
0.801739 0.382862 0.853071
0.902529 0.384291 0.853885
0.976071 0.385334 0.854478
0.048960 0.516477 0.850735
0.146861 0.517865 0.851525
0.266619 0.519562 0.852492
0.403845 0.521508 0.853599
0.548316 0.523556 0.854765
0.687403 0.525528 0.855888
0.810331 0.527271 0.856880
0.911121 0.528700 0.857694
0.984663 0.529743 0.858287
0.057390 0.658172 0.854472
0.155291 0.659560 0.855262
0.275049 0.661258 0.856229
0.412276 0.663204 0.857336
0.556747 0.665252 0.858503
0.695834 0.667224 0.859625
0.818762 0.668967 0.860617
0.919552 0.670396 0.861431
0.993094 0.671438 0.862025
0.065002 0.786098 0.857846
0.162903 0.787486 0.858636
0.282661 0.789184 0.859603
0.419887 0.791130 0.860711
0.564359 0.793178 0.861877
0.703446 0.795150 0.862999
0.826374 0.796893 0.863992
0.927164 0.798322 0.864805
1.000000 0.799365 0.865399
0.071378 0.893269 0.860673
0.169279 0.894657 0.861463
0.289037 0.896355 0.862430
0.426264 0.898301 0.863537
0.570735 0.900349 0.864703
0.709822 0.902321 0.865826
0.832750 0.904064 0.866818
0.933540 0.905493 0.867632
1.000000 0.906536 0.868225
0.076397 0.977623 0.862898
0.174298 0.979011 0.863688
0.294056 0.980709 0.864655
0.431283 0.982655 0.865762
0.575754 0.984703 0.866928
0.714841 0.986675 0.868051
0.837769 0.988418 0.869043
0.938559 0.989847 0.869857
1.000000 0.990890 0.870450
0.020253 0.025524 0.921977
0.118154 0.026912 0.922767
0.237912 0.028610 0.923734
0.375138 0.030555 0.924841
0.519609 0.032604 0.926007
0.658696 0.034576 0.927130
0.781624 0.036319 0.928122
0.882414 0.037748 0.928936
0.955956 0.038790 0.929529
0.025905 0.120529 0.924483
0.123806 0.121917 0.925273
0.243564 0.123615 0.926239
0.380791 0.125561 0.927347
0.525262 0.127609 0.928513
0.664349 0.129581 0.929636
0.787277 0.131324 0.930628
0.888067 0.132753 0.931442
0.961609 0.133795 0.932035
0.032855 0.237336 0.927563
0.130756 0.238724 0.928354
0.250514 0.240422 0.929320
0.387741 0.242368 0.930428
0.532212 0.244416 0.931594
0.671299 0.246388 0.932717
0.794227 0.248131 0.933709
0.895017 0.249560 0.934522
0.968559 0.250603 0.935116
0.040896 0.372479 0.931128
0.138797 0.373867 0.931918
0.258555 0.375565 0.932885
0.395782 0.377511 0.933992
0.540253 0.379559 0.935158
0.679340 0.381531 0.936281
0.802268 0.383274 0.937273
0.903058 0.384703 0.938087
0.976600 0.385746 0.938680
0.049488 0.516888 0.934937
0.147389 0.518276 0.935727
0.267147 0.519974 0.936694
0.404374 0.521920 0.937801
0.548845 0.523968 0.938967
0.687932 0.525940 0.940090
0.810860 0.527683 0.941082
0.911650 0.529112 0.941896
0.985192 0.530155 0.942489
0.057919 0.658584 0.938674
0.155820 0.659972 0.939464
0.275578 0.661670 0.940431
0.412805 0.663615 0.941539
0.557276 0.665664 0.942705
0.696363 0.667636 0.943827
0.819291 0.669379 0.944820
0.920081 0.670808 0.945633
0.993623 0.671850 0.946227
0.065531 0.786510 0.942048
0.163432 0.787898 0.942838
0.283190 0.789596 0.943805
0.420416 0.791542 0.944913
0.564887 0.793590 0.946079
0.703974 0.795562 0.947201
0.826903 0.797305 0.948194
0.927693 0.798734 0.949007
1.000000 0.799776 0.949601
0.071907 0.893681 0.944875
0.169808 0.895069 0.945665
0.289566 0.896767 0.946632
0.426793 0.898713 0.947739
0.571264 0.900761 0.948905
0.710351 0.902733 0.950028
0.833279 0.904476 0.951020
0.934069 0.905905 0.951834
1.000000 0.906948 0.952427
0.076926 0.978035 0.947100
0.174827 0.979423 0.947890
0.294585 0.981121 0.948857
0.431812 0.983067 0.949964
0.576283 0.985115 0.951130
0.715370 0.987087 0.952253
0.838298 0.988830 0.953245
0.939088 0.990259 0.954059
1.000000 0.991302 0.954652
