render-worker/luts/mls.cube
# Generated by render-worker/scripts/generate-luts.mjs
# Do not hand-edit — re-run the script and let math win.
TITLE "EstateMotion MLS Clean — Rec.709 neutral (compliance-safe)"
LUT_3D_SIZE 5
DOMAIN_MIN 0.0 0.0 0.0
DOMAIN_MAX 1.0 1.0 1.0
0.005547 0.005547 0.005547
0.269257 0.003904 0.003904
0.526287 0.002303 0.002303
0.780720 0.000717 0.000717
1.000000 0.000000 0.000000
0.000047 0.264109 0.000047
0.263756 0.262466 0.000000
0.520786 0.260864 0.000000
0.775219 0.259279 0.000000
1.000000 0.257766 0.000000
0.000000 0.516123 0.000000
0.258394 0.514480 0.000000
0.515425 0.512879 0.000000
0.769858 0.511294 0.000000
1.000000 0.509781 0.000000
0.000000 0.765592 0.000000
0.253087 0.763949 0.000000
0.510117 0.762348 0.000000
0.764551 0.760762 0.000000
1.000000 0.759250 0.000000
0.000000 1.000000 0.000000
0.247920 1.000000 0.000000
0.504950 1.000000 0.000000
0.759383 1.000000 0.000000
1.000000 1.000000 0.000000
0.004998 0.004998 0.266479
0.268707 0.003354 0.264836
0.525737 0.001753 0.263235
0.780170 0.000168 0.261649
1.000000 0.000000 0.260137
0.000000 0.263559 0.260979
0.263206 0.261916 0.259336
0.520236 0.260314 0.257734
0.774670 0.258729 0.256149
1.000000 0.257216 0.254636
0.000000 0.515574 0.255617
0.257845 0.513930 0.253974
0.514875 0.512329 0.252373
0.769308 0.510744 0.250787
1.000000 0.509231 0.249275
0.000000 0.765042 0.250310
0.252537 0.763399 0.248667
0.509567 0.761798 0.247065
0.764001 0.760212 0.245480
1.000000 0.758700 0.243967
0.000000 1.000000 0.245142
0.247370 1.000000 0.243499
0.504400 1.000000 0.241898
0.758833 1.000000 0.240312
1.000000 1.000000 0.238800
0.004462 0.004462 0.520808
0.268171 0.002818 0.519165
0.525201 0.001217 0.517563
0.779634 0.000000 0.515978
1.000000 0.000000 0.514465
0.000000 0.263023 0.515307
0.262670 0.261380 0.513664
0.519700 0.259778 0.512062
0.774134 0.258193 0.510477
1.000000 0.256681 0.508964
0.000000 0.515038 0.509946
0.257309 0.513395 0.508303
0.514339 0.511793 0.506701
0.768772 0.510208 0.505116
1.000000 0.508695 0.503603
0.000000 0.764506 0.504638
0.252001 0.762863 0.502995
0.509031 0.761262 0.501394
0.763465 0.759676 0.499808
1.000000 0.758164 0.498296
0.000000 1.000000 0.499471
0.246834 1.000000 0.497828
0.503864 1.000000 0.496226
0.758297 1.000000 0.494641
1.000000 1.000000 0.493128
0.003931 0.003931 0.772567
0.267640 0.002288 0.770924
0.524670 0.000686 0.769323
0.779104 0.000000 0.767737
1.000000 0.000000 0.766225
0.000000 0.262493 0.767067
0.262139 0.260849 0.765423
0.519170 0.259248 0.763822
0.773603 0.257663 0.762237
1.000000 0.256150 0.760724
0.000000 0.514507 0.761705
0.256778 0.512864 0.760062
0.513808 0.511262 0.758460
0.768242 0.509677 0.756875
1.000000 0.508164 0.755362
0.000000 0.763976 0.756398
0.251471 0.762333 0.754755
0.508501 0.760731 0.753153
0.762934 0.759146 0.751568
1.000000 0.757633 0.750055
0.000000 1.000000 0.751230
0.246303 1.000000 0.749587
0.503333 1.000000 0.747986
0.757767 1.000000 0.746400
1.000000 1.000000 0.744888
0.003404 0.003404 1.000000
0.267113 0.001761 1.000000
0.524143 0.000159 1.000000
0.778577 0.000000 1.000000
1.000000 0.000000 1.000000
0.000000 0.261966 1.000000
0.261612 0.260322 1.000000
0.518642 0.258721 1.000000
0.773076 0.257136 1.000000
1.000000 0.255623 1.000000
0.000000 0.513980 1.000000
0.256251 0.512337 1.000000
0.513281 0.510735 1.000000
0.767715 0.509150 1.000000
1.000000 0.507637 1.000000
0.000000 0.763449 1.000000
0.250944 0.761806 1.000000
0.507974 0.760204 1.000000
0.762407 0.758619 1.000000
1.000000 0.757106 1.000000
0.000000 1.000000 1.000000
0.245776 1.000000 0.999686
0.502806 1.000000 0.998085
0.757240 1.000000 0.996499
1.000000 1.000000 0.994987
