render-worker/luts/mls.cube
# Generated by render-worker/scripts/generate-luts.mjs
# Do not hand-edit — re-run the script and let math win.
TITLE "EstateMotion MLS Clean — Rec.709 neutral (compliance-safe)"
LUT_3D_SIZE 9
DOMAIN_MIN 0.0 0.0 0.0
DOMAIN_MAX 1.0 1.0 1.0
0.005547 0.005547 0.005547
0.139017 0.004716 0.004716
0.269257 0.003904 0.003904
0.398194 0.003101 0.003101
0.526287 0.002303 0.002303
0.653753 0.001509 0.001509
0.780720 0.000717 0.000717
0.907274 0.000000 0.000000
1.000000 0.000000 0.000000
0.002763 0.136411 0.002763
0.136233 0.135580 0.001932
0.266472 0.134768 0.001120
0.395410 0.133965 0.000317
0.523503 0.133167 0.000000
0.650968 0.132373 0.000000
0.777936 0.131581 0.000000
0.904490 0.130793 0.000000
1.000000 0.130069 0.000000
0.000047 0.264109 0.000047
0.133517 0.263277 0.000000
0.263756 0.262466 0.000000
0.392693 0.261662 0.000000
0.520786 0.260864 0.000000
0.648252 0.260070 0.000000
0.775219 0.259279 0.000000
0.901774 0.258490 0.000000
1.000000 0.257766 0.000000
0.000000 0.390530 0.000000
0.130827 0.389699 0.000000
0.261066 0.388887 0.000000
0.390004 0.388084 0.000000
0.518096 0.387286 0.000000
0.645562 0.386491 0.000000
0.772530 0.385700 0.000000
0.899084 0.384912 0.000000
1.000000 0.384188 0.000000
0.000000 0.516123 0.000000
0.128155 0.515292 0.000000
0.258394 0.514480 0.000000
0.387332 0.513677 0.000000
0.515425 0.512879 0.000000
0.642890 0.512085 0.000000
0.769858 0.511294 0.000000
0.896412 0.510505 0.000000
1.000000 0.509781 0.000000
0.000000 0.641102 0.000000
0.125496 0.640271 0.000000
0.255736 0.639459 0.000000
0.384673 0.638656 0.000000
0.512766 0.637858 0.000000
0.640232 0.637063 0.000000
0.767199 0.636272 0.000000
0.893753 0.635484 0.000000
1.000000 0.634760 0.000000
0.000000 0.765592 0.000000
0.122848 0.764761 0.000000
0.253087 0.763949 0.000000
0.382025 0.763146 0.000000
0.510117 0.762348 0.000000
0.637583 0.761553 0.000000
0.764551 0.760762 0.000000
0.891105 0.759974 0.000000
1.000000 0.759250 0.000000
0.000000 0.889677 0.000000
0.120208 0.888845 0.000000
0.250447 0.888034 0.000000
0.379385 0.887231 0.000000
0.507477 0.886432 0.000000
0.634943 0.885638 0.000000
0.761911 0.884847 0.000000
0.888465 0.884059 0.000000
1.000000 0.883334 0.000000
0.000000 1.000000 0.000000
0.117680 1.000000 0.000000
0.247920 1.000000 0.000000
0.376857 1.000000 0.000000
0.504950 1.000000 0.000000
0.632416 1.000000 0.000000
0.759383 1.000000 0.000000
0.885937 1.000000 0.000000
1.000000 1.000000 0.000000
0.005269 0.005269 0.137610
0.138739 0.004437 0.136778
0.268978 0.003626 0.135967
0.397916 0.002823 0.135163
0.526008 0.002024 0.134365
0.653474 0.001230 0.133571
0.780442 0.000439 0.132780
0.906996 0.000000 0.131991
1.000000 0.000000 0.131267
0.002485 0.136133 0.134826
0.135955 0.135301 0.133994
0.266194 0.134490 0.133183
0.395132 0.133687 0.132379
0.523224 0.132888 0.131581
0.650690 0.132094 0.130787
0.777658 0.131303 0.129996
0.904212 0.130515 0.129207
1.000000 0.129791 0.128483
0.000000 0.263831 0.132109
0.133238 0.262999 0.131278
0.263478 0.262188 0.130466
0.392415 0.261384 0.129663
0.520508 0.260586 0.128865
0.647974 0.259792 0.128070
0.774941 0.259001 0.127279
0.901495 0.258212 0.126491
1.000000 0.257488 0.125767
0.000000 0.390252 0.129420
0.130549 0.389420 0.128588
0.260788 0.388609 0.127776
0.389725 0.387806 0.126973
0.517818 0.387007 0.126175
0.645284 0.386213 0.125381
0.772252 0.385422 0.124590
0.898806 0.384634 0.123801
1.000000 0.383909 0.123077
0.000000 0.515845 0.126748
0.127877 0.515014 0.125916
0.258116 0.514202 0.125105
0.387054 0.513399 0.124301
0.515146 0.512601 0.123503
0.642612 0.511806 0.122709
0.769580 0.511015 0.121918
0.896134 0.510227 0.121129
1.000000 0.509503 0.120405
0.000000 0.640824 0.124089
0.125218 0.639992 0.123257
0.255457 0.639181 0.122446
0.384395 0.638377 0.121642
0.512487 0.637579 0.120844
0.639953 0.636785 0.120050
0.766921 0.635994 0.119259
0.893475 0.635205 0.118470
1.000000 0.634481 0.117746
0.000000 0.765314 0.121440
0.122570 0.764482 0.120609
0.252809 0.763671 0.119797
0.381746 0.762867 0.118994
0.509839 0.762069 0.118196
0.637305 0.761275 0.117402
0.764272 0.760484 0.116610
0.890827 0.759695 0.115822
1.000000 0.758971 0.115098
0.000000 0.889399 0.118801
0.119930 0.888567 0.117969
0.250169 0.887756 0.117158
0.379106 0.886952 0.116354
0.507199 0.886154 0.115556
0.634665 0.885360 0.114762
0.761633 0.884569 0.113971
0.888187 0.883780 0.113182
1.000000 0.883056 0.112458
0.000000 1.000000 0.116273
0.117402 1.000000 0.115441
0.247641 1.000000 0.114630
0.376579 1.000000 0.113826
0.504671 1.000000 0.113028
0.632137 1.000000 0.112234
0.759105 1.000000 0.111443
0.885659 1.000000 0.110654
1.000000 1.000000 0.109930
0.004998 0.004998 0.266479
0.138468 0.004166 0.265648
0.268707 0.003354 0.264836
0.397644 0.002551 0.264033
0.525737 0.001753 0.263235
0.653203 0.000959 0.262441
0.780170 0.000168 0.261649
0.906724 0.000000 0.260861
1.000000 0.000000 0.260137
0.002213 0.135862 0.263695
0.135683 0.135030 0.262864
0.265923 0.134218 0.262052
0.394860 0.133415 0.261249
0.522953 0.132617 0.260451
0.650419 0.131823 0.259657
0.777386 0.131032 0.258865
0.903940 0.130243 0.258077
1.000000 0.129519 0.257353
0.000000 0.263559 0.260979
0.132967 0.262727 0.260147
0.263206 0.261916 0.259336
0.392143 0.261113 0.258532
0.520236 0.260314 0.257734
0.647702 0.259520 0.256940
0.774670 0.258729 0.256149
0.901224 0.257941 0.255360
1.000000 0.257216 0.254636
0.000000 0.389980 0.258289
0.130277 0.389149 0.257458
0.260516 0.388337 0.256646
0.389454 0.387534 0.255843
0.517547 0.386736 0.255045
0.645012 0.385942 0.254250
0.771980 0.385151 0.253459
0.898534 0.384362 0.252671
1.000000 0.383638 0.251947
0.000000 0.515574 0.255617
0.127605 0.514742 0.254786
0.257845 0.513930 0.253974
0.386782 0.513127 0.253171
0.514875 0.512329 0.252373
0.642341 0.511535 0.251578
0.769308 0.510744 0.250787
0.895862 0.509955 0.249999
1.000000 0.509231 0.249275
0.000000 0.640552 0.252958
0.124947 0.639721 0.252127
0.255186 0.638909 0.251315
0.384123 0.638106 0.250512
0.512216 0.637308 0.249714
0.639682 0.636513 0.248920
0.766649 0.635722 0.248129
0.893204 0.634934 0.247340
1.000000 0.634210 0.246616
0.000000 0.765042 0.250310
0.122298 0.764211 0.249478
0.252537 0.763399 0.248667
0.381475 0.762596 0.247864
0.509567 0.761798 0.247065
0.637033 0.761004 0.246271
0.764001 0.760212 0.245480
0.890555 0.759424 0.244692
1.000000 0.758700 0.243967
0.000000 0.889127 0.247670
0.119658 0.888296 0.246839
0.249897 0.887484 0.246027
0.378835 0.886681 0.245224
0.506928 0.885883 0.244426
0.634393 0.885088 0.243631
0.761361 0.884297 0.242840
0.887915 0.883509 0.242052
1.000000 0.882785 0.241328
0.000000 1.000000 0.245142
0.117131 1.000000 0.244311
0.247370 1.000000 0.243499
0.376307 1.000000 0.242696
0.504400 1.000000 0.241898
0.631866 1.000000 0.241104
0.758833 1.000000 0.240312
0.885387 1.000000 0.239524
1.000000 1.000000 0.238800
0.004729 0.004729 0.394061
0.138199 0.003897 0.393230
0.268438 0.003086 0.392418
0.397375 0.002282 0.391615
0.525468 0.001484 0.390817
0.652934 0.000690 0.390023
0.779901 0.000000 0.389231
0.906456 0.000000 0.388443
1.000000 0.000000 0.387719
0.001945 0.135593 0.391277
0.135415 0.134761 0.390446
0.265654 0.133950 0.389634
0.394591 0.133146 0.388831
0.522684 0.132348 0.388033
0.650150 0.131554 0.387239
0.777117 0.130763 0.386447
0.903672 0.129974 0.385659
1.000000 0.129250 0.384935
0.000000 0.263290 0.388561
0.132698 0.262459 0.387729
0.262937 0.261647 0.386918
0.391875 0.260844 0.386114
0.519967 0.260046 0.385316
0.647433 0.259251 0.384522
0.774401 0.258460 0.383731
0.900955 0.257672 0.382942
1.000000 0.256948 0.382218
0.000000 0.389712 0.385871
0.130008 0.388880 0.385040
0.260248 0.388068 0.384228
0.389185 0.387265 0.383425
0.517278 0.386467 0.382627
0.644744 0.385673 0.381832
0.771711 0.384882 0.381041
0.898265 0.384093 0.380253
1.000000 0.383369 0.379529
0.000000 0.515305 0.383199
0.127337 0.514473 0.382368
0.257576 0.513662 0.381556
0.386513 0.512858 0.380753
0.514606 0.512060 0.379955
0.642072 0.511266 0.379160
0.769039 0.510475 0.378369
0.895593 0.509686 0.377581
1.000000 0.508962 0.376857
0.000000 0.640283 0.380541
0.124678 0.639452 0.379709
0.254917 0.638640 0.378897
0.383854 0.637837 0.378094
0.511947 0.637039 0.377296
0.639413 0.636245 0.376502
0.766380 0.635453 0.375711
0.892935 0.634665 0.374922
1.000000 0.633941 0.374198
0.000000 0.764774 0.377892
0.122029 0.763942 0.377060
0.252268 0.763130 0.376249
0.381206 0.762327 0.375446
0.509299 0.761529 0.374647
0.636764 0.760735 0.373853
0.763732 0.759944 0.373062
0.890286 0.759155 0.372274
1.000000 0.758431 0.371549
0.000000 0.888858 0.375252
0.119389 0.888027 0.374421
0.249629 0.887215 0.373609
0.378566 0.886412 0.372806
0.506659 0.885614 0.372008
0.634125 0.884819 0.371213
0.761092 0.884028 0.370422
0.887646 0.883240 0.369634
1.000000 0.882516 0.368910
0.000000 1.000000 0.372724
0.116862 1.000000 0.371893
0.247101 1.000000 0.371081
0.376038 1.000000 0.370278
0.504131 1.000000 0.369480
0.631597 1.000000 0.368686
0.758564 1.000000 0.367895
0.885119 1.000000 0.367106
1.000000 1.000000 0.366382
0.004462 0.004462 0.520808
0.137932 0.003630 0.519976
0.268171 0.002818 0.519165
0.397108 0.002015 0.518361
0.525201 0.001217 0.517563
0.652667 0.000423 0.516769
0.779634 0.000000 0.515978
0.906189 0.000000 0.515189
1.000000 0.000000 0.514465
0.001678 0.135326 0.518024
0.135148 0.134494 0.517192
0.265387 0.133682 0.516381
0.394324 0.132879 0.515577
0.522417 0.132081 0.514779
0.649883 0.131287 0.513985
0.776850 0.130496 0.513194
0.903404 0.129707 0.512405
1.000000 0.128983 0.511681
0.000000 0.263023 0.515307
0.132431 0.262191 0.514475
0.262670 0.261380 0.513664
0.391607 0.260577 0.512861
0.519700 0.259778 0.512062
0.647166 0.258984 0.511268
0.774134 0.258193 0.510477
0.900688 0.257405 0.509689
1.000000 0.256681 0.508964
0.000000 0.389445 0.512618
0.129741 0.388613 0.511786
0.259980 0.387801 0.510974
0.388918 0.386998 0.510171
0.517011 0.386200 0.509373
0.644476 0.385406 0.508579
0.771444 0.384615 0.507788
0.897998 0.383826 0.506999
1.000000 0.383102 0.506275
0.000000 0.515038 0.509946
0.127069 0.514206 0.509114
0.257309 0.513395 0.508303
0.386246 0.512591 0.507499
0.514339 0.511793 0.506701
0.641805 0.510999 0.505907
0.768772 0.510208 0.505116
0.895326 0.509419 0.504327
1.000000 0.508695 0.503603
0.000000 0.640016 0.507287
0.124411 0.639185 0.506455
0.254650 0.638373 0.505644
0.383587 0.637570 0.504840
0.511680 0.636772 0.504042
0.639146 0.635977 0.503248
0.766113 0.635186 0.502457
0.892668 0.634398 0.501668
1.000000 0.633674 0.500944
0.000000 0.764506 0.504638
0.121762 0.763675 0.503807
0.252001 0.762863 0.502995
0.380939 0.762060 0.502192
0.509031 0.761262 0.501394
0.636497 0.760468 0.500600
0.763465 0.759676 0.499808
0.890019 0.758888 0.499020
1.000000 0.758164 0.498296
0.000000 0.888591 0.501999
0.119122 0.887760 0.501167
0.249362 0.886948 0.500355
0.378299 0.886145 0.499552
0.506392 0.885347 0.498754
0.633858 0.884552 0.497960
0.760825 0.883761 0.497169
0.887379 0.882973 0.496380
1.000000 0.882249 0.495656
0.000000 1.000000 0.499471
0.116595 1.000000 0.498639
0.246834 1.000000 0.497828
0.375771 1.000000 0.497024
0.503864 1.000000 0.496226
0.631330 1.000000 0.495432
0.758297 1.000000 0.494641
0.884852 1.000000 0.493852
1.000000 1.000000 0.493128
0.004196 0.004196 0.646934
0.137666 0.003364 0.646102
0.267905 0.002553 0.645291
0.396842 0.001749 0.644487
0.524935 0.000951 0.643689
0.652401 0.000157 0.642895
0.779369 0.000000 0.642104
0.905923 0.000000 0.641315
1.000000 0.000000 0.640591
0.001412 0.135060 0.644150
0.134882 0.134228 0.643318
0.265121 0.133417 0.642507
0.394058 0.132613 0.641703
0.522151 0.131815 0.640905
0.649617 0.131021 0.640111
0.776584 0.130230 0.639320
0.903139 0.129441 0.638531
1.000000 0.128717 0.637807
0.000000 0.262757 0.641433
0.132165 0.261926 0.640602
0.262404 0.261114 0.639790
0.391342 0.260311 0.638987
0.519434 0.259513 0.638189
0.646900 0.258718 0.637394
0.773868 0.257927 0.636603
0.900422 0.257139 0.635815
1.000000 0.256415 0.635091
0.000000 0.389179 0.638744
0.129476 0.388347 0.637912
0.259715 0.387536 0.637101
0.388652 0.386732 0.636297
0.516745 0.385934 0.635499
0.644211 0.385140 0.634705
0.771178 0.384349 0.633914
0.897732 0.383560 0.633125
1.000000 0.382836 0.632401
0.000000 0.514772 0.636072
0.126804 0.513940 0.635240
0.257043 0.513129 0.634429
0.385980 0.512325 0.633625
0.514073 0.511527 0.632827
0.641539 0.510733 0.632033
0.768506 0.509942 0.631242
0.895061 0.509153 0.630453
1.000000 0.508429 0.629729
0.000000 0.639751 0.633413
0.124145 0.638919 0.632581
0.254384 0.638107 0.631770
0.383321 0.637304 0.630967
0.511414 0.636506 0.630168
0.638880 0.635712 0.629374
0.765848 0.634921 0.628583
0.892402 0.634132 0.627795
1.000000 0.633408 0.627070
0.000000 0.764241 0.630765
0.121496 0.763409 0.629933
0.251736 0.762598 0.629121
0.380673 0.761794 0.628318
0.508766 0.760996 0.627520
0.636232 0.760202 0.626726
0.763199 0.759411 0.625935
0.889753 0.758622 0.625146
1.000000 0.757898 0.624422
0.000000 0.888325 0.628125
0.118857 0.887494 0.627293
0.249096 0.886682 0.626482
0.378033 0.885879 0.625678
0.506126 0.885081 0.624880
0.633592 0.884287 0.624086
0.760559 0.883495 0.623295
0.887114 0.882707 0.622506
1.000000 0.881983 0.621782
0.000000 1.000000 0.625597
0.116329 1.000000 0.624765
0.246568 1.000000 0.623954
0.375505 1.000000 0.623150
0.503598 1.000000 0.622352
0.631064 1.000000 0.621558
0.758032 1.000000 0.620767
0.884586 1.000000 0.619979
1.000000 1.000000 0.619254
0.003931 0.003931 0.772567
0.137401 0.003099 0.771736
0.267640 0.002288 0.770924
0.396578 0.001485 0.770121
0.524670 0.000686 0.769323
0.652136 0.000000 0.768528
0.779104 0.000000 0.767737
0.905658 0.000000 0.766949
1.000000 0.000000 0.766225
0.001147 0.134795 0.769783
0.134617 0.133963 0.768952
0.264856 0.133152 0.768140
0.393794 0.132349 0.767337
0.521886 0.131550 0.766539
0.649352 0.130756 0.765744
0.776320 0.129965 0.764953
0.902874 0.129177 0.764165
1.000000 0.128452 0.763441
0.000000 0.262493 0.767067
0.131900 0.261661 0.766235
0.262139 0.260849 0.765423
0.391077 0.260046 0.764620
0.519170 0.259248 0.763822
0.646635 0.258454 0.763028
0.773603 0.257663 0.762237
0.900157 0.256874 0.761448
1.000000 0.256150 0.760724
0.000000 0.388914 0.764377
0.129211 0.388082 0.763545
0.259450 0.387271 0.762734
0.388387 0.386467 0.761930
0.516480 0.385669 0.761132
0.643946 0.384875 0.760338
0.770914 0.384084 0.759547
0.897468 0.383295 0.758759
1.000000 0.382571 0.758034
0.000000 0.514507 0.761705
0.126539 0.513675 0.760873
0.256778 0.512864 0.760062
0.385715 0.512061 0.759259
0.513808 0.511262 0.758460
0.641274 0.510468 0.757666
0.768242 0.509677 0.756875
0.894796 0.508889 0.756087
1.000000 0.508164 0.755362
0.000000 0.639486 0.759046
0.123880 0.638654 0.758215
0.254119 0.637843 0.757403
0.383057 0.637039 0.756600
0.511149 0.636241 0.755802
0.638615 0.635447 0.755007
0.765583 0.634656 0.754216
0.892137 0.633867 0.753428
1.000000 0.633143 0.752704
0.000000 0.763976 0.756398
0.121232 0.763144 0.755566
0.251471 0.762333 0.754755
0.380408 0.761529 0.753951
0.508501 0.760731 0.753153
0.635967 0.759937 0.752359
0.762934 0.759146 0.751568
0.889489 0.758357 0.750779
1.000000 0.757633 0.750055
0.000000 0.888061 0.753758
0.118592 0.887229 0.752926
0.248831 0.886418 0.752115
0.377768 0.885614 0.751312
0.505861 0.884816 0.750513
0.633327 0.884022 0.749719
0.760295 0.883231 0.748928
0.886849 0.882442 0.748140
1.000000 0.881718 0.747415
0.000000 1.000000 0.751230
0.116064 1.000000 0.750399
0.246303 1.000000 0.749587
0.375241 1.000000 0.748784
0.503333 1.000000 0.747986
0.630799 1.000000 0.747191
0.757767 1.000000 0.746400
0.884321 1.000000 0.745612
1.000000 1.000000 0.744888
0.003667 0.003667 0.897791
0.137137 0.002835 0.896960
0.267376 0.002024 0.896148
0.396314 0.001221 0.895345
0.524406 0.000422 0.894547
0.651872 0.000000 0.893753
0.778840 0.000000 0.892961
0.905394 0.000000 0.892173
1.000000 0.000000 0.891449
0.000883 0.134531 0.895007
0.134353 0.133700 0.894176
0.264592 0.132888 0.893364
0.393530 0.132085 0.892561
0.521622 0.131287 0.891763
0.649088 0.130492 0.890969
0.776056 0.129701 0.890177
0.902610 0.128913 0.889389
1.000000 0.128189 0.888665
0.000000 0.262229 0.892291
0.131636 0.261397 0.891459
0.261876 0.260586 0.890648
0.390813 0.259782 0.889844
0.518906 0.258984 0.889046
0.646372 0.258190 0.888252
0.773339 0.257399 0.887461
0.899893 0.256610 0.886672
1.000000 0.255886 0.885948
0.000000 0.388650 0.889601
0.128947 0.387818 0.888770
0.259186 0.387007 0.887958
0.388123 0.386204 0.887155
0.516216 0.385405 0.886357
0.643682 0.384611 0.885562
0.770650 0.383820 0.884771
0.897204 0.383032 0.883983
1.000000 0.382307 0.883259
0.000000 0.514243 0.886929
0.126275 0.513412 0.886098
0.256514 0.512600 0.885286
0.385452 0.511797 0.884483
0.513544 0.510999 0.883685
0.641010 0.510204 0.882890
0.767978 0.509413 0.882099
0.894532 0.508625 0.881311
1.000000 0.507901 0.880587
0.000000 0.639222 0.884270
0.123616 0.638390 0.883439
0.253855 0.637579 0.882627
0.382793 0.636775 0.881824
0.510885 0.635977 0.881026
0.638351 0.635183 0.880232
0.765319 0.634392 0.879441
0.891873 0.633603 0.878652
1.000000 0.632879 0.877928
0.000000 0.763712 0.881622
0.120968 0.762880 0.880790
0.251207 0.762069 0.879979
0.380144 0.761265 0.879176
0.508237 0.760467 0.878377
0.635703 0.759673 0.877583
0.762671 0.758882 0.876792
0.889225 0.758094 0.876004
1.000000 0.757369 0.875279
0.000000 0.887797 0.878982
0.118328 0.886965 0.878151
0.248567 0.886154 0.877339
0.377505 0.885350 0.876536
0.505597 0.884552 0.875738
0.633063 0.883758 0.874943
0.760031 0.882967 0.874152
0.886585 0.882178 0.873364
1.000000 0.881454 0.872640
0.000000 1.000000 0.876454
0.115800 1.000000 0.875623
0.246039 1.000000 0.874811
0.374977 1.000000 0.874008
0.503069 1.000000 0.873210
0.630535 1.000000 0.872416
0.757503 1.000000 0.871624
0.884057 1.000000 0.870836
1.000000 1.000000 0.870112
0.003404 0.003404 1.000000
0.136874 0.002572 1.000000
0.267113 0.001761 1.000000
0.396051 0.000957 1.000000
0.524143 0.000159 1.000000
0.651609 0.000000 1.000000
0.778577 0.000000 1.000000
0.905131 0.000000 1.000000
1.000000 0.000000 1.000000
0.000620 0.134268 1.000000
0.134090 0.133436 1.000000
0.264329 0.132625 1.000000
0.393266 0.131822 1.000000
0.521359 0.131023 1.000000
0.648825 0.130229 1.000000
0.775793 0.129438 1.000000
0.902347 0.128650 1.000000
1.000000 0.127925 1.000000
0.000000 0.261966 1.000000
0.131373 0.261134 1.000000
0.261612 0.260322 1.000000
0.390550 0.259519 1.000000
0.518642 0.258721 1.000000
0.646108 0.257927 1.000000
0.773076 0.257136 1.000000
0.899630 0.256347 1.000000
1.000000 0.255623 1.000000
0.000000 0.388387 1.000000
0.128684 0.387555 1.000000
0.258923 0.386744 1.000000
0.387860 0.385940 1.000000
0.515953 0.385142 1.000000
0.643419 0.384348 1.000000
0.770387 0.383557 1.000000
0.896941 0.382768 1.000000
1.000000 0.382044 1.000000
0.000000 0.513980 1.000000
0.126012 0.513148 1.000000
0.256251 0.512337 1.000000
0.385188 0.511534 1.000000
0.513281 0.510735 1.000000
0.640747 0.509941 1.000000
0.767715 0.509150 1.000000
0.894269 0.508362 1.000000
1.000000 0.507637 1.000000
0.000000 0.638959 1.000000
0.123353 0.638127 1.000000
0.253592 0.637316 1.000000
0.382530 0.636512 1.000000
0.510622 0.635714 1.000000
0.638088 0.634920 1.000000
0.765056 0.634129 1.000000
0.891610 0.633340 1.000000
1.000000 0.632616 1.000000
0.000000 0.763449 1.000000
0.120705 0.762617 1.000000
0.250944 0.761806 1.000000
0.379881 0.761002 1.000000
0.507974 0.760204 1.000000
0.635440 0.759410 1.000000
0.762407 0.758619 1.000000
0.888962 0.757830 1.000000
1.000000 0.757106 1.000000
0.000000 0.887534 1.000000
0.118065 0.886702 1.000000
0.248304 0.885890 1.000000
0.377241 0.885087 1.000000
0.505334 0.884289 1.000000
0.632800 0.883495 0.999818
0.759768 0.882704 0.999027
0.886322 0.881915 0.998238
1.000000 0.881191 0.997514
0.000000 1.000000 1.000000
0.115537 1.000000 1.000000
0.245776 1.000000 0.999686
0.374714 1.000000 0.998883
0.502806 1.000000 0.998085
0.630272 1.000000 0.997290
0.757240 1.000000 0.996499
0.883794 1.000000 0.995711
1.000000 1.000000 0.994987
