render-worker/luts/mls.cube
# Generated by render-worker/scripts/generate-luts.mjs
# Do not hand-edit — re-run the script and let math win.
TITLE "EstateMotion MLS Clean — Rec.709 neutral (compliance-safe)"
LUT_3D_SIZE 17
DOMAIN_MIN 0.0 0.0 0.0
DOMAIN_MAX 1.0 1.0 1.0
0.005547 0.005547 0.005547
0.073041 0.005127 0.005127
0.139017 0.004716 0.004716
0.204348 0.004309 0.004309
0.269257 0.003904 0.003904
0.333850 0.003502 0.003502
0.398194 0.003101 0.003101
0.462329 0.002701 0.002701
0.526287 0.002303 0.002303
0.590089 0.001905 0.001905
0.653753 0.001509 0.001509
0.717293 0.001113 0.001113
0.780720 0.000717 0.000717
0.844045 0.000323 0.000323
0.907274 0.000000 0.000000
0.970416 0.000000 0.000000
1.000000 0.000000 0.000000
0.004140 0.071723 0.004140
0.071633 0.071302 0.003719
0.137610 0.070891 0.003308
0.202940 0.070484 0.002901
0.267849 0.070080 0.002496
0.332443 0.069677 0.002094
0.396786 0.069276 0.001693
0.460921 0.068877 0.001293
0.524879 0.068478 0.000895
0.588681 0.068081 0.000497
0.652345 0.067684 0.000101
0.715885 0.067288 0.000000
0.779312 0.066893 0.000000
0.842637 0.066498 0.000000
0.905867 0.066104 0.000000
0.969008 0.065711 0.000000
1.000000 0.065380 0.000000
0.002763 0.136411 0.002763
0.070257 0.135991 0.002343
0.136233 0.135580 0.001932
0.201564 0.135173 0.001525
0.266472 0.134768 0.001120
0.331066 0.134366 0.000718
0.395410 0.133965 0.000317
0.459545 0.133565 0.000000
0.523503 0.133167 0.000000
0.587304 0.132769 0.000000
0.650968 0.132373 0.000000
0.714509 0.131977 0.000000
0.777936 0.131581 0.000000
0.841261 0.131187 0.000000
0.904490 0.130793 0.000000
0.967632 0.130400 0.000000
1.000000 0.130069 0.000000
0.001401 0.200467 0.001401
0.068894 0.200047 0.000980
0.134871 0.199636 0.000569
0.200201 0.199229 0.000162
0.265110 0.198824 0.000000
0.329704 0.198422 0.000000
0.394047 0.198021 0.000000
0.458183 0.197621 0.000000
0.522140 0.197223 0.000000
0.585942 0.196825 0.000000
0.649606 0.196428 0.000000
0.713146 0.196032 0.000000
0.776573 0.195637 0.000000
0.839898 0.195243 0.000000
0.903128 0.194849 0.000000
0.966269 0.194455 0.000000
1.000000 0.194125 0.000000
0.000047 0.264109 0.000047
0.067540 0.263688 0.000000
0.133517 0.263277 0.000000
0.198847 0.262870 0.000000
0.263756 0.262466 0.000000
0.328350 0.262063 0.000000
0.392693 0.261662 0.000000
0.456829 0.261263 0.000000
0.520786 0.260864 0.000000
0.584588 0.260467 0.000000
0.648252 0.260070 0.000000
0.711792 0.259674 0.000000
0.775219 0.259279 0.000000
0.838544 0.258884 0.000000
0.901774 0.258490 0.000000
0.964915 0.258097 0.000000
1.000000 0.257766 0.000000
0.000000 0.327442 0.000000
0.066193 0.327022 0.000000
0.132169 0.326611 0.000000
0.197500 0.326204 0.000000
0.262408 0.325799 0.000000
0.327002 0.325397 0.000000
0.391346 0.324996 0.000000
0.455481 0.324596 0.000000
0.519439 0.324198 0.000000
0.583240 0.323800 0.000000
0.646904 0.323404 0.000000
0.710445 0.323008 0.000000
0.773872 0.322612 0.000000
0.837197 0.322218 0.000000
0.900426 0.321824 0.000000
0.963568 0.321431 0.000000
1.000000 0.321100 0.000000
0.000000 0.390530 0.000000
0.064851 0.390110 0.000000
0.130827 0.389699 0.000000
0.196158 0.389292 0.000000
0.261066 0.388887 0.000000
0.325660 0.388485 0.000000
0.390004 0.388084 0.000000
0.454139 0.387684 0.000000
0.518096 0.387286 0.000000
0.581898 0.386888 0.000000
0.645562 0.386491 0.000000
0.709102 0.386096 0.000000
0.772530 0.385700 0.000000
0.835855 0.385306 0.000000
0.899084 0.384912 0.000000
0.962226 0.384518 0.000000
1.000000 0.384188 0.000000
0.000000 0.453414 0.000000
0.063513 0.452994 0.000000
0.129489 0.452583 0.000000
0.194820 0.452175 0.000000
0.259729 0.451771 0.000000
0.324322 0.451369 0.000000
0.388666 0.450968 0.000000
0.452801 0.450568 0.000000
0.516759 0.450170 0.000000
0.580561 0.449772 0.000000
0.644225 0.449375 0.000000
0.707765 0.448979 0.000000
0.771192 0.448584 0.000000
0.834517 0.448190 0.000000
0.897746 0.447796 0.000000
0.960888 0.447402 0.000000
1.000000 0.447072 0.000000
0.000000 0.516123 0.000000
0.062179 0.515703 0.000000
0.128155 0.515292 0.000000
0.193486 0.514885 0.000000
0.258394 0.514480 0.000000
0.322988 0.514078 0.000000
0.387332 0.513677 0.000000
0.451467 0.513277 0.000000
0.515425 0.512879 0.000000
0.579226 0.512481 0.000000
0.642890 0.512085 0.000000
0.706430 0.511689 0.000000
0.769858 0.511294 0.000000
0.833183 0.510899 0.000000
0.896412 0.510505 0.000000
0.959554 0.510112 0.000000
1.000000 0.509781 0.000000
0.000000 0.578680 0.000000
0.060848 0.578260 0.000000
0.126824 0.577849 0.000000
0.192155 0.577442 0.000000
0.257064 0.577037 0.000000
0.321658 0.576635 0.000000
0.386001 0.576234 0.000000
0.450136 0.575834 0.000000
0.514094 0.575436 0.000000
0.577896 0.575038 0.000000
0.641560 0.574642 0.000000
0.705100 0.574246 0.000000
0.768527 0.573850 0.000000
0.831852 0.573456 0.000000
0.895081 0.573062 0.000000
0.958223 0.572669 0.000000
1.000000 0.572338 0.000000
0.000000 0.641102 0.000000
0.059520 0.640682 0.000000
0.125496 0.640271 0.000000
0.190827 0.639863 0.000000
0.255736 0.639459 0.000000
0.320330 0.639057 0.000000
0.384673 0.638656 0.000000
0.448808 0.638256 0.000000
0.512766 0.637858 0.000000
0.576568 0.637460 0.000000
0.640232 0.637063 0.000000
0.703772 0.636667 0.000000
0.767199 0.636272 0.000000
0.830524 0.635878 0.000000
0.893753 0.635484 0.000000
0.956895 0.635090 0.000000
1.000000 0.634760 0.000000
0.000000 0.703402 0.000000
0.058195 0.702982 0.000000
0.124171 0.702571 0.000000
0.189502 0.702164 0.000000
0.254410 0.701759 0.000000
0.319004 0.701357 0.000000
0.383348 0.700956 0.000000
0.447483 0.700556 0.000000
0.511440 0.700158 0.000000
0.575242 0.699760 0.000000
0.638906 0.699364 0.000000
0.702446 0.698968 0.000000
0.765874 0.698572 0.000000
0.829198 0.698178 0.000000
0.892428 0.697784 0.000000
0.955570 0.697390 0.000000
1.000000 0.697060 0.000000
0.000000 0.765592 0.000000
0.056872 0.765172 0.000000
0.122848 0.764761 0.000000
0.188179 0.764354 0.000000
0.253087 0.763949 0.000000
0.317681 0.763547 0.000000
0.382025 0.763146 0.000000
0.446160 0.762746 0.000000
0.510117 0.762348 0.000000
0.573919 0.761950 0.000000
0.637583 0.761553 0.000000
0.701123 0.761158 0.000000
0.764551 0.760762 0.000000
0.827875 0.760368 0.000000
0.891105 0.759974 0.000000
0.954247 0.759580 0.000000
1.000000 0.759250 0.000000
0.000000 0.827681 0.000000
0.055551 0.827261 0.000000
0.121527 0.826850 0.000000
0.186858 0.826443 0.000000
0.251766 0.826038 0.000000
0.316360 0.825636 0.000000
0.380704 0.825235 0.000000
0.444839 0.824835 0.000000
0.508796 0.824437 0.000000
0.572598 0.824039 0.000000
0.636262 0.823642 0.000000
0.699802 0.823246 0.000000
0.763230 0.822851 0.000000
0.826554 0.822457 0.000000
0.889784 0.822063 0.000000
0.952926 0.821669 0.000000
1.000000 0.821339 0.000000
0.000000 0.889677 0.000000
0.054232 0.889256 0.000000
0.120208 0.888845 0.000000
0.185539 0.888438 0.000000
0.250447 0.888034 0.000000
0.315041 0.887631 0.000000
0.379385 0.887231 0.000000
0.443520 0.886831 0.000000
0.507477 0.886432 0.000000
0.571279 0.886035 0.000000
0.634943 0.885638 0.000000
0.698483 0.885242 0.000000
0.761911 0.884847 0.000000
0.825236 0.884453 0.000000
0.888465 0.884059 0.000000
0.951607 0.883665 0.000000
1.000000 0.883334 0.000000
0.000000 0.951587 0.000000
0.052915 0.951166 0.000000
0.118891 0.950755 0.000000
0.184222 0.950348 0.000000
0.249130 0.949943 0.000000
0.313724 0.949541 0.000000
0.378068 0.949140 0.000000
0.442203 0.948740 0.000000
0.506160 0.948342 0.000000
0.569962 0.947944 0.000000
0.633626 0.947548 0.000000
0.697166 0.947152 0.000000
0.760594 0.946757 0.000000
0.823918 0.946362 0.000000
0.887148 0.945968 0.000000
0.950290 0.945575 0.000000
1.000000 0.945244 0.000000
0.000000 1.000000 0.000000
0.051704 1.000000 0.000000
0.117680 1.000000 0.000000
0.183011 1.000000 0.000000
0.247920 1.000000 0.000000
0.312514 1.000000 0.000000
0.376857 1.000000 0.000000
0.440992 1.000000 0.000000
0.504950 1.000000 0.000000
0.568752 1.000000 0.000000
0.632416 1.000000 0.000000
0.695956 1.000000 0.000000
0.759383 1.000000 0.000000
0.822708 1.000000 0.000000
0.885937 1.000000 0.000000
0.949079 1.000000 0.000000
1.000000 1.000000 0.000000
0.005407 0.005407 0.072328
0.072900 0.004986 0.071907
0.138877 0.004575 0.071496
0.204207 0.004168 0.071089
0.269116 0.003764 0.070685
0.333710 0.003361 0.070282
0.398053 0.002960 0.069881
0.462189 0.002561 0.069482
0.526146 0.002162 0.069083
0.589948 0.001764 0.068686
0.653612 0.001368 0.068289
0.717152 0.000972 0.067893
0.780579 0.000577 0.067498
0.843904 0.000182 0.067103
0.907134 0.000000 0.066709
0.970275 0.000000 0.066316
1.000000 0.000000 0.065985
0.003999 0.071582 0.070920
0.071492 0.071161 0.070499
0.137469 0.070750 0.070088
0.202800 0.070343 0.069681
0.267708 0.069939 0.069277
0.332302 0.069536 0.068874
0.396645 0.069135 0.068473
0.460781 0.068736 0.068074
0.524738 0.068337 0.067675
0.588540 0.067940 0.067278
0.652204 0.067543 0.066881
0.715744 0.067147 0.066485
0.779172 0.066752 0.066090
0.842496 0.066357 0.065695
0.905726 0.065963 0.065301
0.968867 0.065570 0.064908
1.000000 0.065239 0.064577
0.002623 0.136271 0.069544
0.070116 0.135850 0.069123
0.136093 0.135439 0.068712
0.201423 0.135032 0.068305
0.266332 0.134628 0.067901
0.330926 0.134225 0.067498
0.395269 0.133824 0.067097
0.459405 0.133425 0.066698
0.523362 0.133026 0.066299
0.587164 0.132629 0.065901
0.650828 0.132232 0.065505
0.714368 0.131836 0.065109
0.777795 0.131441 0.064714
0.841120 0.131046 0.064319
0.904350 0.130652 0.063925
0.967491 0.130259 0.063532
1.000000 0.129928 0.063201
0.001260 0.200326 0.068181
0.068754 0.199906 0.067760
0.134730 0.199495 0.067349
0.200061 0.199088 0.066942
0.264969 0.198683 0.066538
0.329563 0.198281 0.066135
0.393906 0.197880 0.065734
0.458042 0.197480 0.065335
0.521999 0.197082 0.064936
0.585801 0.196684 0.064539
0.649465 0.196288 0.064142
0.713005 0.195892 0.063746
0.776433 0.195497 0.063351
0.839757 0.195102 0.062956
0.902987 0.194708 0.062562
0.966128 0.194315 0.062169
1.000000 0.193984 0.061838
0.000000 0.263968 0.066827
0.067400 0.263548 0.066406
0.133376 0.263137 0.065995
0.198707 0.262730 0.065588
0.263615 0.262325 0.065184
0.328209 0.261923 0.064781
0.392553 0.261522 0.064380
0.456688 0.261122 0.063981
0.520645 0.260724 0.063582
0.584447 0.260326 0.063185
0.648111 0.259929 0.062788
0.711651 0.259533 0.062392
0.775079 0.259138 0.061997
0.838403 0.258744 0.061602
0.901633 0.258350 0.061209
0.964774 0.257956 0.060815
1.000000 0.257626 0.060484
0.000000 0.327302 0.065480
0.066052 0.326881 0.065059
0.132029 0.326470 0.064648
0.197359 0.326063 0.064241
0.262268 0.325659 0.063837
0.326862 0.325256 0.063434
0.391205 0.324855 0.063033
0.455340 0.324456 0.062633
0.519298 0.324057 0.062235
0.583100 0.323660 0.061837
0.646764 0.323263 0.061441
0.710304 0.322867 0.061045
0.773731 0.322472 0.060650
0.837056 0.322077 0.060255
0.900286 0.321683 0.059861
0.963427 0.321290 0.059468
1.000000 0.320959 0.059137
0.000000 0.390390 0.064137
0.064710 0.389969 0.063717
0.130686 0.389558 0.063306
0.196017 0.389151 0.062899
0.260926 0.388746 0.062494
0.325520 0.388344 0.062092
0.389863 0.387943 0.061691
0.453998 0.387543 0.061291
0.517956 0.387145 0.060893
0.581758 0.386747 0.060495
0.645422 0.386351 0.060099
0.708962 0.385955 0.059703
0.772389 0.385560 0.059308
0.835714 0.385165 0.058913
0.898943 0.384771 0.058519
0.962085 0.384378 0.058126
1.000000 0.384047 0.057795
0.000000 0.453273 0.062800
0.063372 0.452853 0.062379
0.129349 0.452442 0.061968
0.194679 0.452035 0.061561
0.259588 0.451630 0.061157
0.324182 0.451228 0.060754
0.388525 0.450827 0.060353
0.452661 0.450427 0.059954
0.516618 0.450029 0.059555
0.580420 0.449631 0.059158
0.644084 0.449235 0.058761
0.707624 0.448839 0.058365
0.771051 0.448443 0.057970
0.834376 0.448049 0.057575
0.897606 0.447655 0.057181
0.960747 0.447262 0.056788
1.000000 0.446931 0.056457
0.000000 0.515983 0.061466
0.062038 0.515562 0.061045
0.128015 0.515151 0.060634
0.193345 0.514744 0.060227
0.258254 0.514340 0.059822
0.322848 0.513937 0.059420
0.387191 0.513536 0.059019
0.451326 0.513137 0.058619
0.515284 0.512738 0.058221
0.579086 0.512341 0.057823
0.642750 0.511944 0.057427
0.706290 0.511548 0.057031
0.769717 0.511153 0.056636
0.833042 0.510758 0.056241
0.896271 0.510364 0.055847
0.959413 0.509971 0.055454
1.000000 0.509640 0.055123
0.000000 0.578540 0.060135
0.060707 0.578119 0.059714
0.126684 0.577708 0.059303
0.192014 0.577301 0.058896
0.256923 0.576897 0.058492
0.321517 0.576494 0.058089
0.385860 0.576093 0.057688
0.449996 0.575694 0.057289
0.513953 0.575295 0.056890
0.577755 0.574898 0.056493
0.641419 0.574501 0.056096
0.704959 0.574105 0.055700
0.768386 0.573710 0.055305
0.831711 0.573315 0.054910
0.894941 0.572921 0.054516
0.958082 0.572528 0.054123
1.000000 0.572197 0.053792
0.000000 0.640961 0.058807
0.059379 0.640541 0.058386
0.125356 0.640130 0.057975
0.190686 0.639723 0.057568
0.255595 0.639318 0.057164
0.320189 0.638916 0.056761
0.384532 0.638515 0.056360
0.448668 0.638115 0.055961
0.512625 0.637717 0.055562
0.576427 0.637319 0.055165
0.640091 0.636923 0.054768
0.703631 0.636527 0.054372
0.767058 0.636131 0.053977
0.830383 0.635737 0.053582
0.893613 0.635343 0.053188
0.956754 0.634950 0.052795
1.000000 0.634619 0.052464
0.000000 0.703262 0.057481
0.058054 0.702841 0.057061
0.124030 0.702430 0.056650
0.189361 0.702023 0.056243
0.254269 0.701619 0.055838
0.318863 0.701216 0.055436
0.383207 0.700815 0.055035
0.447342 0.700416 0.054635
0.511300 0.700017 0.054237
0.575101 0.699619 0.053839
0.638765 0.699223 0.053443
0.702306 0.698827 0.053047
0.765733 0.698432 0.052651
0.829058 0.698037 0.052257
0.892287 0.697643 0.051863
0.955429 0.697250 0.051469
1.000000 0.696919 0.051139
0.000000 0.765452 0.056158
0.056731 0.765031 0.055738
0.122707 0.764620 0.055327
0.188038 0.764213 0.054920
0.252946 0.763808 0.054515
0.317540 0.763406 0.054113
0.381884 0.763005 0.053712
0.446019 0.762605 0.053312
0.509977 0.762207 0.052914
0.573778 0.761809 0.052516
0.637442 0.761413 0.052119
0.700982 0.761017 0.051724
0.764410 0.760622 0.051328
0.827735 0.760227 0.050934
0.890964 0.759833 0.050540
0.954106 0.759440 0.050146
1.000000 0.759109 0.049816
0.000000 0.827540 0.054837
0.055410 0.827120 0.054417
0.121386 0.826709 0.054006
0.186717 0.826302 0.053599
0.251626 0.825897 0.053194
0.316219 0.825495 0.052792
0.380563 0.825094 0.052391
0.444698 0.824694 0.051991
0.508656 0.824296 0.051593
0.572458 0.823898 0.051195
0.636122 0.823502 0.050799
0.699662 0.823106 0.050403
0.763089 0.822711 0.050007
0.826414 0.822316 0.049613
0.889643 0.821922 0.049219
0.952785 0.821529 0.048826
1.000000 0.821198 0.048495
0.000000 0.889536 0.053519
0.054091 0.889116 0.053098
0.120067 0.888705 0.052687
0.185398 0.888298 0.052280
0.250307 0.887893 0.051875
0.314901 0.887491 0.051473
0.379244 0.887090 0.051072
0.443379 0.886690 0.050672
0.507337 0.886292 0.050274
0.571139 0.885894 0.049876
0.634803 0.885497 0.049480
0.698343 0.885102 0.049084
0.761770 0.884706 0.048689
0.825095 0.884312 0.048294
0.888324 0.883918 0.047900
0.951466 0.883524 0.047507
1.000000 0.883194 0.047176
0.000000 0.951446 0.052201
0.052774 0.951025 0.051781
0.118750 0.950614 0.051370
0.184081 0.950207 0.050963
0.248990 0.949803 0.050558
0.313584 0.949400 0.050156
0.377927 0.948999 0.049755
0.442062 0.948600 0.049355
0.506020 0.948201 0.048957
0.569822 0.947804 0.048559
0.633486 0.947407 0.048163
0.697026 0.947011 0.047767
0.760453 0.946616 0.047371
0.823778 0.946221 0.046977
0.887007 0.945827 0.046583
0.950149 0.945434 0.046190
1.000000 0.945103 0.045859
0.000000 1.000000 0.050991
0.051563 1.000000 0.050570
0.117540 1.000000 0.050159
0.182870 1.000000 0.049752
0.247779 1.000000 0.049348
0.312373 1.000000 0.048945
0.376716 1.000000 0.048544
0.440852 1.000000 0.048145
0.504809 1.000000 0.047746
0.568611 1.000000 0.047349
0.632275 1.000000 0.046952
0.695815 1.000000 0.046556
0.759242 1.000000 0.046161
0.822567 1.000000 0.045766
0.885797 1.000000 0.045372
0.948938 1.000000 0.044979
1.000000 1.000000 0.044648
0.005269 0.005269 0.137610
0.072763 0.004849 0.137189
0.138739 0.004437 0.136778
0.204070 0.004030 0.136371
0.268978 0.003626 0.135967
0.333572 0.003223 0.135564
0.397916 0.002823 0.135163
0.462051 0.002423 0.134764
0.526008 0.002024 0.134365
0.589810 0.001627 0.133968
0.653474 0.001230 0.133571
0.717014 0.000834 0.133175
0.780442 0.000439 0.132780
0.843766 0.000045 0.132385
0.906996 0.000000 0.131991
0.970138 0.000000 0.131598
1.000000 0.000000 0.131267
0.003861 0.071444 0.136202
0.071355 0.071024 0.135781
0.137331 0.070613 0.135370
0.202662 0.070206 0.134963
0.267570 0.069801 0.134559
0.332164 0.069399 0.134156
0.396508 0.068998 0.133755
0.460643 0.068598 0.133356
0.524600 0.068200 0.132957
0.588402 0.067802 0.132560
0.652066 0.067406 0.132163
0.715606 0.067010 0.131767
0.779034 0.066614 0.131372
0.842359 0.066220 0.130977
0.905588 0.065826 0.130584
0.968730 0.065432 0.130190
1.000000 0.065102 0.129859
0.002485 0.136133 0.134826
0.069979 0.135713 0.134405
0.135955 0.135301 0.133994
0.201286 0.134894 0.133587
0.266194 0.134490 0.133183
0.330788 0.134088 0.132780
0.395132 0.133687 0.132379
0.459267 0.133287 0.131980
0.523224 0.132888 0.131581
0.587026 0.132491 0.131184
0.650690 0.132094 0.130787
0.714230 0.131698 0.130391
0.777658 0.131303 0.129996
0.840982 0.130909 0.129601
0.904212 0.130515 0.129207
0.967354 0.130121 0.128814
1.000000 0.129791 0.128483
0.001122 0.200189 0.133463
0.068616 0.199768 0.133043
0.134592 0.199357 0.132631
0.199923 0.198950 0.132224
0.264831 0.198546 0.131820
0.329425 0.198143 0.131417
0.393769 0.197742 0.131017
0.457904 0.197343 0.130617
0.521862 0.196944 0.130218
0.585663 0.196547 0.129821
0.649327 0.196150 0.129424
0.712868 0.195754 0.129028
0.776295 0.195359 0.128633
0.839620 0.194964 0.128239
0.902849 0.194570 0.127845
0.965991 0.194177 0.127451
1.000000 0.193846 0.127120
0.000000 0.263831 0.132109
0.067262 0.263410 0.131689
0.133238 0.262999 0.131278
0.198569 0.262592 0.130870
0.263478 0.262188 0.130466
0.328071 0.261785 0.130064
0.392415 0.261384 0.129663
0.456550 0.260985 0.129263
0.520508 0.260586 0.128865
0.584310 0.260188 0.128467
0.647974 0.259792 0.128070
0.711514 0.259396 0.127674
0.774941 0.259001 0.127279
0.838266 0.258606 0.126885
0.901495 0.258212 0.126491
0.964637 0.257819 0.126097
1.000000 0.257488 0.125767
0.000000 0.327164 0.130762
0.065915 0.326744 0.130341
0.131891 0.326333 0.129930
0.197222 0.325925 0.129523
0.262130 0.325521 0.129119
0.326724 0.325119 0.128716
0.391068 0.324718 0.128315
0.455203 0.324318 0.127916
0.519160 0.323920 0.127517
0.582962 0.323522 0.127120
0.646626 0.323125 0.126723
0.710166 0.322729 0.126327
0.773594 0.322334 0.125932
0.836918 0.321940 0.125537
0.900148 0.321546 0.125143
0.963290 0.321152 0.124750
1.000000 0.320822 0.124419
0.000000 0.390252 0.129420
0.064572 0.389831 0.128999
0.130549 0.389420 0.128588
0.195880 0.389013 0.128181
0.260788 0.388609 0.127776
0.325382 0.388206 0.127374
0.389725 0.387806 0.126973
0.453861 0.387406 0.126573
0.517818 0.387007 0.126175
0.581620 0.386610 0.125777
0.645284 0.386213 0.125381
0.708824 0.385817 0.124985
0.772252 0.385422 0.124590
0.835576 0.385028 0.124195
0.898806 0.384634 0.123801
0.961947 0.384240 0.123408
1.000000 0.383909 0.123077
0.000000 0.453136 0.128082
0.063235 0.452715 0.127661
0.129211 0.452304 0.127250
0.194542 0.451897 0.126843
0.259450 0.451493 0.126439
0.324044 0.451090 0.126036
0.388388 0.450689 0.125635
0.452523 0.450290 0.125236
0.516480 0.449891 0.124837
0.580282 0.449494 0.124440
0.643946 0.449097 0.124043
0.707486 0.448701 0.123647
0.770914 0.448306 0.123252
0.834238 0.447911 0.122857
0.897468 0.447517 0.122463
0.960610 0.447124 0.122070
1.000000 0.446793 0.121739
0.000000 0.515845 0.126748
0.061901 0.515425 0.126327
0.127877 0.515014 0.125916
0.193208 0.514606 0.125509
0.258116 0.514202 0.125105
0.322710 0.513800 0.124702
0.387054 0.513399 0.124301
0.451189 0.512999 0.123902
0.515146 0.512601 0.123503
0.578948 0.512203 0.123106
0.642612 0.511806 0.122709
0.706152 0.511410 0.122313
0.769580 0.511015 0.121918
0.832904 0.510621 0.121523
0.896134 0.510227 0.121129
0.959275 0.509833 0.120736
1.000000 0.509503 0.120405
0.000000 0.578402 0.125417
0.060570 0.577982 0.124996
0.126546 0.577571 0.124585
0.191877 0.577163 0.124178
0.256785 0.576759 0.123774
0.321379 0.576357 0.123371
0.385723 0.575956 0.122970
0.449858 0.575556 0.122571
0.513815 0.575157 0.122172
0.577617 0.574760 0.121775
0.641281 0.574363 0.121378
0.704821 0.573967 0.120982
0.768249 0.573572 0.120587
0.831573 0.573178 0.120192
0.894803 0.572784 0.119798
0.957945 0.572390 0.119405
1.000000 0.572060 0.119074
0.000000 0.640824 0.124089
0.059242 0.640403 0.123668
0.125218 0.639992 0.123257
0.190549 0.639585 0.122850
0.255457 0.639181 0.122446
0.320051 0.638778 0.122043
0.384395 0.638377 0.121642
0.448530 0.637978 0.121243
0.512487 0.637579 0.120844
0.576289 0.637182 0.120447
0.639953 0.636785 0.120050
0.703493 0.636389 0.119654
0.766921 0.635994 0.119259
0.830245 0.635599 0.118864
0.893475 0.635205 0.118470
0.956617 0.634812 0.118077
1.000000 0.634481 0.117746
0.000000 0.703124 0.122764
0.057916 0.702704 0.122343
0.123893 0.702292 0.121932
0.189223 0.701885 0.121525
0.254132 0.701481 0.121120
0.318726 0.701078 0.120718
0.383069 0.700678 0.120317
0.447205 0.700278 0.119917
0.511162 0.699879 0.119519
0.574964 0.699482 0.119121
0.638628 0.699085 0.118725
0.702168 0.698689 0.118329
0.765596 0.698294 0.117934
0.828920 0.697900 0.117539
0.892150 0.697506 0.117145
0.955291 0.697112 0.116752
1.000000 0.696781 0.116421
0.000000 0.765314 0.121440
0.056593 0.764893 0.121020
0.122570 0.764482 0.120609
0.187900 0.764075 0.120202
0.252809 0.763671 0.119797
0.317403 0.763268 0.119395
0.381746 0.762867 0.118994
0.445882 0.762468 0.118594
0.509839 0.762069 0.118196
0.573641 0.761672 0.117798
0.637305 0.761275 0.117402
0.700845 0.760879 0.117006
0.764272 0.760484 0.116610
0.827597 0.760089 0.116216
0.890827 0.759695 0.115822
0.953968 0.759302 0.115429
1.000000 0.758971 0.115098
0.000000 0.827403 0.120120
0.055272 0.826982 0.119699
0.121249 0.826571 0.119288
0.186580 0.826164 0.118881
0.251488 0.825760 0.118476
0.316082 0.825357 0.118074
0.380425 0.824956 0.117673
0.444561 0.824557 0.117273
0.508518 0.824158 0.116875
0.572320 0.823761 0.116477
0.635984 0.823364 0.116081
0.699524 0.822968 0.115685
0.762952 0.822573 0.115290
0.826276 0.822178 0.114895
0.889506 0.821784 0.114501
0.952647 0.821391 0.114108
1.000000 0.821060 0.113777
0.000000 0.889399 0.118801
0.053954 0.888978 0.118380
0.119930 0.888567 0.117969
0.185261 0.888160 0.117562
0.250169 0.887756 0.117158
0.314763 0.887353 0.116755
0.379106 0.886952 0.116354
0.443242 0.886553 0.115955
0.507199 0.886154 0.115556
0.571001 0.885757 0.115158
0.634665 0.885360 0.114762
0.698205 0.884964 0.114366
0.761633 0.884569 0.113971
0.824957 0.884174 0.113576
0.888187 0.883780 0.113182
0.951328 0.883387 0.112789
1.000000 0.883056 0.112458
0.000000 0.951308 0.117484
0.052636 0.950888 0.117063
0.118613 0.950477 0.116652
0.183944 0.950070 0.116245
0.248852 0.949665 0.115840
0.313446 0.949263 0.115438
0.377789 0.948862 0.115037
0.441925 0.948462 0.114637
0.505882 0.948064 0.114239
0.569684 0.947666 0.113841
0.633348 0.947269 0.113445
0.696888 0.946873 0.113049
0.760316 0.946478 0.112654
0.823640 0.946084 0.112259
0.886870 0.945690 0.111865
0.950011 0.945296 0.111472
1.000000 0.944966 0.111141
0.000000 1.000000 0.116273
0.051426 1.000000 0.115852
0.117402 1.000000 0.115441
0.182733 1.000000 0.115034
0.247641 1.000000 0.114630
0.312235 1.000000 0.114227
0.376579 1.000000 0.113826
0.440714 1.000000 0.113427
0.504671 1.000000 0.113028
0.568473 1.000000 0.112631
0.632137 1.000000 0.112234
0.695677 1.000000 0.111838
0.759105 1.000000 0.111443
0.822429 1.000000 0.111048
0.885659 1.000000 0.110654
0.948801 1.000000 0.110261
1.000000 1.000000 0.109930
0.005133 0.005133 0.202253
0.072626 0.004712 0.201833
0.138603 0.004301 0.201422
0.203934 0.003894 0.201015
0.268842 0.003490 0.200610
0.333436 0.003087 0.200208
0.397779 0.002686 0.199807
0.461915 0.002287 0.199407
0.525872 0.001888 0.199009
0.589674 0.001491 0.198611
0.653338 0.001094 0.198215
0.716878 0.000698 0.197819
0.780306 0.000303 0.197424
