render-worker/luts/viral.cube
# Generated by render-worker/scripts/generate-luts.mjs
# Do not hand-edit — re-run the script and let math win.
TITLE "EstateMotion Viral — Teal-Orange (punchy, social-native)"
LUT_3D_SIZE 9
DOMAIN_MIN 0.0 0.0 0.0
DOMAIN_MAX 1.0 1.0 1.0
0.000000 0.029784 0.089069
0.036948 0.029571 0.087675
0.146267 0.028839 0.084394
0.340979 0.027535 0.078552
0.593011 0.025848 0.070988
0.812436 0.024378 0.064404
0.946612 0.023480 0.060378
1.000000 0.023044 0.058422
1.000000 0.022967 0.058079
0.000000 0.074850 0.084410
0.032461 0.073064 0.083321
0.135895 0.070817 0.080378
0.323803 0.068034 0.074896
0.574233 0.064860 0.067536
0.799160 0.061884 0.060938
0.939981 0.059499 0.056861
1.000000 0.057620 0.054928
1.000000 0.056133 0.054627
0.000000 0.168824 0.074693
0.029613 0.165468 0.073865
0.127366 0.161730 0.071250
0.308358 0.157480 0.066133
0.556574 0.152825 0.058993
0.786621 0.148337 0.052394
0.934203 0.144446 0.048266
1.000000 0.141094 0.046351
1.000000 0.138156 0.046089
0.000000 0.335529 0.057384
0.029010 0.330286 0.056862
0.121285 0.324697 0.054606
0.295277 0.318602 0.049894
0.540678 0.312070 0.043035
0.775408 0.305653 0.036492
0.929830 0.299816 0.032354
1.000000 0.294532 0.030499
1.000000 0.289685 0.030335
0.000370 0.561203 0.033893
0.030309 0.555219 0.033592
0.117350 0.548847 0.031578
0.284336 0.541935 0.027165
0.526385 0.534517 0.020501
0.765356 0.527118 0.013928
0.926704 0.520238 0.009686
1.000000 0.513883 0.007794
1.000000 0.508065 0.007756
0.006079 0.776306 0.011503
0.031670 0.771541 0.011209
0.113746 0.766352 0.009225
0.273783 0.760597 0.004907
0.511999 0.754274 0.000000
0.754758 0.747876 0.000000
0.923115 0.741934 0.000000
1.000000 0.736486 0.000000
1.000000 0.731675 0.000000
0.009962 0.922661 0.000000
0.031501 0.919819 0.000000
0.108850 0.916561 0.000000
0.261994 0.912753 0.000000
0.495902 0.908359 0.000000
0.741934 0.903841 0.000000
0.917320 0.899751 0.000000
1.000000 0.896199 0.000000
1.000000 0.893318 0.000000
0.012039 1.000000 0.000000
0.029770 0.999462 0.000000
0.102596 0.997630 0.000000
0.248903 0.995280 0.000000
0.478030 0.992350 0.000000
0.726753 0.989262 0.000000
0.909116 0.986591 0.000000
1.000000 0.984490 0.000000
1.000000 0.983128 0.000000
0.013413 1.000000 0.000000
0.027582 1.000000 0.000000
0.096107 1.000000 0.000000
0.235688 1.000000 0.000000
0.459644 1.000000 0.000000
0.710493 1.000000 0.000000
0.899776 1.000000 0.000000
1.000000 1.000000 0.000000
1.000000 1.000000 0.000000
0.000000 0.029676 0.137153
0.036486 0.029467 0.134153
0.145202 0.028743 0.129301
0.339233 0.027447 0.121918
0.591132 0.025764 0.112828
0.811128 0.024295 0.104724
0.945969 0.023395 0.099203
1.000000 0.022959 0.095789
1.000000 0.022884 0.094017
0.000000 0.074212 0.127218
0.032006 0.072441 0.124622
0.134857 0.070212 0.120203
0.322072 0.067446 0.113277
0.572306 0.064286 0.104485
0.797768 0.061320 0.096461
0.939268 0.058942 0.090980
1.000000 0.057073 0.087677
1.000000 0.055594 0.086034
0.000000 0.167671 0.112553
0.029164 0.164335 0.110311
0.126357 0.160619 0.106312
0.306646 0.156393 0.099841
0.554606 0.151758 0.091361
0.785148 0.147285 0.083424
0.933419 0.143407 0.077977
1.000000 0.140070 0.074777
1.000000 0.137147 0.073256
0.000000 0.333746 0.090616
0.028564 0.328523 0.088771
0.120300 0.322955 0.085218
0.293585 0.316881 0.079239
0.538672 0.310369 0.071126
0.773852 0.303966 0.063330
0.928971 0.298142 0.057956
1.000000 0.292873 0.054895
1.000000 0.288041 0.053552
0.000394 0.559174 0.062755
0.029874 0.553193 0.061215
0.116398 0.546826 0.057988
0.282675 0.539920 0.052391
0.524355 0.532506 0.044556
0.763726 0.525107 0.036814
0.925775 0.518225 0.031414
1.000000 0.511871 0.028393
1.000000 0.506053 0.027250
0.006102 0.774695 0.036203
0.031264 0.769919 0.034751
0.112844 0.764722 0.031633
0.272174 0.758958 0.026209
0.509969 0.752626 0.018457
0.753075 0.746214 0.010572
0.922134 0.740254 0.004935
1.000000 0.734791 0.001739
1.000000 0.729965 0.000581
0.009993 0.921702 0.017046
0.031128 0.918851 0.015593
0.108004 0.915584 0.012495
0.260448 0.911768 0.007154
0.493886 0.907365 0.000000
0.740209 0.902832 0.000000
0.916295 0.898724 0.000000
1.000000 0.895151 0.000000
1.000000 0.892259 0.000000
0.012072 1.000000 0.005245
0.029426 0.998973 0.003835
0.101801 0.997138 0.000796
0.247416 0.994787 0.000000
0.476030 0.991853 0.000000
0.724985 0.988757 0.000000
0.908042 0.986074 0.000000
1.000000 0.983957 0.000000
1.000000 0.982589 0.000000
0.013450 1.000000 0.000000
0.027266 1.000000 0.000000
0.095362 1.000000 0.000000
0.234262 1.000000 0.000000
0.457665 1.000000 0.000000
0.708686 1.000000 0.000000
0.898653 1.000000 0.000000
1.000000 1.000000 0.000000
1.000000 1.000000 0.000000
0.000000 0.029436 0.243526
0.036181 0.029229 0.238801
0.144295 0.028513 0.232248
0.337644 0.027225 0.223184
0.589402 0.025547 0.212416
0.809966 0.024078 0.202630
0.945473 0.023177 0.195443
1.000000 0.022743 0.190389
1.000000 0.022669 0.186999
0.000000 0.073448 0.227876
0.031707 0.071688 0.223613
0.133977 0.069476 0.217553
0.320497 0.066728 0.209008
0.570529 0.063583 0.198601
0.796522 0.060626 0.188958
0.938701 0.058257 0.181873
1.000000 0.056397 0.176992
1.000000 0.054929 0.173793
0.000000 0.166393 0.207700
0.028870 0.163075 0.203853
0.125503 0.159383 0.198274
0.305089 0.155180 0.190247
0.552787 0.150566 0.180217
0.783818 0.146108 0.170727
0.932779 0.142244 0.163739
1.000000 0.138923 0.159024
1.000000 0.136015 0.156011
0.000000 0.331837 0.180472
0.028270 0.326634 0.177090
0.119469 0.321087 0.172021
0.292046 0.315036 0.164551
0.536813 0.308544 0.154954
0.772437 0.302156 0.145671
0.928252 0.296345 0.138821
1.000000 0.291091 0.134311
1.000000 0.286279 0.131543
0.000565 0.557014 0.147502
0.029590 0.551038 0.144491
0.115597 0.544676 0.139814
0.281166 0.537777 0.132793
0.522471 0.530369 0.123542
0.762236 0.522970 0.114380
0.924985 0.516087 0.107571
1.000000 0.509733 0.103166
1.000000 0.503920 0.100663
0.006271 0.772950 0.115990
0.031005 0.768166 0.113132
0.112092 0.762959 0.108630
0.270715 0.757189 0.101848
0.508083 0.750847 0.092749
0.751530 0.744421 0.083512
0.921290 0.738446 0.076532
1.000000 0.732968 0.072017
1.000000 0.728131 0.069564
0.010167 0.920613 0.092066
0.030901 0.917753 0.089272
0.107305 0.914477 0.084854
0.259048 0.910654 0.078219
0.492012 0.906242 0.069191
0.738619 0.901695 0.059798
0.915403 0.897570 0.052544
1.000000 0.893980 0.047831
1.000000 0.891076 0.045242
0.012247 0.999804 0.075735
0.029225 0.998359 0.073046
0.101150 0.996521 0.068750
0.246074 0.994168 0.062305
0.474170 0.991232 0.053405
0.723350 0.988128 0.043913
0.907100 0.985434 0.036425
1.000000 0.983304 0.031521
1.000000 0.981932 0.028800
0.013628 1.000000 0.065523
0.027093 1.000000 0.062933
0.094760 1.000000 0.058761
0.232981 1.000000 0.052518
0.455827 1.000000 0.043784
0.707012 1.000000 0.034238
0.897661 1.000000 0.026538
1.000000 1.000000 0.021410
1.000000 1.000000 0.018548
0.000000 0.029003 0.435802
0.036106 0.028792 0.429111
0.143620 0.028084 0.420591
0.336284 0.026807 0.409551
0.587895 0.025134 0.396778
0.809022 0.023665 0.384958
0.945195 0.022765 0.375724
1.000000 0.022332 0.368623
1.000000 0.022261 0.363182
0.000000 0.072496 0.413524
0.031635 0.070743 0.407254
0.133326 0.068549 0.399188
0.319149 0.065820 0.388633
0.568971 0.062690 0.376194
0.795490 0.059743 0.364491
0.938348 0.057384 0.355336
1.000000 0.055534 0.348389
1.000000 0.054077 0.343122
0.000000 0.164933 0.386598
0.028800 0.161628 0.380715
0.124875 0.157959 0.373106
0.303755 0.153781 0.363048
0.551184 0.149189 0.350970
0.782699 0.144748 0.339407
0.932348 0.140899 0.330338
1.000000 0.137594 0.323549
1.000000 0.134704 0.318462
0.000000 0.329742 0.352544
0.028196 0.324561 0.347119
0.118858 0.319036 0.340008
0.290725 0.313009 0.330498
0.535165 0.306538 0.318850
0.771227 0.300166 0.307492
0.927738 0.294371 0.298562
1.000000 0.289133 0.291980
1.000000 0.284347 0.287154
0.000950 0.554668 0.312680
0.029519 0.548698 0.307623
0.115012 0.542342 0.300902
0.279870 0.535452 0.291845
0.520792 0.528050 0.280551
0.760945 0.520653 0.269326
0.924393 0.513771 0.260449
1.000000 0.507419 0.253988
1.000000 0.501617 0.249443
0.006648 0.771019 0.274202
0.030955 0.766227 0.269305
0.111548 0.761013 0.262770
0.269463 0.755237 0.253965
0.506397 0.748889 0.242840
0.750177 0.742450 0.231561
0.920637 0.736460 0.222535
1.000000 0.730969 0.215986
1.000000 0.726128 0.211518
0.010542 0.919342 0.243320
0.030877 0.916475 0.238502
0.106809 0.913192 0.232067
0.257850 0.909363 0.223431
0.490332 0.904944 0.212403
0.737216 0.900385 0.200995
0.914697 0.896245 0.191723
1.000000 0.892643 0.185010
1.000000 0.889730 0.180435
0.012616 0.999019 0.220112
0.029220 0.997573 0.215422
0.100696 0.995734 0.209135
0.244927 0.993381 0.200717
0.472498 0.990444 0.189849
0.721896 0.987333 0.178377
0.906335 0.984630 0.168906
1.000000 0.982494 0.162038
1.000000 0.981118 0.157369
0.013998 1.000000 0.203122
0.027112 1.000000 0.198562
0.094351 1.000000 0.192433
0.231891 1.000000 0.184252
0.454174 1.000000 0.173587
0.705515 1.000000 0.162103
0.896843 1.000000 0.152462
1.000000 1.000000 0.145412
1.000000 1.000000 0.140646
0.000000 0.028444 0.684019
0.036187 0.028222 0.677009
0.143107 0.027519 0.668131
0.335089 0.026247 0.656681
0.586550 0.024576 0.643428
0.808240 0.023105 0.631052
0.945085 0.022202 0.621206
1.000000 0.021768 0.613447
1.000000 0.021696 0.607297
0.000000 0.071409 0.660499
0.031733 0.069655 0.653724
0.132851 0.067476 0.645116
0.317979 0.064762 0.633970
0.567589 0.061645 0.620871
0.794634 0.058705 0.608435
0.938174 0.056352 0.598490
1.000000 0.054510 0.590709
1.000000 0.053062 0.584561
0.000000 0.163329 0.631717
0.028911 0.160029 0.625149
0.124434 0.156381 0.616819
0.302612 0.152225 0.605993
0.549768 0.147652 0.593084
0.781766 0.143225 0.580617
0.932107 0.139388 0.570589
1.000000 0.136097 0.562798
1.000000 0.133222 0.556666
0.000000 0.327489 0.595209
0.028315 0.322327 0.588941
0.118445 0.316821 0.580938
0.289606 0.310816 0.570493
0.533716 0.304364 0.557850
0.770213 0.298006 0.545428
0.927422 0.292223 0.535378
1.000000 0.287000 0.527637
1.000000 0.282242 0.521623
0.001531 0.552148 0.552297
0.029652 0.546182 0.546233
0.114634 0.539831 0.538460
0.278784 0.532947 0.528310
0.519321 0.525551 0.515869
0.759858 0.518154 0.503428
0.924008 0.511270 0.493282
1.000000 0.504919 0.485516
1.000000 0.499132 0.479640
0.007230 0.768903 0.510159
0.031115 0.764101 0.504101
0.111219 0.758878 0.496362
0.268429 0.753095 0.486317
0.504926 0.746737 0.473901
0.749036 0.740286 0.461268
0.920196 0.734280 0.450835
1.000000 0.728774 0.442847
1.000000 0.723932 0.436916
0.011131 0.917880 0.475081
0.031069 0.915004 0.468956
0.106534 0.911713 0.461176
0.256876 0.907876 0.451162
0.488874 0.903449 0.438711
0.736030 0.898876 0.425820
0.914208 0.894720 0.415015
1.000000 0.891110 0.406747
1.000000 0.888187 0.400581
0.013205 0.998039 0.447223
0.029438 0.996591 0.441092
0.100467 0.994749 0.433330
0.244008 0.992395 0.423407
0.471053 0.989456 0.410995
0.720663 0.986338 0.397923
0.905791 0.983625 0.386805
1.000000 0.981487 0.378270
1.000000 0.980107 0.371903
0.014594 1.000000 0.425163
0.027361 1.000000 0.419039
0.094176 1.000000 0.411316
0.231037 1.000000 0.401516
0.452754 1.000000 0.389199
0.704245 1.000000 0.376011
0.896251 1.000000 0.364622
1.000000 1.000000 0.355806
1.000000 1.000000 0.349248
0.000000 0.027966 0.896084
0.036182 0.027731 0.890798
0.142515 0.027028 0.883631
0.333820 0.025757 0.873865
0.585130 0.024083 0.862250
0.807386 0.022605 0.851459
0.944908 0.021693 0.843161
1.000000 0.021253 0.836925
1.000000 0.021175 0.832265
0.000000 0.070391 0.878294
0.031763 0.068633 0.873143
0.132315 0.066464 0.866141
0.316754 0.063761 0.856571
0.566151 0.060650 0.845001
0.793723 0.057713 0.834035
0.937954 0.055361 0.825519
1.000000 0.053522 0.819136
1.000000 0.052076 0.814351
0.000000 0.161772 0.854886
0.028974 0.158482 0.849835
0.123952 0.154849 0.842994
0.301433 0.150710 0.833624
0.548316 0.146150 0.822121
0.780798 0.141732 0.810997
0.931839 0.137903 0.802266
1.000000 0.134620 0.795738
1.000000 0.131754 0.790828
0.000000 0.325273 0.823373
0.028404 0.320125 0.818502
0.118012 0.314635 0.811859
0.288471 0.308645 0.802738
0.532251 0.302207 0.791366
0.769185 0.295858 0.780149
0.927100 0.290083 0.771253
1.000000 0.284869 0.764628
1.000000 0.280135 0.759700
0.002094 0.549644 0.784988
0.029775 0.543676 0.780185
0.114254 0.537325 0.773632
0.277703 0.530443 0.764664
0.517855 0.523046 0.753349
0.758777 0.515644 0.741967
0.923635 0.508754 0.732823
1.000000 0.502399 0.726017
1.000000 0.496623 0.721068
0.007814 0.766780 0.746833
0.031286 0.761963 0.741888
0.110909 0.756726 0.735218
0.267420 0.750930 0.726201
0.503481 0.744558 0.714759
0.747921 0.738088 0.703026
0.919788 0.732061 0.693434
1.000000 0.726536 0.686241
1.000000 0.721689 0.681071
0.011741 0.916393 0.715200
0.031293 0.913503 0.710029
0.106298 0.910198 0.703156
0.255947 0.906350 0.694005
0.487462 0.901909 0.682362
0.734890 0.897317 0.670204
0.913770 0.893139 0.660069
1.000000 0.889518 0.652431
1.000000 0.886580 0.646841
0.013836 0.997020 0.690260
0.029706 0.995563 0.684914
0.100298 0.993714 0.677887
0.243155 0.991355 0.668656
0.469674 0.988408 0.656877
0.719496 0.985278 0.644364
0.905319 0.982550 0.633737
1.000000 0.980407 0.625652
1.000000 0.979018 0.619677
0.015254 1.000000 0.670557
0.027681 1.000000 0.665042
0.094079 1.000000 0.657876
0.230268 1.000000 0.648587
0.451422 1.000000 0.636724
0.703063 1.000000 0.623914
0.895750 1.000000 0.612831
1.000000 1.000000 0.604280
1.000000 1.000000 0.597927
0.000000 0.027681 1.000000
0.035954 0.027438 1.000000
0.141704 0.026734 1.000000
0.332329 0.025463 1.000000
0.583483 0.023786 0.996420
0.806302 0.022299 0.987566
0.944505 0.021379 0.981214
1.000000 0.020931 0.976941
1.000000 0.020846 0.974256
0.000000 0.069567 1.000000
0.031573 0.067810 1.000000
0.131562 0.065649 1.000000
0.315312 0.062956 0.995425
0.564492 0.059852 0.985839
0.792587 0.056916 0.976846
0.937511 0.054563 0.970306
1.000000 0.052725 0.965915
1.000000 0.051281 0.963130
0.000000 0.160408 0.994462
0.028821 0.157132 0.991407
0.123258 0.153514 0.986573
0.300042 0.149389 0.979224
0.546649 0.144842 0.969735
0.779612 0.140431 0.960612
0.931355 0.136607 0.953880
1.000000 0.133332 0.949364
1.000000 0.130473 0.946473
0.000000 0.323252 0.969721
0.028283 0.318117 0.966875
0.117370 0.312639 0.962263
0.287130 0.306664 0.955186
0.530577 0.300238 0.945853
0.767945 0.293897 0.936655
0.926568 0.288126 0.929775
1.000000 0.282920 0.925174
1.000000 0.278203 0.922284
0.002446 0.547323 0.938158
0.029692 0.541353 0.935399
0.113674 0.534999 0.930897
0.276423 0.528116 0.923989
0.516188 0.520717 0.914728
0.757493 0.513309 0.905377
0.923061 0.506411 0.898256
1.000000 0.500048 0.893479
1.000000 0.494275 0.890569
0.008195 0.764829 0.906812
0.031259 0.759995 0.903923
0.110406 0.754741 0.899312
0.266221 0.748931 0.892362
0.501845 0.742543 0.882978
0.746612 0.736051 0.873280
0.919189 0.730000 0.865709
1.000000 0.724455 0.860540
1.000000 0.719594 0.857398
0.012157 0.915071 0.881986
0.031327 0.912164 0.878871
0.105878 0.908843 0.874055
0.254839 0.904979 0.866966
0.485870 0.900522 0.857374
0.733567 0.895908 0.847242
0.913153 0.891705 0.839112
1.000000 0.888066 0.833484
1.000000 0.885110 0.829895
0.014283 0.996159 0.863863
0.029796 0.994691 0.860562
0.099956 0.992831 0.855578
0.242134 0.990462 0.848391
0.468127 0.987505 0.838645
0.718159 0.984360 0.828135
0.904678 0.981613 0.819486
1.000000 0.979458 0.813379
1.000000 0.978057 0.809371
0.015739 1.000000 0.850940
0.027833 1.000000 0.847448
0.093820 1.000000 0.842299
0.229343 1.000000 0.835025
0.449933 1.000000 0.825163
0.701722 1.000000 0.814321
0.895094 1.000000 0.805177
1.000000 1.000000 0.798559
1.000000 1.000000 0.794125
0.000000 0.027675 1.000000
0.035674 0.027422 1.000000
0.140829 0.026710 1.000000
0.330757 0.025424 1.000000
0.581726 0.023725 1.000000
0.805083 0.022213 1.000000
0.943954 0.021273 1.000000
1.000000 0.020811 1.000000
1.000000 0.020717 1.000000
0.000000 0.069010 1.000000
0.031304 0.067254 1.000000
0.130721 0.065094 1.000000
0.313762 0.062396 1.000000
0.562697 0.059280 1.000000
0.791292 0.056328 1.000000
0.936894 0.053963 1.000000
1.000000 0.052120 1.000000
1.000000 0.050674 1.000000
0.000000 0.159290 1.000000
0.028550 0.156025 1.000000
0.122436 0.152413 1.000000
0.298507 0.148291 1.000000
0.544810 0.143738 1.000000
0.778229 0.139316 1.000000
0.930665 0.135493 1.000000
1.000000 0.132226 1.000000
1.000000 0.129375 1.000000
0.000000 0.321432 1.000000
0.027987 0.316306 1.000000
0.116547 0.310834 1.000000
0.285594 0.304863 1.000000
0.528700 0.298451 1.000000
0.766495 0.292119 1.000000
0.925824 0.286356 1.000000
1.000000 0.281158 1.000000
1.000000 0.276455 1.000000
0.002597 0.545179 1.000000
0.029409 0.539207 1.000000
0.112894 0.532852 1.000000
0.274942 0.525970 1.000000
0.514313 0.518571 0.997387
0.755993 0.511158 0.989484
0.922270 0.504252 0.983820
1.000000 0.497885 0.980524
1.000000 0.492111 0.979121
0.008368 0.763054 0.988452
0.031026 0.758205 0.987024
0.109698 0.752936 0.983895
0.264816 0.747112 0.978453
0.499995 0.740709 0.970587
0.745083 0.734197 0.962404
0.918368 0.728124 0.956354
1.000000 0.722557 0.952731
1.000000 0.717681 0.951160
0.012361 0.913930 0.968502
0.031150 0.911008 0.966911
0.105248 0.907671 0.963640
0.253520 0.903793 0.958122
0.484061 0.899320 0.950113
0.732021 0.894686 0.941560
0.912310 0.890459 0.935016
1.000000 0.886798 0.930995
1.000000 0.883824 0.929040
0.014513 0.995484 0.955486
0.029671 0.994006 0.953771
0.099399 0.992136 0.950394
0.240898 0.989759 0.944839
0.466361 0.986793 0.936740
0.716594 0.983634 0.927872
0.903809 0.980868 0.920870
1.000000 0.978696 0.916431
1.000000 0.977283 0.914114
0.015999 1.000000 0.947888
0.027761 1.000000 0.946042
0.093339 1.000000 0.942560
0.228196 1.000000 0.936978
0.448219 1.000000 0.928823
0.700148 1.000000 0.919685
0.894202 1.000000 0.912247
1.000000 1.000000 0.907354
1.000000 1.000000 0.904668
0.000000 0.027683 1.000000
0.035161 0.027435 1.000000
0.139738 0.026727 1.000000
0.328985 0.025447 1.000000
0.579786 0.023751 1.000000
0.803699 0.022236 1.000000
0.943254 0.021293 1.000000
1.000000 0.020829 1.000000
1.000000 0.020733 1.000000
0.000000 0.068504 1.000000
0.030831 0.066762 1.000000
0.129690 0.064617 1.000000
0.312042 0.061934 1.000000
0.560748 0.058829 1.000000
0.789860 0.055884 1.000000
0.936157 0.053525 1.000000
1.000000 0.051688 1.000000
1.000000 0.050250 1.000000
0.000000 0.158275 1.000000
0.028116 0.155029 1.000000
0.121467 0.151438 1.000000
0.296842 0.147337 1.000000
0.542857 0.142802 1.000000
0.776750 0.138393 1.000000
0.929884 0.134575 1.000000
1.000000 0.131312 1.000000
1.000000 0.128470 1.000000
0.000000 0.319778 1.000000
0.027589 0.314671 1.000000
0.115635 0.309218 1.000000
0.283982 0.303265 1.000000
0.526726 0.296853 1.000000
0.764927 0.290514 1.000000
0.924953 0.284749 1.000000
1.000000 0.279556 1.000000
1.000000 0.274862 1.000000
0.002630 0.543195 1.000000
0.029010 0.537221 1.000000
0.111995 0.530863 1.000000
0.273333 0.523973 1.000000
0.512289 0.516559 1.000000
0.754336 0.509139 1.000000
0.921323 0.502227 1.000000
1.000000 0.495855 1.000000
1.000000 0.490079 1.000000
0.008391 0.761406 1.000000
0.030644 0.756542 1.000000
0.108842 0.751259 1.000000
0.263264 0.745421 1.000000
0.497994 0.739004 1.000000
0.743395 0.732472 0.993528
0.917387 0.726377 0.988816
1.000000 0.720788 0.986560
1.000000 0.715895 0.986388
0.012411 0.912918 0.997333
0.030823 0.909980 0.997071
0.104469 0.906628 0.995156
0.252052 0.902737 0.991028
0.482099 0.898249 0.984429
0.730315 0.893594 0.977289
0.911306 0.889344 0.972172
1.000000 0.885656 0.969607
1.000000 0.882666 0.969145
0.014588 0.994942 0.988795
0.029393 0.993454 0.988494
0.098691 0.991575 0.986561
0.239513 0.989190 0.982484
0.464440 0.986214 0.975886
0.714869 0.983040 0.968526
0.902778 0.980257 0.963045
1.000000 0.978065 0.960155
1.000000 0.976640 0.959428
0.016102 1.000000 0.985976
0.027533 1.000000 0.985635
0.092703 1.000000 0.983687
0.226896 1.000000 0.979677
0.446347 1.000000 0.973119
0.698410 1.000000 0.965587
0.893145 1.000000 0.959768
1.000000 1.000000 0.956525
1.000000 1.000000 0.955528
