render-worker/luts/viral.cube
# Generated by render-worker/scripts/generate-luts.mjs
# Do not hand-edit — re-run the script and let math win.
TITLE "EstateMotion Viral — Teal-Orange (punchy, social-native)"
LUT_3D_SIZE 5
DOMAIN_MIN 0.0 0.0 0.0
DOMAIN_MAX 1.0 1.0 1.0
0.000000 0.029784 0.089069
0.146267 0.028839 0.084394
0.593011 0.025848 0.070988
0.946612 0.023480 0.060378
1.000000 0.022967 0.058079
0.000000 0.168824 0.074693
0.127366 0.161730 0.071250
0.556574 0.152825 0.058993
0.934203 0.144446 0.048266
1.000000 0.138156 0.046089
0.000370 0.561203 0.033893
0.117350 0.548847 0.031578
0.526385 0.534517 0.020501
0.926704 0.520238 0.009686
1.000000 0.508065 0.007756
0.009962 0.922661 0.000000
0.108850 0.916561 0.000000
0.495902 0.908359 0.000000
0.917320 0.899751 0.000000
1.000000 0.893318 0.000000
0.013413 1.000000 0.000000
0.096107 1.000000 0.000000
0.459644 1.000000 0.000000
0.899776 1.000000 0.000000
1.000000 1.000000 0.000000
0.000000 0.029436 0.243526
0.144295 0.028513 0.232248
0.589402 0.025547 0.212416
0.945473 0.023177 0.195443
1.000000 0.022669 0.186999
0.000000 0.166393 0.207700
0.125503 0.159383 0.198274
0.552787 0.150566 0.180217
0.932779 0.142244 0.163739
1.000000 0.136015 0.156011
0.000565 0.557014 0.147502
0.115597 0.544676 0.139814
0.522471 0.530369 0.123542
0.924985 0.516087 0.107571
1.000000 0.503920 0.100663
0.010167 0.920613 0.092066
0.107305 0.914477 0.084854
0.492012 0.906242 0.069191
0.915403 0.897570 0.052544
1.000000 0.891076 0.045242
0.013628 1.000000 0.065523
0.094760 1.000000 0.058761
0.455827 1.000000 0.043784
0.897661 1.000000 0.026538
1.000000 1.000000 0.018548
0.000000 0.028444 0.684019
0.143107 0.027519 0.668131
0.586550 0.024576 0.643428
0.945085 0.022202 0.621206
1.000000 0.021696 0.607297
0.000000 0.163329 0.631717
0.124434 0.156381 0.616819
0.549768 0.147652 0.593084
0.932107 0.139388 0.570589
1.000000 0.133222 0.556666
0.001531 0.552148 0.552297
0.114634 0.539831 0.538460
0.519321 0.525551 0.515869
0.924008 0.511270 0.493282
1.000000 0.499132 0.479640
0.011131 0.917880 0.475081
0.106534 0.911713 0.461176
0.488874 0.903449 0.438711
0.914208 0.894720 0.415015
1.000000 0.888187 0.400581
0.014594 1.000000 0.425163
0.094176 1.000000 0.411316
0.452754 1.000000 0.389199
0.896251 1.000000 0.364622
1.000000 1.000000 0.349248
0.000000 0.027681 1.000000
0.141704 0.026734 1.000000
0.583483 0.023786 0.996420
0.944505 0.021379 0.981214
1.000000 0.020846 0.974256
0.000000 0.160408 0.994462
0.123258 0.153514 0.986573
0.546649 0.144842 0.969735
0.931355 0.136607 0.953880
1.000000 0.130473 0.946473
0.002446 0.547323 0.938158
0.113674 0.534999 0.930897
0.516188 0.520717 0.914728
0.923061 0.506411 0.898256
1.000000 0.494275 0.890569
0.012157 0.915071 0.881986
0.105878 0.908843 0.874055
0.485870 0.900522 0.857374
0.913153 0.891705 0.839112
1.000000 0.885110 0.829895
0.015739 1.000000 0.850940
0.093820 1.000000 0.842299
0.449933 1.000000 0.825163
0.895094 1.000000 0.805177
1.000000 1.000000 0.794125
0.000000 0.027683 1.000000
0.139738 0.026727 1.000000
0.579786 0.023751 1.000000
0.943254 0.021293 1.000000
1.000000 0.020733 1.000000
0.000000 0.158275 1.000000
0.121467 0.151438 1.000000
0.542857 0.142802 1.000000
0.929884 0.134575 1.000000
1.000000 0.128470 1.000000
0.002630 0.543195 1.000000
0.111995 0.530863 1.000000
0.512289 0.516559 1.000000
0.921323 0.502227 1.000000
1.000000 0.490079 1.000000
0.012411 0.912918 0.997333
0.104469 0.906628 0.995156
0.482099 0.898249 0.984429
0.911306 0.889344 0.972172
1.000000 0.882666 0.969145
0.016102 1.000000 0.985976
0.092703 1.000000 0.983687
0.446347 1.000000 0.973119
0.893145 1.000000 0.959768
1.000000 1.000000 0.955528
