render-worker/luts/viral.cube
# Generated by render-worker/scripts/generate-luts.mjs
# Do not hand-edit — re-run the script and let math win.
TITLE "EstateMotion Viral — Teal-Orange (punchy, social-native)"
LUT_3D_SIZE 17
DOMAIN_MIN 0.0 0.0 0.0
DOMAIN_MAX 1.0 1.0 1.0
0.000000 0.029784 0.089069
0.006405 0.029775 0.088592
0.036948 0.029571 0.087675
0.082085 0.029269 0.086320
0.146267 0.028839 0.084394
0.232706 0.028260 0.081801
0.340979 0.027535 0.078552
0.464927 0.026705 0.074832
0.593011 0.025848 0.070988
0.712102 0.025050 0.067415
0.812436 0.024378 0.064404
0.890183 0.023858 0.062071
0.946612 0.023480 0.060378
0.985652 0.023219 0.059206
1.000000 0.023044 0.058422
1.000000 0.022967 0.058079
1.000000 0.022967 0.058079
0.000000 0.047923 0.087194
0.004966 0.047376 0.086818
0.034537 0.046643 0.085986
0.078351 0.045819 0.084726
0.140881 0.044876 0.082904
0.225512 0.043789 0.080418
0.332200 0.042561 0.077269
0.455269 0.041227 0.073629
0.583502 0.039864 0.069833
0.703706 0.038559 0.066277
0.805716 0.037382 0.063267
0.885227 0.036360 0.060932
0.943192 0.035486 0.059243
0.983418 0.034737 0.058085
1.000000 0.034081 0.057325
1.000000 0.033522 0.056980
1.000000 0.033056 0.057029
0.000000 0.074850 0.084410
0.003829 0.074043 0.084099
0.032461 0.073064 0.083321
0.074988 0.071998 0.082125
0.135895 0.070817 0.080378
0.218727 0.069496 0.077971
0.323803 0.068034 0.074896
0.445927 0.066464 0.071309
0.574233 0.064860 0.067536
0.695494 0.063310 0.063973
0.799160 0.061884 0.060938
0.880450 0.060616 0.058573
0.939981 0.059499 0.056861
0.981429 0.058511 0.055691
1.000000 0.057620 0.054928
1.000000 0.056823 0.054555
1.000000 0.056133 0.054627
0.000000 0.113928 0.080369
0.003072 0.112765 0.080123
0.030788 0.111450 0.079408
0.072054 0.110054 0.078285
0.131358 0.108547 0.076620
0.212392 0.106903 0.074302
0.315822 0.105119 0.071311
0.436931 0.103226 0.067789
0.565222 0.101294 0.064050
0.687471 0.099411 0.060491
0.792762 0.097652 0.057441
0.875833 0.096050 0.055056
0.936954 0.094604 0.053329
0.979649 0.093291 0.052154
1.000000 0.092080 0.051396
1.000000 0.090959 0.051002
1.000000 0.089958 0.051106
0.000000 0.168824 0.074693
0.002790 0.167207 0.074509
0.029613 0.165468 0.073865
0.069644 0.163652 0.072824
0.127366 0.161730 0.071250
0.206606 0.159675 0.069030
0.308358 0.157480 0.066133
0.428384 0.155174 0.062686
0.556574 0.152825 0.058993
0.679740 0.150521 0.055450
0.786621 0.148337 0.052394
0.871474 0.146312 0.049999
0.934203 0.144446 0.048266
0.978172 0.142717 0.047094
1.000000 0.141094 0.046351
1.000000 0.139558 0.045943
1.000000 0.138156 0.046089
0.000000 0.242501 0.067067
0.003062 0.240371 0.066945
0.029014 0.238155 0.066377
0.067837 0.235864 0.065422
0.124001 0.233469 0.063945
0.201451 0.230944 0.061828
0.301499 0.228280 0.059031
0.420376 0.225501 0.055669
0.548379 0.222674 0.052031
0.672389 0.219886 0.048512
0.780823 0.217213 0.045459
0.867458 0.214699 0.043059
0.931816 0.212346 0.041326
0.977084 0.210133 0.040165
1.000000 0.208031 0.039442
1.000000 0.206010 0.039031
1.000000 0.204136 0.039221
0.000000 0.335529 0.057384
0.003904 0.332954 0.057357
0.029010 0.330286 0.056862
0.066653 0.327543 0.055990
0.121285 0.324697 0.054606
0.196956 0.321720 0.052591
0.295277 0.318602 0.049894
0.412945 0.315364 0.046616
0.540678 0.312070 0.043035
0.665459 0.308806 0.039541
0.775408 0.305653 0.036492
0.863822 0.302654 0.034087
0.929830 0.299816 0.032354
0.976426 0.297118 0.031202
1.000000 0.294532 0.030499
1.000000 0.292033 0.030121
1.000000 0.289685 0.030335
0.000000 0.444454 0.046045
0.005225 0.441578 0.046098
0.029512 0.438598 0.045661
0.066007 0.435541 0.044856
0.119136 0.432378 0.043551
0.193043 0.429081 0.041623
0.289621 0.425639 0.039014
0.406025 0.422069 0.035809
0.533409 0.418432 0.032274
0.658888 0.414814 0.028795
0.770314 0.411296 0.025738
0.860505 0.407926 0.023317
0.928187 0.404714 0.021571
0.976141 0.401640 0.020416
1.000000 0.398677 0.019721
1.000000 0.395849 0.019413
1.000000 0.393126 0.019640
0.000370 0.561203 0.033893
0.006812 0.558269 0.033998
0.030309 0.555219 0.033592
0.065690 0.552088 0.032829
0.117350 0.548847 0.031578
0.189511 0.545467 0.029712
0.284336 0.541935 0.027165
0.399427 0.538266 0.024011
0.526385 0.534517 0.020501
0.652492 0.530773 0.017016
0.765356 0.527118 0.013928
0.857325 0.523602 0.011468
0.926704 0.520238 0.009686
0.976050 0.517008 0.008504
1.000000 0.513883 0.007794
1.000000 0.510949 0.007539
1.000000 0.508065 0.007756
0.003392 0.675057 0.022042
0.008378 0.672333 0.022170
0.031116 0.669482 0.021767
0.065418 0.666546 0.021017
0.115642 0.663496 0.019790
0.186080 0.660303 0.017957
0.279145 0.656951 0.015446
0.392877 0.653454 0.012316
0.519337 0.649865 0.008804
0.645999 0.646267 0.005287
0.760261 0.642746 0.002143
0.854005 0.639355 0.000000
0.925105 0.636110 0.000000
0.975879 0.632995 0.000000
1.000000 0.629981 0.000000
1.000000 0.627211 0.000000
1.000000 0.624436 0.000000
0.006079 0.776306 0.011503
0.009664 0.773991 0.011632
0.031670 0.771541 0.011209
0.064925 0.769004 0.010450
0.113746 0.766352 0.009225
0.182483 0.763556 0.007404
0.273783 0.760597 0.004907
0.386112 0.757486 0.001780
0.511999 0.754274 0.000000
0.639143 0.751042 0.000000
0.754758 0.747876 0.000000
0.850271 0.744834 0.000000
0.923115 0.741934 0.000000
0.975349 0.739160 0.000000
1.000000 0.736486 0.000000
1.000000 0.734106 0.000000
1.000000 0.731675 0.000000
0.008279 0.859222 0.002872
0.010513 0.857399 0.002992
0.031811 0.855436 0.002541
0.064048 0.853388 0.001762
0.111497 0.851227 0.000529
0.178552 0.848921 0.000000
0.268081 0.846454 0.000000
0.378964 0.843831 0.000000
0.504203 0.841100 0.000000
0.631751 0.838341 0.000000
0.748668 0.835642 0.000000
0.845938 0.833061 0.000000
0.920541 0.830621 0.000000
0.974265 0.828308 0.000000
1.000000 0.826110 0.000000
1.000000 0.824219 0.000000
1.000000 0.822260 0.000000
0.009962 0.922661 0.000000
0.010890 0.921311 0.000000
0.031501 0.919819 0.000000
0.062746 0.918246 0.000000
0.108850 0.916561 0.000000
0.174243 0.914737 0.000000
0.261994 0.912753 0.000000
0.371387 0.910612 0.000000
0.495902 0.908359 0.000000
0.623771 0.906073 0.000000
0.741934 0.903841 0.000000
0.840943 0.901725 0.000000
0.917320 0.899751 0.000000
0.972560 0.897906 0.000000
1.000000 0.896199 0.000000
1.000000 0.894791 0.000000
1.000000 0.893318 0.000000
0.011185 0.968718 0.000000
0.011159 0.967765 0.000000
0.030790 0.966671 0.000000
0.061069 0.965497 0.000000
0.105853 0.964217 0.000000
0.169602 0.962802 0.000000
0.255571 0.961229 0.000000
0.363432 0.959501 0.000000
0.487146 0.957658 0.000000
0.615251 0.955776 0.000000
0.734598 0.953945 0.000000
0.835325 0.952229 0.000000
0.913483 0.950654 0.000000
0.970264 0.949214 0.000000
1.000000 0.947923 0.000000
1.000000 0.946938 0.000000
1.000000 0.945891 0.000000
0.012039 1.000000 0.000000
0.012021 1.000000 0.000000
0.029770 0.999462 0.000000
0.059105 0.998596 0.000000
0.102596 0.997630 0.000000
0.164719 0.996532 0.000000
0.248903 0.995280 0.000000
0.355192 0.993874 0.000000
0.478030 0.992350 0.000000
0.606285 0.990783 0.000000
0.726753 0.989262 0.000000
0.829170 0.987855 0.000000
0.909116 0.986591 0.000000
0.967461 0.985465 0.000000
1.000000 0.984490 0.000000
1.000000 0.983837 0.000000
1.000000 0.983128 0.000000
0.012941 1.000000 0.000000
0.012914 1.000000 0.000000
0.028825 1.000000 0.000000
0.057227 1.000000 0.000000
0.099440 1.000000 0.000000
0.159950 1.000000 0.000000
0.242341 1.000000 0.000000
0.347019 1.000000 0.000000
0.468906 1.000000 0.000000
0.597224 1.000000 0.000000
0.718742 1.000000 0.000000
0.822817 1.000000 0.000000
0.904548 1.000000 0.000000
0.964468 1.000000 0.000000
1.000000 1.000000 0.000000
1.000000 1.000000 0.000000
1.000000 1.000000 0.000000
0.013413 1.000000 0.000000
0.013413 1.000000 0.000000
0.027582 1.000000 0.000000
0.055111 1.000000 0.000000
0.096107 1.000000 0.000000
0.155057 1.000000 0.000000
0.235688 1.000000 0.000000
0.338750 1.000000 0.000000
0.459644 1.000000 0.000000
0.587964 1.000000 0.000000
0.710493 1.000000 0.000000
0.816223 1.000000 0.000000
0.899776 1.000000 0.000000
0.961330 1.000000 0.000000
1.000000 1.000000 0.000000
1.000000 1.000000 0.000000
1.000000 1.000000 0.000000
0.000000 0.029741 0.108010
0.006258 0.029734 0.107003
0.036702 0.029531 0.105560
0.081704 0.029231 0.103686
0.145719 0.028804 0.101246
0.231975 0.028228 0.098144
0.340090 0.027505 0.094391
0.463953 0.026677 0.090171
0.592056 0.025820 0.085828
0.711261 0.025023 0.081758
0.811766 0.024351 0.078253
0.889691 0.023831 0.075431
0.946273 0.023453 0.073254
0.985432 0.023192 0.071605
1.000000 0.023017 0.070350
1.000000 0.022941 0.069537
1.000000 0.022942 0.069077
0.000000 0.047700 0.104377
0.004816 0.047156 0.103489
0.034290 0.046427 0.102148
0.077973 0.045607 0.100385
0.140337 0.044668 0.098066
0.224786 0.043585 0.095088
0.331313 0.042360 0.091453
0.454288 0.041030 0.087329
0.582532 0.039670 0.083050
0.702845 0.038368 0.079014
0.805023 0.037191 0.075527
0.884713 0.036171 0.072718
0.942834 0.035299 0.070561
0.983182 0.034552 0.068941
1.000000 0.033898 0.067725
1.000000 0.033341 0.066926
1.000000 0.032877 0.066530
0.000000 0.074544 0.099883
0.003678 0.073741 0.099077
0.032217 0.072766 0.097807
0.074615 0.071705 0.096125
0.135358 0.070529 0.093897
0.218009 0.069213 0.091016
0.322919 0.067755 0.087470
0.444944 0.066189 0.083415
0.573251 0.064588 0.079176
0.694615 0.063041 0.075149
0.798446 0.061618 0.071652
0.879916 0.060351 0.068830
0.939606 0.059237 0.066665
0.981178 0.058251 0.065048
1.000000 0.057363 0.063843
1.000000 0.056569 0.063031
1.000000 0.055881 0.062673
0.000000 0.113509 0.094193
0.002920 0.112351 0.093468
0.030545 0.111041 0.092277
0.071685 0.109650 0.090685
0.130828 0.108148 0.088555
0.211681 0.106510 0.085778
0.314942 0.104731 0.082332
0.435945 0.102843 0.078358
0.564230 0.100915 0.074168
0.686575 0.099036 0.070161
0.792027 0.097279 0.066664
0.875279 0.095681 0.063836
0.936560 0.094238 0.061672
0.979383 0.092928 0.060064
1.000000 0.091720 0.058880
1.000000 0.090602 0.058061
1.000000 0.089605 0.057749
0.000000 0.168262 0.086926
0.002636 0.166650 0.086279
0.029370 0.164917 0.085175
0.069278 0.163107 0.083679
0.126842 0.161190 0.081657
0.205901 0.159141 0.078993
0.307482 0.156953 0.075656
0.427395 0.154653 0.071773
0.555570 0.152309 0.067645
0.678825 0.150009 0.063668
0.785864 0.147828 0.060181
0.870898 0.145807 0.057357
0.933791 0.143944 0.055201
0.977889 0.142219 0.053611
1.000000 0.140600 0.052455
1.000000 0.139067 0.051636
1.000000 0.137670 0.051380
0.000000 0.241777 0.077764
0.002905 0.239654 0.077195
0.028770 0.237443 0.076182
0.067473 0.235158 0.074787
0.123482 0.232770 0.072877
0.200752 0.230251 0.070331
0.300627 0.227593 0.067110
0.419385 0.224820 0.063326
0.547365 0.221998 0.059268
0.671456 0.219214 0.055330
0.780045 0.216546 0.051859
0.866860 0.214036 0.049046
0.931384 0.211687 0.046904
0.976785 0.209478 0.045338
1.000000 0.207379 0.044216
1.000000 0.205363 0.043411
1.000000 0.203493 0.043209
0.000000 0.334654 0.066596
0.003745 0.332085 0.066137
0.028766 0.329421 0.065212
0.066292 0.326684 0.063915
0.120771 0.323843 0.062113
0.196263 0.320872 0.059683
0.294409 0.317759 0.056577
0.411952 0.314527 0.052892
0.539654 0.311238 0.048905
0.664508 0.307978 0.045006
0.774609 0.304828 0.041553
0.863202 0.301832 0.038749
0.929378 0.298998 0.036620
0.976110 0.296304 0.035077
1.000000 0.293722 0.033988
1.000000 0.291225 0.033228
1.000000 0.288882 0.033065
0.000000 0.443478 0.053818
0.005064 0.440605 0.053453
0.029269 0.437628 0.052600
0.065650 0.434575 0.051386
0.118629 0.431416 0.049676
0.192358 0.428123 0.047348
0.288759 0.424684 0.044343
0.405032 0.421119 0.040745
0.532376 0.417485 0.036818
0.657921 0.413869 0.032949
0.769494 0.410353 0.029502
0.859865 0.406985 0.026695
0.927716 0.403775 0.024566
0.975809 0.400704 0.023034
1.000000 0.397742 0.021966
1.000000 0.394916 0.021288
1.000000 0.392196 0.021151
0.000361 0.560207 0.040266
0.006651 0.557274 0.039968
0.030069 0.554225 0.039161
0.065339 0.551096 0.038002
0.116851 0.547856 0.036360
0.188836 0.544478 0.034108
0.283482 0.540947 0.031179
0.398437 0.537280 0.027646
0.525347 0.533532 0.023757
0.651512 0.529788 0.019895
0.764518 0.526133 0.016432
0.856665 0.522617 0.013598
0.926216 0.519252 0.011447
0.975704 0.516022 0.009900
1.000000 0.512898 0.008830
1.000000 0.509963 0.008218
1.000000 0.507080 0.008082
0.003380 0.674133 0.027053
0.008221 0.671408 0.026792
0.030882 0.668556 0.026001
0.065074 0.665619 0.024869
0.115154 0.662568 0.023265
0.185418 0.659375 0.021060
0.278302 0.656023 0.018180
0.391893 0.652525 0.014684
0.518296 0.648934 0.010808
0.645009 0.645335 0.006927
0.759408 0.641811 0.003419
0.853329 0.638418 0.000531
0.924603 0.635171 0.000000
0.975521 0.632053 0.000000
1.000000 0.629036 0.000000
1.000000 0.626262 0.000000
1.000000 0.623486 0.000000
0.006067 0.775521 0.015191
0.009512 0.773204 0.014944
0.031443 0.770751 0.014147
0.064592 0.768212 0.013019
0.113271 0.765558 0.011430
0.181835 0.762760 0.009249
0.272953 0.759799 0.006396
0.385136 0.756687 0.002916
0.510959 0.753472 0.000000
0.638146 0.750237 0.000000
0.753892 0.747067 0.000000
0.849582 0.744021 0.000000
0.922601 0.741115 0.000000
0.974983 0.738337 0.000000
1.000000 0.735659 0.000000
1.000000 0.733273 0.000000
1.000000 0.730838 0.000000
0.008269 0.858604 0.005278
0.010367 0.856779 0.005035
0.031592 0.854813 0.004223
0.063725 0.852763 0.003088
0.111035 0.850599 0.001503
0.177920 0.848291 0.000000
0.267266 0.845821 0.000000
0.377999 0.843196 0.000000
0.503167 0.840461 0.000000
0.630749 0.837698 0.000000
0.747793 0.834994 0.000000
0.845239 0.832408 0.000000
0.920019 0.829963 0.000000
0.973894 0.827645 0.000000
1.000000 0.825439 0.000000
1.000000 0.823544 0.000000
1.000000 0.821581 0.000000
0.009953 0.922203 0.000000
0.010749 0.920852 0.000000
0.031290 0.919358 0.000000
0.062434 0.917782 0.000000
0.108402 0.916095 0.000000
0.173627 0.914268 0.000000
0.261197 0.912281 0.000000
0.370436 0.910138 0.000000
0.494872 0.907882 0.000000
0.622767 0.905591 0.000000
0.741051 0.903355 0.000000
0.840234 0.901234 0.000000
0.916789 0.899255 0.000000
0.972182 0.897405 0.000000
1.000000 0.895691 0.000000
1.000000 0.894279 0.000000
1.000000 0.892803 0.000000
0.011176 0.968395 0.000000
0.011151 0.967439 0.000000
0.030588 0.966343 0.000000
0.060769 0.965167 0.000000
0.105421 0.963885 0.000000
0.169004 0.962468 0.000000
0.254792 0.960894 0.000000
0.362495 0.959164 0.000000
0.486122 0.957318 0.000000
0.614245 0.955433 0.000000
0.733708 0.953598 0.000000
0.834605 0.951878 0.000000
0.912942 0.950299 0.000000
0.969879 0.948855 0.000000
1.000000 0.947557 0.000000
1.000000 0.946569 0.000000
1.000000 0.945520 0.000000
0.012033 1.000000 0.000000
0.012015 1.000000 0.000000
0.029576 0.999236 0.000000
0.058816 0.998370 0.000000
0.102178 0.997402 0.000000
0.164138 0.996303 0.000000
0.248140 0.995050 0.000000
0.354268 0.993643 0.000000
0.477013 0.992117 0.000000
0.605277 0.990548 0.000000
0.725853 0.989024 0.000000
0.828439 0.987613 0.000000
0.908565 0.986346 0.000000
0.967068 0.985217 0.000000
1.000000 0.984235 0.000000
1.000000 0.983580 0.000000
1.000000 0.982870 0.000000
0.012932 1.000000 0.000000
0.012905 1.000000 0.000000
0.028634 1.000000 0.000000
0.056944 1.000000 0.000000
0.099030 1.000000 0.000000
0.159378 1.000000 0.000000
0.241589 1.000000 0.000000
0.346101 1.000000 0.000000
0.467889 1.000000 0.000000
0.596207 1.000000 0.000000
0.717828 1.000000 0.000000
0.822068 1.000000 0.000000
0.903979 1.000000 0.000000
0.964060 1.000000 0.000000
1.000000 1.000000 0.000000
1.000000 1.000000 0.000000
1.000000 1.000000 0.000000
0.013413 1.000000 0.000000
0.013413 1.000000 0.000000
0.027407 1.000000 0.000000
0.054846 1.000000 0.000000
0.095718 1.000000 0.000000
0.154509 1.000000 0.000000
0.234960 1.000000 0.000000
0.337854 1.000000 0.000000
0.458641 1.000000 0.000000
0.586954 1.000000 0.000000
0.709578 1.000000 0.000000
0.815471 1.000000 0.000000
0.899204 1.000000 0.000000
0.960921 1.000000 0.000000
1.000000 1.000000 0.000000
1.000000 1.000000 0.000000
1.000000 1.000000 0.000000
0.000000 0.029676 0.137153
0.006140 0.029669 0.135870
0.036486 0.029467 0.134153
0.081354 0.029169 0.132008
0.145202 0.028743 0.129301
0.231276 0.028168 0.125934
0.339233 0.027447 0.121918
0.463010 0.026620 0.117435
0.591132 0.025764 0.112828
0.710452 0.024967 0.108493
0.811128 0.024295 0.104724
0.889231 0.023773 0.101639
0.945969 0.023395 0.099203
0.985246 0.023134 0.097298
1.000000 0.022959 0.095789
1.000000 0.022882 0.094723
1.000000 0.022884 0.094017
0.000000 0.047453 0.132608
0.004697 0.046911 0.131452
0.034076 0.046184 0.129844
0.077627 0.045368 0.127818
0.139827 0.044432 0.125239
0.224094 0.043354 0.122004
0.330459 0.042132 0.118113
0.453342 0.040805 0.113732
0.581596 0.039447 0.109197
0.702018 0.038146 0.104904
0.804364 0.036971 0.101159
0.884233 0.035951 0.098095
0.942512 0.035081 0.095686
0.982982 0.034334 0.093817
1.000000 0.033682 0.092354
1.000000 0.033126 0.091308
1.000000 0.032665 0.090673
0.000000 0.074212 0.127218
0.003561 0.073413 0.126152
0.032006 0.072441 0.124622
0.074276 0.071384 0.122684
0.134857 0.070212 0.120203
0.217326 0.068900 0.117071
0.322072 0.067446 0.113277
0.443997 0.065884 0.108974
0.572306 0.064286 0.104485
0.693772 0.062741 0.100208
0.797768 0.061320 0.096461
0.879418 0.060055 0.093391
0.939268 0.058942 0.090980
0.980966 0.057958 0.089121
1.000000 0.057073 0.087677
1.000000 0.056279 0.086625
1.000000 0.055594 0.086034
0.000000 0.113063 0.120661
0.002803 0.111908 0.119682
0.030337 0.110603 0.118239
0.071352 0.109216 0.116397
0.130335 0.107719 0.114022
0.211007 0.106086 0.111002
0.314101 0.104312 0.107315
0.434997 0.102428 0.103099
0.563275 0.100504 0.098668
0.685716 0.098628 0.094417
0.791331 0.096874 0.090677
0.874762 0.095278 0.087608
0.936206 0.093837 0.085205
0.979157 0.092530 0.083362
1.000000 0.091325 0.081945
1.000000 0.090209 0.080892
1.000000 0.089216 0.080355
0.000000 0.167671 0.112553
0.002519 0.166063 0.111660
0.029164 0.164335 0.110311
0.068950 0.162531 0.108573
0.126357 0.160619 0.106312
0.205235 0.158576 0.103412
0.306646 0.156393 0.099841
0.426447 0.154098 0.095723
0.554606 0.151758 0.091361
0.677949 0.149462 0.087148
0.785148 0.147285 0.083424
0.870362 0.145267 0.080366
0.933419 0.143407 0.077977
0.977649 0.141685 0.076159
1.000000 0.140070 0.074777
1.000000 0.138540 0.073731
1.000000 0.137147 0.073256
0.000000 0.241022 0.102576
0.002787 0.238905 0.101769
0.028566 0.236699 0.100518
0.067150 0.234420 0.098888
0.123004 0.232037 0.096745
0.200095 0.229524 0.093970
0.299796 0.226872 0.090522
0.418436 0.224104 0.086511
0.546392 0.221287 0.082225
0.670564 0.218507 0.078058
0.779309 0.215843 0.074359
0.866303 0.213336 0.071317
0.930994 0.210990 0.068949
0.976529 0.208785 0.067161
1.000000 0.206691 0.065819
1.000000 0.204679 0.064798
1.000000 0.202812 0.064379
0.000000 0.333746 0.090616
0.003625 0.331182 0.089927
0.028564 0.328523 0.088771
0.065973 0.325790 0.087246
0.120300 0.322955 0.085218
0.195614 0.319989 0.082566
0.293585 0.316881 0.079239
0.411003 0.313654 0.075334
0.538672 0.310369 0.071126
0.663600 0.307113 0.067005
0.773852 0.303966 0.063330
0.862625 0.300973 0.060304
0.928971 0.298142 0.057956
0.975839 0.295451 0.056197
1.000000 0.292873 0.054895
1.000000 0.290379 0.053924
1.000000 0.288041 0.053552
0.000000 0.442466 0.077066
0.004945 0.439596 0.076477
0.029069 0.436622 0.075400
0.065336 0.433572 0.073963
0.118166 0.430416 0.072036
0.191718 0.427127 0.069492
0.287942 0.423692 0.066273
0.404084 0.420130 0.062462
0.531388 0.416499 0.058322
0.656999 0.412885 0.054237
0.768719 0.409371 0.050575
0.859269 0.406005 0.047552
0.927291 0.402796 0.045211
0.975524 0.399727 0.043469
1.000000 0.396767 0.042195
1.000000 0.393942 0.041312
1.000000 0.391226 0.040971
0.000394 0.559174 0.062755
0.006535 0.556242 0.062240
0.029874 0.553193 0.061215
0.065032 0.550064 0.059841
0.116398 0.546826 0.057988
0.188208 0.543449 0.055527
0.282675 0.539920 0.052391
0.397493 0.536254 0.048652
0.524355 0.532506 0.044556
0.650578 0.528763 0.040486
0.763726 0.525107 0.036814
0.856052 0.521590 0.033772
0.925775 0.518225 0.031414
0.975405 0.514995 0.029664
1.000000 0.511871 0.028393
1.000000 0.508934 0.027582
1.000000 0.506053 0.027250
0.003413 0.673169 0.048796
0.008110 0.670443 0.048324
0.030694 0.667589 0.047323
0.064778 0.664651 0.045982
0.114713 0.661599 0.044173
0.184803 0.658405 0.041766
0.277508 0.655052 0.038686
0.390957 0.651553 0.034990
0.517304 0.647961 0.030914
0.644067 0.644360 0.026831
0.758603 0.640834 0.023121
0.852701 0.637438 0.020031
0.924149 0.634187 0.017627
0.975212 0.631067 0.015841
1.000000 0.628048 0.014544
1.000000 0.625272 0.013775
1.000000 0.622495 0.013422
0.006102 0.774695 0.036203
0.009407 0.772375 0.035752
0.031264 0.769919 0.034751
0.064306 0.767378 0.033421
0.112844 0.764722 0.031633
0.181236 0.761921 0.029256
0.272174 0.758958 0.026209
0.384211 0.755843 0.022536
0.509969 0.752626 0.018457
0.637197 0.749387 0.014341
0.753075 0.746214 0.010572
0.848940 0.743163 0.007411
0.922134 0.740254 0.004935
0.974663 0.737473 0.003087
1.000000 0.734791 0.001739
1.000000 0.732401 0.000981
1.000000 0.729965 0.000581
0.008306 0.857943 0.025578
0.010269 0.856115 0.025136
0.031422 0.854147 0.024126
0.063452 0.852093 0.022795
0.110623 0.849926 0.021018
0.177337 0.847616 0.018660
0.266503 0.845144 0.015635
0.377084 0.842516 0.011975
0.502179 0.839779 0.007885
0.629794 0.837013 0.003726
0.746963 0.834305 0.000000
0.844582 0.831715 0.000000
0.919539 0.829266 0.000000
0.973563 0.826944 0.000000
1.000000 0.824732 0.000000
1.000000 0.822835 0.000000
1.000000 0.820869 0.000000
0.009993 0.921702 0.017046
0.010658 0.920348 0.016613
0.031128 0.918851 0.015593
0.062173 0.917273 0.014263
0.108004 0.915584 0.012495
0.173060 0.913756 0.010156
0.260448 0.911768 0.007154
0.369531 0.909623 0.003507
0.493886 0.907365 0.000000
0.621806 0.905072 0.000000
0.740209 0.902832 0.000000
0.839563 0.900708 0.000000
0.916295 0.898724 0.000000
0.971840 0.896871 0.000000
1.000000 0.895151 0.000000
1.000000 0.893737 0.000000
1.000000 0.892259 0.000000
0.011217 0.968028 0.010390
0.011191 0.967069 0.009956
0.030433 0.965973 0.008950
0.060516 0.964796 0.007626
0.105034 0.963514 0.005874
0.168450 0.962096 0.003561
0.254055 0.960521 0.000588
0.361598 0.958790 0.000000
0.485138 0.956943 0.000000
0.613277 0.955056 0.000000
0.732852 0.953218 0.000000
0.833919 0.951495 0.000000
0.912434 0.949913 0.000000
0.969526 0.948466 0.000000
1.000000 0.947163 0.000000
1.000000 0.946173 0.000000
1.000000 0.945123 0.000000
0.012072 1.000000 0.005245
0.012053 0.999755 0.004798
0.029426 0.998973 0.003835
0.058570 0.998106 0.002524
0.101801 0.997138 0.000796
0.163596 0.996040 0.000000
0.247416 0.994787 0.000000
0.353381 0.993379 0.000000
0.476030 0.991853 0.000000
0.604302 0.990283 0.000000
0.724985 0.988757 0.000000
0.827737 0.987344 0.000000
0.908042 0.986074 0.000000
0.966703 0.984942 0.000000
1.000000 0.983957 0.000000
1.000000 0.983300 0.000000
1.000000 0.982589 0.000000
0.012964 1.000000 0.001548
0.012935 1.000000 0.001080
0.028483 1.000000 0.000151
0.056700 1.000000 0.000000
0.098657 1.000000 0.000000
0.158843 1.000000 0.000000
0.240871 1.000000 0.000000
0.345218 1.000000 0.000000
0.466903 1.000000 0.000000
0.595220 1.000000 0.000000
0.716941 1.000000 0.000000
0.821344 1.000000 0.000000
0.903436 1.000000 0.000000
0.963676 1.000000 0.000000
1.000000 1.000000 0.000000
1.000000 1.000000 0.000000
1.000000 1.000000 0.000000
0.013450 1.000000 0.000000
0.013449 1.000000 0.000000
0.027266 1.000000 0.000000
0.054615 1.000000 0.000000
0.095362 1.000000 0.000000
0.153992 1.000000 0.000000
0.234262 1.000000 0.000000
0.336987 1.000000 0.000000
0.457665 1.000000 0.000000
0.585969 1.000000 0.000000
0.708686 1.000000 0.000000
0.814739 1.000000 0.000000
0.898653 1.000000 0.000000
0.960532 1.000000 0.000000
1.000000 1.000000 0.000000
1.000000 1.000000 0.000000
1.000000 1.000000 0.000000
0.000000 0.029577 0.180786
0.006060 0.029570 0.179122
0.036308 0.029370 0.177025
0.081042 0.029073 0.174503
0.144723 0.028649 0.171423
0.230616 0.028077 0.167687
0.338413 0.027358 0.163303
0.462104 0.026532 0.158452
0.590243 0.025677 0.153477
0.709678 0.024880 0.148772
0.810524 0.024207 0.144636
0.888805 0.023685 0.141186
0.945698 0.023307 0.138387
